; generated by Slic3r 1.2.9 on 2016-10-26 at 06:22:04

; external perimeters extrusion width = 0.40mm
; perimeters extrusion width = 0.48mm
; infill extrusion width = 0.48mm
; solid infill extrusion width = 0.48mm
; top infill extrusion width = 0.48mm

M107
M190 S55 ; set bed temperature
M104 S210 ; set temperature
G28 ; home all axes
G29 ; Auto-level
G1 Z5 F5000 ; lift nozzle

M109 S210 ; wait for temperature to be reached
G21 ; set units to millimeters
G90 ; use absolute coordinates
M82 ; use absolute distances for extrusion
G92 E0
G1 Z0.350 F7800.000
G1 E-0.20000 F2400.00000
G92 E0
G1 Z0.550 F7800.000
G1 X107.459 Y48.885 F7800.000
G1 Z0.350 F7800.000
G1 E0.20000 F2400.00000
G1 X108.208 Y47.332 E0.35672 F1800.000
G1 X108.517 Y46.807 E0.41210
G1 X109.188 Y45.749 E0.52610
G1 X109.496 Y45.295 E0.57601
G1 X109.864 Y44.818 E0.63073
G1 X110.664 Y43.852 E0.74473
G1 X111.080 Y43.383 E0.80175
G1 X111.451 Y43.014 E0.84940
G1 X112.742 Y41.821 E1.00917
G1 X113.252 Y41.422 E1.06807
G1 X114.266 Y40.685 E1.18207
G1 X114.747 Y40.359 E1.23490
G1 X115.237 Y40.069 E1.28671
G1 X116.336 Y39.465 E1.40070
G1 X116.874 Y39.192 E1.45557
G1 X117.383 Y38.972 E1.50599
G1 X117.744 Y38.830 E1.54128
G1 X121.025 Y38.192 E1.84521
G1 X128.680 Y38.132 E2.54126
G1 X132.106 Y38.770 E2.85818
G1 X133.127 Y39.192 E2.95863 F1800.000
G1 X133.664 Y39.465 E3.01341
G1 X135.254 Y40.359 E3.17926
G1 X135.734 Y40.685 E3.23203
G1 X136.748 Y41.422 E3.34603
G1 X137.257 Y41.820 E3.40476
G1 X138.549 Y43.014 E3.56469
G1 X138.922 Y43.386 E3.61263
G1 X139.336 Y43.852 E3.66937
G1 X140.136 Y44.818 E3.78337
G1 X140.506 Y45.298 E3.83844
G1 X141.483 Y46.807 E4.00198
G1 X141.792 Y47.332 E4.05737
G1 X142.471 Y48.737 E4.19925
G1 X143.253 Y51.377 E4.44957
G1 X148.485 Y89.395 E7.93910
G1 X148.575 Y90.205 E8.01327
G1 X148.575 Y92.111 E8.18659
G1 X148.520 Y92.631 E8.23411
G1 X148.431 Y93.263 E8.29207
G1 X147.738 Y97.195 E8.65516
G1 X147.479 Y98.326 E8.76067
G1 X146.827 Y100.117 E8.93401
G1 X146.597 Y100.588 E8.98159
G1 X146.298 Y101.149 E9.03946
G1 X144.302 Y104.608 E9.40255
G1 X143.672 Y105.581 E9.50802
G1 X142.447 Y107.041 E9.68130
G1 X141.597 Y107.831 E9.78683
G1 X138.538 Y110.398 E10.14992
G1 X137.613 Y111.098 E10.25535
G1 X135.960 Y112.052 E10.42891
G1 X135.483 Y112.264 E10.47643
G1 X134.893 Y112.502 E10.53421
G1 X131.141 Y113.868 E10.89730
G1 X130.032 Y114.209 E11.00282
G1 X128.155 Y114.540 E11.17612
G1 X126.997 Y114.599 E11.28161
G1 X123.003 Y114.599 E11.64469
G1 X122.366 Y114.577 E11.70267
G1 X121.845 Y114.540 E11.75019
G1 X119.968 Y114.209 E11.92349
G1 X118.859 Y113.868 E12.02901
G1 X115.107 Y112.502 E12.39210
G1 X114.040 Y112.052 E12.49739
G1 X112.387 Y111.098 E12.67095
G1 X111.462 Y110.398 E12.77638
G1 X108.403 Y107.831 E13.13947
G1 X107.554 Y107.042 E13.24494
G1 X106.328 Y105.582 E13.41827
G1 X106.036 Y105.148 E13.46582
G1 X105.698 Y104.608 E13.52377
G1 X103.702 Y101.149 E13.88686
G1 X103.173 Y100.117 E13.99229
G1 X102.521 Y98.326 E14.16563
G1 X102.262 Y97.195 E14.27114
G1 X101.569 Y93.263 E14.63422
G1 X101.480 Y92.631 E14.69219
G1 X101.425 Y92.111 E14.73976
G1 X101.425 Y90.205 E14.91306
G1 X101.514 Y89.406 E14.98614
G1 X106.675 Y51.536 E18.46150
G1 X107.442 Y48.942 E18.70743
G1 X108.025 Y49.151 F7800.000
G1 X108.756 Y47.631 E18.86079 F1800.000
G1 X109.044 Y47.142 E18.91238
G1 X109.716 Y46.084 E19.02638
G1 X110.003 Y45.660 E19.07290
G1 X110.346 Y45.217 E19.12387
G1 X111.145 Y44.251 E19.23787
G1 X111.533 Y43.813 E19.29102
G1 X111.879 Y43.469 E19.33541
G1 X113.144 Y42.299 E19.49204
G1 X113.619 Y41.928 E19.54693
G1 X114.633 Y41.191 E19.66093
G1 X115.081 Y40.887 E19.71014
G1 X115.538 Y40.616 E19.75843
G1 X116.637 Y40.012 E19.87243
G1 X117.138 Y39.758 E19.92354
G1 X117.613 Y39.554 E19.97053
G1 X117.974 Y39.411 E20.00582
G1 X121.030 Y38.817 E20.28894
G1 X128.685 Y38.757 E20.98499
G1 X131.876 Y39.352 E21.28020
G1 X132.863 Y39.758 E21.37723 F1800.000
G1 X133.363 Y40.012 E21.42827
G1 X134.919 Y40.887 E21.59059
G1 X136.381 Y41.928 E21.75373
G1 X136.855 Y42.298 E21.80844
G1 X138.121 Y43.469 E21.96525
G1 X138.469 Y43.816 E22.00994
G1 X138.855 Y44.251 E22.06279
G1 X139.654 Y45.217 E22.17679
G1 X139.999 Y45.663 E22.22812
G1 X140.956 Y47.142 E22.38827
G1 X141.244 Y47.631 E22.43986
G1 X141.906 Y49.003 E22.57839
G1 X142.634 Y51.462 E22.81156
G1 X147.866 Y89.480 E26.30109
G1 X147.953 Y90.271 E26.37344
G1 X147.953 Y92.046 E26.53488
G1 X147.898 Y92.566 E26.58241
G1 X147.816 Y93.154 E26.63640
G1 X147.122 Y97.086 E26.99949
G1 X146.872 Y98.175 E27.10102
G1 X146.265 Y99.843 E27.26249
G1 X146.036 Y100.314 E27.31007
G1 X145.757 Y100.837 E27.36398
G1 X143.761 Y104.295 E27.72706
G1 X143.154 Y105.232 E27.82857
G1 X142.013 Y106.592 E27.98998
G1 X141.195 Y107.353 E28.09154
G1 X138.136 Y109.919 E28.45463
G1 X137.670 Y110.284 E28.50848
G1 X137.246 Y110.592 E28.55611
G1 X135.706 Y111.481 E28.71778
G1 X135.229 Y111.693 E28.76530
G1 X134.680 Y111.915 E28.81912
G1 X130.927 Y113.281 E29.18221
G1 X129.860 Y113.608 E29.28376
G1 X128.111 Y113.917 E29.44519
G1 X126.997 Y113.974 E29.54671
G1 X123.003 Y113.974 E29.90979
G1 X122.410 Y113.953 E29.96380
G1 X121.889 Y113.917 E30.01132
G1 X120.140 Y113.608 E30.17276
G1 X119.073 Y113.281 E30.27430
G1 X115.320 Y111.915 E30.63739
G1 X114.294 Y111.481 E30.73873
G1 X112.754 Y110.592 E30.90039
G1 X111.864 Y109.919 E31.00186
G1 X108.805 Y107.353 E31.36495
G1 X107.988 Y106.592 E31.46645
G1 X106.846 Y105.232 E31.62791
G1 X106.554 Y104.799 E31.67546
G1 X106.239 Y104.295 E31.72944
G1 X104.243 Y100.837 E32.09253
G1 X103.735 Y99.843 E32.19399
G1 X103.128 Y98.175 E32.35546
G1 X102.878 Y97.086 E32.45700
G1 X102.184 Y93.154 E32.82008
G1 X102.102 Y92.566 E32.87408
G1 X102.047 Y92.046 E32.92165
G1 X102.047 Y90.270 E33.08308
G1 X102.133 Y89.491 E33.15441
G1 X107.295 Y51.620 E36.62976
G1 X108.008 Y49.208 E36.85848
G1 X108.590 Y49.417 F7800.000
G1 X109.305 Y47.930 E37.00848 F1800.000
G1 X110.244 Y46.419 E37.17026
G1 X110.510 Y46.026 E37.21339
G1 X110.827 Y45.615 E37.26062
G1 X111.627 Y44.649 E37.37461
G1 X111.986 Y44.244 E37.42389
G1 X112.307 Y43.925 E37.46501
G1 X113.546 Y42.778 E37.61851
G1 X113.986 Y42.433 E37.66939
G1 X115.001 Y41.696 E37.78340
G1 X115.415 Y41.415 E37.82899
G1 X115.839 Y41.164 E37.87376
G1 X116.938 Y40.560 E37.98776
G1 X117.402 Y40.324 E38.03511
G1 X117.842 Y40.135 E38.07868
G1 X118.203 Y39.992 E38.11397
G1 X121.035 Y39.442 E38.37627
G1 X128.690 Y39.381 E39.07232
G1 X131.646 Y39.933 E39.34583
G1 X132.598 Y40.325 E39.43945 F1800.000
G1 X133.062 Y40.560 E39.48672
G1 X134.585 Y41.415 E39.64553
G1 X136.014 Y42.433 E39.80506
G1 X136.453 Y42.777 E39.85574
G1 X137.693 Y43.925 E40.00944
G1 X138.016 Y44.246 E40.05087
G1 X138.373 Y44.649 E40.09984
G1 X139.493 Y46.029 E40.26140
G1 X140.428 Y47.477 E40.41816
G1 X140.695 Y47.930 E40.46595
G1 X141.340 Y49.269 E40.60112
G1 X142.015 Y51.547 E40.81716
G1 X147.247 Y89.565 E44.30668
G1 X147.332 Y90.336 E44.37721
G1 X147.332 Y91.981 E44.52678
G1 X147.277 Y92.501 E44.57431
G1 X147.200 Y93.045 E44.62433
G1 X146.507 Y96.978 E44.98742
G1 X146.266 Y98.023 E45.08498
G1 X145.703 Y99.569 E45.23458
G1 X145.474 Y100.040 E45.28215
G1 X145.216 Y100.525 E45.33210
G1 X143.220 Y103.983 E45.69518
G1 X142.636 Y104.883 E45.79272
G1 X141.579 Y106.142 E45.94226
G1 X140.793 Y106.874 E46.03985
G1 X137.735 Y109.441 E46.40294
G1 X137.302 Y109.779 E46.45283
G1 X136.879 Y110.086 E46.50045
G1 X135.452 Y110.910 E46.65023
G1 X134.975 Y111.122 E46.69775
G1 X134.466 Y111.328 E46.74762
G1 X130.714 Y112.694 E47.11071
G1 X129.688 Y113.008 E47.20829
G1 X128.068 Y113.293 E47.35785
G1 X126.997 Y113.349 E47.45540
G1 X123.003 Y113.349 E47.81848
G1 X122.454 Y113.330 E47.86852
G1 X121.932 Y113.293 E47.91604
G1 X120.312 Y113.008 E48.06561
G1 X119.286 Y112.694 E48.16318
G1 X115.534 Y111.328 E48.52627
G1 X114.548 Y110.910 E48.62365
G1 X113.121 Y110.086 E48.77343
G1 X112.699 Y109.779 E48.82095
G1 X112.265 Y109.441 E48.87094
G1 X109.207 Y106.874 E49.23403
G1 X108.422 Y106.143 E49.33157
G1 X107.364 Y104.883 E49.48116
G1 X107.072 Y104.449 E49.52870
G1 X106.780 Y103.983 E49.57871
G1 X104.784 Y100.525 E49.94180
G1 X104.297 Y99.569 E50.03930
G1 X103.734 Y98.023 E50.18889
G1 X103.493 Y96.978 E50.28646
G1 X102.800 Y93.045 E50.64955
G1 X102.723 Y92.501 E50.69957
G1 X102.668 Y91.980 E50.74714
G1 X102.668 Y90.336 E50.89670
G1 X102.752 Y89.575 E50.96628
G1 X107.914 Y51.705 E54.44164
G1 X108.573 Y49.474 E54.65314
G1 X109.156 Y49.683 F7800.000
G1 X109.854 Y48.229 E54.79978 F1800.000
G1 X110.771 Y46.753 E54.95777
G1 X111.016 Y46.392 E54.99751
G1 X111.309 Y46.013 E55.04099
G1 X112.439 Y44.674 E55.20036
G1 X113.948 Y43.256 E55.38857
G1 X114.354 Y42.939 E55.43545
G1 X115.368 Y42.202 E55.54945
G1 X115.750 Y41.942 E55.59142
G1 X116.140 Y41.712 E55.63267
G1 X117.239 Y41.108 E55.74667
G1 X117.666 Y40.891 E55.79027
G1 X118.072 Y40.716 E55.83041
G1 X118.433 Y40.573 E55.86570
G1 X121.040 Y40.066 E56.10719
G1 X128.694 Y40.006 E56.80324
G1 X131.417 Y40.514 E57.05505
G1 X132.334 Y40.891 E57.14524 F1800.000
G1 X132.761 Y41.108 E57.18877
G1 X134.251 Y41.943 E57.34405
G1 X135.646 Y42.939 E57.49997
G1 X136.051 Y43.255 E57.54663
G1 X137.265 Y44.380 E57.69721
G1 X137.563 Y44.676 E57.73538
G1 X137.892 Y45.047 E57.78047
G1 X138.986 Y46.395 E57.93829
G1 X139.901 Y47.812 E58.09165
G1 X140.146 Y48.229 E58.13566
G1 X140.775 Y49.535 E58.26747
G1 X141.396 Y51.632 E58.46636
G1 X146.628 Y89.650 E61.95588
G1 X146.710 Y90.401 E62.02458
G1 X146.710 Y91.916 E62.16229
G1 X146.585 Y92.937 E62.25585
G1 X145.892 Y96.869 E62.61894
G1 X145.660 Y97.872 E62.71253
G1 X145.142 Y99.295 E62.85026
G1 X144.912 Y99.766 E62.89783
G1 X144.675 Y100.212 E62.94381
G1 X142.678 Y103.670 E63.30689
G1 X142.118 Y104.533 E63.40046
G1 X141.145 Y105.693 E63.53814
G1 X140.392 Y106.395 E63.63175
G1 X137.333 Y108.962 E63.99484
G1 X136.935 Y109.273 E64.04077
G1 X136.511 Y109.581 E64.08839
G1 X135.198 Y110.339 E64.22628
G1 X134.720 Y110.552 E64.27380
G1 X134.252 Y110.741 E64.31971
G1 X130.500 Y112.106 E64.68280
G1 X129.515 Y112.407 E64.77641
G1 X128.024 Y112.670 E64.91410
G1 X126.997 Y112.724 E65.00768
G1 X123.003 Y112.724 E65.37076
G1 X122.497 Y112.707 E65.41683
G1 X121.976 Y112.670 E65.46435
G1 X120.485 Y112.407 E65.60205
G1 X119.500 Y112.106 E65.69565
G1 X115.748 Y110.741 E66.05874
G1 X114.802 Y110.339 E66.15216
G1 X113.489 Y109.581 E66.29006
G1 X113.066 Y109.274 E66.33758
G1 X112.667 Y108.962 E66.38360
G1 X109.608 Y106.395 E66.74669
G1 X108.856 Y105.693 E66.84026
G1 X107.882 Y104.533 E66.97797
G1 X107.322 Y103.670 E67.07155
G1 X105.325 Y100.212 E67.43463
G1 X104.858 Y99.295 E67.52817
G1 X104.340 Y97.872 E67.66589
G1 X104.108 Y96.869 E67.75949
G1 X103.415 Y92.937 E68.12257
G1 X103.344 Y92.435 E68.16863
G1 X103.290 Y91.915 E68.21619
G1 X103.290 Y90.401 E68.35389
G1 X103.371 Y89.659 E68.42172
G1 X108.533 Y51.789 E71.89707
G1 X109.139 Y49.740 E72.09135
G1 X109.721 Y49.949 F7800.000
G1 X110.403 Y48.528 E72.23464 F1800.000
G1 X111.299 Y47.088 E72.38884
G1 X111.523 Y46.757 E72.42519
G1 X111.790 Y46.412 E72.46492
G1 X112.893 Y45.104 E72.62042
G1 X114.350 Y43.735 E72.80223
G1 X115.735 Y42.707 E72.95908
G1 X116.084 Y42.470 E72.99744
G1 X116.441 Y42.259 E73.03517
G1 X117.540 Y41.655 E73.14917
G1 X117.931 Y41.457 E73.18901
G1 X118.302 Y41.297 E73.22573
G1 X118.662 Y41.155 E73.26102
G1 X121.045 Y40.691 E73.48169
G1 X128.699 Y40.631 E74.17774
G1 X131.187 Y41.095 E74.40784
G1 X132.070 Y41.457 E74.49462 F1800.000
G1 X132.460 Y41.655 E74.53440
G1 X133.916 Y42.471 E74.68615
G1 X135.279 Y43.444 E74.83846
G1 X135.649 Y43.733 E74.88110
G1 X136.838 Y44.836 E75.02856
G1 X137.110 Y45.107 E75.06348
G1 X137.410 Y45.446 E75.10468
G1 X138.479 Y46.761 E75.25876
G1 X139.373 Y48.147 E75.40873
G1 X139.597 Y48.528 E75.44894
G1 X140.209 Y49.801 E75.57739
G1 X140.777 Y51.717 E75.75914
G1 X146.008 Y89.735 E79.24867
G1 X146.089 Y90.466 E79.31554
G1 X146.089 Y91.850 E79.44138
G1 X145.970 Y92.828 E79.53097
G1 X145.276 Y96.761 E79.89406
G1 X145.053 Y97.721 E79.98368
G1 X144.580 Y99.022 E80.10954
G1 X144.351 Y99.492 E80.15710
G1 X144.134 Y99.900 E80.19912
G1 X142.137 Y103.358 E80.56220
G1 X141.600 Y104.184 E80.65180
G1 X140.710 Y105.244 E80.77761
G1 X139.990 Y105.917 E80.86725
G1 X136.931 Y108.483 E81.23034
G1 X136.568 Y108.768 E81.27231
G1 X136.144 Y109.075 E81.31992
G1 X134.944 Y109.768 E81.44593
G1 X134.466 Y109.981 E81.49345
G1 X134.039 Y110.153 E81.53540
G1 X130.286 Y111.519 E81.89850
G1 X129.343 Y111.806 E81.98812
G1 X127.981 Y112.047 E82.11395
G1 X126.997 Y112.099 E82.20356
G1 X123.003 Y112.099 E82.56664
G1 X122.541 Y112.083 E82.60874
G1 X122.019 Y112.047 E82.65626
G1 X120.657 Y111.806 E82.78209
G1 X119.714 Y111.519 E82.87172
G1 X115.961 Y110.153 E83.23481
G1 X115.056 Y109.768 E83.32427
G1 X113.856 Y109.075 E83.45028
G1 X113.433 Y108.768 E83.49780
G1 X113.069 Y108.483 E83.53986
G1 X110.010 Y105.917 E83.90295
G1 X109.290 Y105.244 E83.99254
G1 X108.400 Y104.184 E84.11839
G1 X107.863 Y103.358 E84.20800
G1 X105.866 Y99.900 E84.57108
G1 X105.420 Y99.022 E84.66065
G1 X104.947 Y97.721 E84.78650
G1 X104.724 Y96.761 E84.87613
G1 X104.030 Y92.828 E85.23921
G1 X103.966 Y92.370 E85.28130
G1 X103.911 Y91.850 E85.32886
G1 X103.911 Y90.466 E85.45469
G1 X103.990 Y89.744 E85.52076
G1 X109.152 Y51.874 E88.99612
G1 X109.704 Y50.006 E89.17319
G1 E88.97319 F2400.00000
G92 E0
G1 Z0.550 F7800.000
G1 X112.577 Y51.059 F7800.000
G1 Z0.350 F7800.000
G1 E0.20000 F2400.00000
G1 X113.205 Y50.036 E0.30914 F1800.000
G1 X113.309 Y49.819 E0.33106
G1 X113.334 Y49.603 E0.35085
G1 X113.550 Y49.316 E0.38348
G1 X113.792 Y48.812 E0.43431
G1 X113.908 Y48.779 E0.44535
G1 X114.089 Y48.647 E0.46569
G1 X114.227 Y48.440 E0.48827
G1 X114.280 Y48.269 E0.50459
G1 X114.282 Y48.155 E0.51498
G1 X114.612 Y47.846 E0.55610
G1 X114.894 Y47.437 E0.60128
G1 X115.050 Y47.416 E0.61555
G1 X115.350 Y47.110 E0.65447
G1 X115.374 Y46.898 E0.67390
G1 X115.742 Y46.635 E0.71500
G1 X116.039 Y46.297 E0.75593
G1 X116.206 Y46.289 E0.77110
G1 X116.534 Y46.008 E0.81040
G1 X116.568 Y45.836 E0.82639
G1 X116.968 Y45.600 E0.86863
G1 X117.243 Y45.329 E0.90378
G1 X117.484 Y45.335 E0.92564
G1 X117.830 Y45.080 E0.96471
G1 X117.887 Y44.874 E0.98415
G1 X118.513 Y44.633 E1.04518
G1 X118.736 Y44.487 E1.06937
G1 X118.928 Y44.473 E1.08688
G1 X119.267 Y44.342 E1.11989
G1 X120.430 Y43.710 E1.24030
G1 X120.529 Y43.745 E1.24984
G1 X120.759 Y43.739 E1.27072
G1 X121.057 Y43.616 E1.30000
G1 X123.613 Y44.604 E1.54918
G1 X123.937 Y45.286 E1.61785
G1 X124.243 Y45.479 E1.65075
G1 X125.576 Y45.479 E1.77200
G1 X125.882 Y45.286 E1.80490
G1 X126.233 Y44.547 E1.87923
G1 X128.779 Y43.558 E2.12764
G1 X129.210 Y43.732 E2.16990
G1 X129.442 Y43.737 E2.19101 F1800.000
G1 X129.561 Y43.694 E2.20249
G1 X130.746 Y44.347 E2.32554
G1 X131.073 Y44.473 E2.35743
G1 X131.273 Y44.487 E2.37562
G1 X131.505 Y44.640 E2.40093
G1 X132.109 Y44.874 E2.45986
G1 X132.171 Y45.092 E2.48046
G1 X132.512 Y45.346 E2.51918
G1 X132.772 Y45.341 E2.54280
G1 X133.105 Y45.655 E2.58438
G1 X133.433 Y45.837 E2.61844
G1 X133.468 Y46.014 E2.63490
G1 X133.794 Y46.295 E2.67406
G1 X133.965 Y46.304 E2.68962
G1 X134.254 Y46.632 E2.72940
G1 X134.621 Y46.895 E2.77047
G1 X134.649 Y47.123 E2.79135
G1 X134.945 Y47.426 E2.82993
G1 X135.117 Y47.451 E2.84573
G1 X135.387 Y47.842 E2.88890
G1 X135.704 Y48.138 E2.92832
G1 X135.707 Y48.252 E2.93870
G1 X135.760 Y48.419 E2.95470
G1 X135.906 Y48.639 E2.97869
G1 X136.088 Y48.772 E2.99917
G1 X136.206 Y48.805 E3.01035
G1 X136.453 Y49.320 E3.06229
G1 X136.670 Y49.609 E3.09521
G1 X136.695 Y49.827 E3.11512
G1 X136.793 Y50.031 E3.13571
G1 X137.429 Y51.059 E3.24567
G1 X137.404 Y51.176 E3.25645
G1 X137.428 Y51.378 E3.27501
G1 X137.904 Y52.390 E3.37665
G1 X137.060 Y54.980 E3.62434
G1 X136.197 Y55.453 E3.71392
G1 X136.021 Y55.772 E3.74697
G1 X136.062 Y56.423 E3.80630
G1 X136.033 Y57.100 E3.86794
G1 X136.208 Y57.419 E3.90101
G1 X137.129 Y57.923 E3.99650
G1 X137.974 Y60.514 E4.24429
G1 X137.425 Y61.679 E4.36141
G1 X137.401 Y61.881 E4.37987
G1 X137.424 Y61.992 E4.39015
G1 X136.794 Y63.017 E4.49960
G1 X136.690 Y63.234 E4.52151
G1 X136.665 Y63.451 E4.54131
G1 X136.449 Y63.737 E4.57396
G1 X136.208 Y64.240 E4.62464
G1 X136.092 Y64.273 E4.63564
G1 X135.911 Y64.405 E4.65598
