; generated by Slic3r 1.2.9 on 2016-10-14 at 16:24:05

; external perimeters extrusion width = 0.40mm
; perimeters extrusion width = 0.48mm
; infill extrusion width = 0.48mm
; solid infill extrusion width = 0.48mm
; top infill extrusion width = 0.48mm

M107
M104 S210 ; set temperature
G28 ; home all axes
G1 Z5 F5000 ; lift nozzle

M109 S210 ; wait for temperature to be reached
G21 ; set units to millimeters
G90 ; use absolute coordinates
M82 ; use absolute distances for extrusion
G92 E0
G1 Z0.350 F7800.000
G1 E-2.00000 F2400.00000
G92 E0
G1 X50.879 Y-46.787 F7800.000
G1 E2.00000 F2400.00000
G1 X52.264 Y-45.239 E2.18884 F1800.000
G1 X53.200 Y-44.134 E2.32053
G1 X54.112 Y-43.011 E2.45209
G1 X55.002 Y-41.868 E2.58378
G1 X55.866 Y-40.707 E2.71539
G1 X56.706 Y-39.529 E2.84699
G1 X57.522 Y-38.332 E2.97869
G1 X58.312 Y-37.119 E3.11037
G1 X59.077 Y-35.890 E3.24194
G1 X59.816 Y-34.644 E3.37366
G1 X60.528 Y-33.383 E3.50535
G1 X61.214 Y-32.110 E3.63685
G1 X61.873 Y-30.820 E3.76851
G1 X62.505 Y-29.518 E3.90018
G1 X63.109 Y-28.202 E4.03186
G1 X63.686 Y-26.875 E4.16341
G1 X64.235 Y-25.535 E4.29504
G1 X64.756 Y-24.183 E4.42677
G1 X65.248 Y-22.822 E4.55837
G1 X65.711 Y-21.451 E4.68999
G1 X66.146 Y-20.070 E4.82164
G1 X66.552 Y-18.681 E4.95324
G1 X66.929 Y-17.282 E5.08498
G1 X67.319 Y-15.692 E5.23386
G1 X67.633 Y-14.278 E5.36560
G1 X67.917 Y-12.859 E5.49713
G1 X68.172 Y-11.433 E5.62888
G1 X68.396 Y-10.004 E5.76042
G1 X68.591 Y-8.568 E5.89213
G1 X68.755 Y-7.131 E6.02371
G1 X68.890 Y-5.689 E6.15540
G1 X68.994 Y-4.245 E6.28700
G1 X69.067 Y-2.799 E6.41871
G1 X69.111 Y-1.352 E6.55027
G1 X69.124 Y0.096 E6.68196
G1 X69.107 Y1.543 E6.81353
G1 X69.059 Y2.990 E6.94524
G1 X68.982 Y4.435 E7.07683
G1 X68.874 Y5.880 E7.20852
G1 X68.735 Y7.320 E7.34011
G1 X68.567 Y8.759 E7.47181
G1 X68.369 Y10.192 E7.60336
G1 X68.140 Y11.622 E7.73510
G1 X67.882 Y13.046 E7.86663
G1 X67.594 Y14.466 E7.99837
G1 X67.276 Y15.877 E8.12994
G1 X66.929 Y17.283 E8.26159
G1 X66.552 Y18.681 E8.39325
G1 X66.146 Y20.071 E8.52490
G1 X65.711 Y21.451 E8.65651
G1 X65.248 Y22.823 E8.78819
G1 X64.822 Y24.005 E8.90245
G1 X64.313 Y25.337 E9.03204
G1 X63.759 Y26.699 E9.16579
G1 X63.187 Y28.028 E9.29736
G1 X62.586 Y29.345 E9.42897
G1 X61.958 Y30.649 E9.56063
G1 X61.302 Y31.941 E9.69231
G1 X60.619 Y33.218 E9.82397
G1 X59.911 Y34.479 E9.95554
G1 X59.176 Y35.726 E10.08714
G1 X58.414 Y36.959 E10.21897
G1 X57.627 Y38.173 E10.35049
G1 X56.815 Y39.372 E10.48216
G1 X55.978 Y40.554 E10.61384
G1 X55.117 Y41.716 E10.74537
G1 X54.231 Y42.862 E10.87706
G1 X53.321 Y43.988 E11.00871
G1 X52.389 Y45.095 E11.14029
G1 X51.433 Y46.182 E11.27195
G1 X50.453 Y47.250 E11.40373
G1 X49.454 Y48.295 E11.53516
G1 X48.432 Y49.320 E11.66685
G1 X47.250 Y50.453 E11.81569
G1 X46.182 Y51.433 E11.94748
G1 X45.095 Y52.389 E12.07914
G1 X43.988 Y53.321 E12.21072
G1 X42.862 Y54.231 E12.34237
G1 X41.716 Y55.117 E12.47406
G1 X40.554 Y55.978 E12.60559
G1 X39.372 Y56.815 E12.73727
G1 X38.173 Y57.627 E12.86893
G1 X36.959 Y58.414 E13.00045
G1 X35.726 Y59.176 E13.13228
G1 X34.479 Y59.911 E13.26388
G1 X33.218 Y60.619 E13.39546
G1 X31.941 Y61.302 E13.52712
G1 X30.649 Y61.958 E13.65880
G1 X29.345 Y62.586 E13.79046
G1 X28.028 Y63.187 E13.92206
G1 X26.699 Y63.759 E14.05363
G1 X25.357 Y64.305 E14.18536
G1 X24.005 Y64.822 E14.31698
G1 X22.643 Y65.310 E14.44857
G1 X21.270 Y65.770 E14.58027
G1 X19.888 Y66.201 E14.71191
G1 X18.497 Y66.603 E14.84357
G1 X17.078 Y66.981 E14.97708
G1 X15.692 Y67.319 E15.10678
G1 X14.466 Y67.594 E15.22106
G1 X13.046 Y67.882 E15.35279
G1 X11.622 Y68.140 E15.48433
G1 X10.192 Y68.369 E15.61607
G1 X8.759 Y68.567 E15.74762
G1 X7.320 Y68.735 E15.87932
G1 X5.880 Y68.874 E16.01091
G1 X4.435 Y68.982 E16.14259
G1 X2.990 Y69.059 E16.27419
G1 X1.543 Y69.107 E16.40590
G1 X0.096 Y69.124 E16.53746
G1 X-1.352 Y69.111 E16.66916
G1 X-2.799 Y69.067 E16.80072
G1 X-4.245 Y68.994 E16.93243
G1 X-5.689 Y68.890 E17.06403
G1 X-7.131 Y68.755 E17.19572
G1 X-8.568 Y68.591 E17.32730
G1 X-10.004 Y68.396 E17.45900
G1 X-11.433 Y68.172 E17.59055
G1 X-12.859 Y67.917 E17.72230
G1 X-14.278 Y67.633 E17.85383
G1 X-15.692 Y67.319 E17.98557
G1 X-17.098 Y66.976 E18.11713
G1 X-18.497 Y66.603 E18.24879
G1 X-19.888 Y66.201 E18.38044
G1 X-21.270 Y65.770 E18.51209
G1 X-22.642 Y65.311 E18.64370
G1 X-24.005 Y64.822 E18.77538
G1 X-25.357 Y64.305 E18.90697
G1 X-26.699 Y63.760 E19.03865
G1 X-28.028 Y63.187 E19.17029
G1 X-29.345 Y62.586 E19.30190
G1 X-30.649 Y61.958 E19.43356
G1 X-31.940 Y61.302 E19.56519
G1 X-33.383 Y60.528 E19.71408
G1 X-34.644 Y59.816 E19.84577
G1 X-35.890 Y59.077 E19.97749
G1 X-37.119 Y58.312 E20.10906
G1 X-38.332 Y57.522 E20.24073
G1 X-39.529 Y56.706 E20.37243
G1 X-40.707 Y55.866 E20.50404
G1 X-41.868 Y55.002 E20.63565
G1 X-43.011 Y54.112 E20.76734
G1 X-44.134 Y53.200 E20.89890
G1 X-45.239 Y52.264 E21.03059
G1 X-46.324 Y51.305 E21.16224
G1 X-47.387 Y50.325 E21.29374
G1 X-48.432 Y49.320 E21.42551
G1 X-49.454 Y48.295 E21.55719
G1 X-50.455 Y47.249 E21.68878
G1 X-51.433 Y46.182 E21.82044
G1 X-52.389 Y45.095 E21.95207
G1 X-53.322 Y43.988 E22.08369
G1 X-54.231 Y42.861 E22.21537
G1 X-55.117 Y41.716 E22.34699
G1 X-55.978 Y40.553 E22.47859
G1 X-56.816 Y39.371 E22.61027
G1 X-57.628 Y38.173 E22.74191
G1 X-58.414 Y36.958 E22.87353
G1 X-59.176 Y35.726 E23.00522
G1 X-59.911 Y34.479 E23.13681
G1 X-60.620 Y33.217 E23.26845
G1 X-61.302 Y31.940 E23.40010
G1 X-61.958 Y30.649 E23.53173
G1 X-62.586 Y29.345 E23.66339
G1 X-63.187 Y28.028 E23.79500
G1 X-63.686 Y26.875 E23.90928
G1 X-64.226 Y25.556 E24.03890
G1 X-64.755 Y24.184 E24.17259
G1 X-65.248 Y22.823 E24.30417
G1 X-65.711 Y21.451 E24.43585
G1 X-66.146 Y20.071 E24.56746
G1 X-66.552 Y18.681 E24.69912
G1 X-66.929 Y17.283 E24.83077
G1 X-67.276 Y15.877 E24.96241
G1 X-67.594 Y14.466 E25.09399
G1 X-67.882 Y13.046 E25.22575
G1 X-68.140 Y11.622 E25.35726
G1 X-68.368 Y10.192 E25.48900
G1 X-68.567 Y8.759 E25.62055
G1 X-68.735 Y7.320 E25.75225
G1 X-68.874 Y5.880 E25.88384
G1 X-68.982 Y4.435 E26.01556
G1 X-69.059 Y2.990 E26.14714
G1 X-69.107 Y1.543 E26.27883
G1 X-69.124 Y0.095 E26.41047
G1 X-69.111 Y-1.353 E26.54212
G1 X-69.067 Y-2.799 E26.67367
G1 X-68.994 Y-4.245 E26.80538
G1 X-68.890 Y-5.689 E26.93696
G1 X-68.755 Y-7.131 E27.06864
G1 X-68.591 Y-8.569 E27.20027
G1 X-68.396 Y-10.004 E27.33194
G1 X-68.172 Y-11.433 E27.46349
G1 X-67.917 Y-12.859 E27.59522
G1 X-67.593 Y-14.466 E27.74423
G1 X-67.276 Y-15.877 E27.87581
G1 X-66.929 Y-17.283 E28.00744
G1 X-66.552 Y-18.681 E28.13911
G1 X-66.146 Y-20.071 E28.27076
G1 X-65.711 Y-21.451 E28.40237
G1 X-65.248 Y-22.823 E28.53405
G1 X-64.755 Y-24.184 E28.66563
G1 X-64.235 Y-25.535 E28.79732
G1 X-63.686 Y-26.875 E28.92895
G1 X-63.109 Y-28.202 E29.06056
G1 X-62.504 Y-29.518 E29.19223
G1 X-61.873 Y-30.820 E29.32385
G1 X-61.214 Y-32.110 E29.45551
G1 X-60.528 Y-33.384 E29.58714
G1 X-59.815 Y-34.644 E29.71874
G1 X-59.077 Y-35.890 E29.85041
G1 X-58.312 Y-37.119 E29.98204
G1 X-57.522 Y-38.332 E30.11368
G1 X-56.706 Y-39.529 E30.24536
G1 X-55.866 Y-40.707 E30.37697
G1 X-55.002 Y-41.868 E30.50858
G1 X-54.112 Y-43.011 E30.64027
G1 X-53.200 Y-44.135 E30.77188
G1 X-52.389 Y-45.095 E30.88615
G1 X-51.448 Y-46.165 E31.01578
G1 X-50.455 Y-47.249 E31.14943
G1 X-49.454 Y-48.295 E31.28104
G1 X-48.432 Y-49.320 E31.41271
G1 X-47.388 Y-50.324 E31.54438
G1 X-46.324 Y-51.305 E31.67598
G1 X-45.239 Y-52.264 E31.80763
G1 X-44.135 Y-53.200 E31.93926
G1 X-43.011 Y-54.112 E32.07087
G1 X-41.868 Y-55.002 E32.20257
G1 X-40.707 Y-55.866 E32.33418
G1 X-39.529 Y-56.706 E32.46578
G1 X-38.332 Y-57.522 E32.59746
G1 X-37.119 Y-58.312 E32.72910
G1 X-35.890 Y-59.077 E32.86073
G1 X-34.644 Y-59.815 E32.99240
G1 X-33.217 Y-60.620 E33.14138
G1 X-31.940 Y-61.302 E33.27301
G1 X-30.649 Y-61.958 E33.40466
G1 X-29.345 Y-62.586 E33.53632
G1 X-28.028 Y-63.187 E33.66793
G1 X-26.699 Y-63.760 E33.79957
G1 X-25.357 Y-64.305 E33.93122
G1 X-24.005 Y-64.822 E34.06283
G1 X-22.642 Y-65.310 E34.19450
G1 X-21.270 Y-65.770 E34.32613
G1 X-19.888 Y-66.201 E34.45775
G1 X-18.497 Y-66.603 E34.58940
G1 X-17.098 Y-66.976 E34.72108
G1 X-15.692 Y-67.319 E34.85264
G1 X-14.278 Y-67.633 E34.98438
G1 X-12.859 Y-67.917 E35.11593
G1 X-11.433 Y-68.172 E35.24766
G1 X-10.004 Y-68.396 E35.37920
G1 X-8.569 Y-68.591 E35.51091
G1 X-7.131 Y-68.755 E35.64250
G1 X-5.689 Y-68.890 E35.77419
G1 X-4.245 Y-68.994 E35.90577
G1 X-2.799 Y-69.067 E36.03748
G1 X-1.353 Y-69.111 E36.16902
G1 X0.117 Y-69.124 E36.30268
G1 X1.543 Y-69.107 E36.43232 F1800.000
G1 X2.799 Y-69.067 E36.54658
G1 X4.245 Y-68.994 E36.67829
G1 X5.689 Y-68.890 E36.80988
G1 X7.320 Y-68.735 E36.95890
G1 X8.759 Y-68.567 E37.09060
G1 X10.192 Y-68.368 E37.22215
G1 X11.433 Y-68.172 E37.33641
G1 X13.046 Y-67.882 E37.48539
G1 X14.466 Y-67.594 E37.61715
G1 X15.692 Y-67.319 E37.73143
G1 X17.098 Y-66.976 E37.86299
G1 X18.497 Y-66.603 E37.99463
G1 X19.888 Y-66.201 E38.12631
G1 X21.451 Y-65.711 E38.27530
G1 X22.823 Y-65.248 E38.40698
G1 X24.184 Y-64.755 E38.53856
G1 X25.357 Y-64.305 E38.65282
G1 X26.699 Y-63.760 E38.78450
G1 X28.028 Y-63.187 E38.91615
G1 X29.518 Y-62.505 E39.06511
G1 X30.820 Y-61.873 E39.19678
G1 X32.110 Y-61.214 E39.32844
G1 X33.384 Y-60.528 E39.46004
G1 X34.479 Y-59.911 E39.57433
G1 X35.890 Y-59.077 E39.72335
G1 X37.119 Y-58.312 E39.85497
G1 X38.332 Y-57.522 E39.98661
G1 X39.371 Y-56.816 E40.10087
G1 X40.553 Y-55.978 E40.23256
G1 X41.868 Y-55.002 E40.38151
G1 X43.011 Y-54.112 E40.51320
G1 X44.134 Y-53.201 E40.64472
G1 X45.095 Y-52.389 E40.75908
G1 X46.182 Y-51.433 E40.89071
G1 X47.249 Y-50.455 E41.02236
G1 X48.432 Y-49.320 E41.17137
G1 X49.454 Y-48.295 E41.30305
G1 X50.839 Y-46.831 E41.48625
G1 X50.419 Y-46.364 F7800.000
G1 X51.795 Y-44.826 E41.67389 F1800.000
G1 X52.723 Y-43.731 E41.80439
G1 X53.627 Y-42.618 E41.93476
G1 X54.508 Y-41.485 E42.06526
G1 X55.365 Y-40.335 E42.19568
G1 X56.197 Y-39.167 E42.32610
G1 X57.005 Y-37.981 E42.45661
G1 X57.788 Y-36.778 E42.58709
G1 X58.546 Y-35.561 E42.71748
G1 X59.278 Y-34.326 E42.84800
G1 X59.984 Y-33.077 E42.97849
G1 X60.663 Y-31.814 E43.10882
G1 X61.316 Y-30.537 E43.23928
G1 X61.942 Y-29.246 E43.36976
G1 X62.541 Y-27.942 E43.50025
G1 X63.112 Y-26.627 E43.63061
G1 X63.656 Y-25.299 E43.76106
G1 X64.172 Y-23.960 E43.89159
G1 X64.660 Y-22.611 E44.02200
G1 X65.119 Y-21.252 E44.15243
G1 X65.550 Y-19.883 E44.28289
G1 X65.952 Y-18.507 E44.41331
G1 X66.325 Y-17.120 E44.54385
G1 X66.669 Y-15.728 E44.67424
G1 X66.984 Y-14.329 E44.80463
G1 X67.269 Y-12.922 E44.93519
G1 X67.525 Y-11.512 E45.06552
G1 X67.751 Y-10.094 E45.19606
G1 X67.948 Y-8.673 E45.32648
G1 X68.133 Y-7.072 E45.47307
G1 X68.266 Y-5.643 E45.60357
G1 X68.369 Y-4.212 E45.73397
G1 X68.443 Y-2.779 E45.86449
G1 X68.486 Y-1.346 E45.99487
G1 X68.499 Y0.089 E46.12537
G1 X68.482 Y1.523 E46.25575
G1 X68.435 Y2.958 E46.38626
G1 X68.358 Y4.390 E46.51667
G1 X68.251 Y5.821 E46.64716
G1 X68.115 Y7.248 E46.77756
G1 X67.948 Y8.674 E46.90807
G1 X67.751 Y10.094 E47.03844
G1 X67.525 Y11.512 E47.16898
G1 X67.269 Y12.922 E47.29933
G1 X66.984 Y14.329 E47.42987
G1 X66.669 Y15.728 E47.56026
G1 X66.325 Y17.121 E47.69072
G1 X65.952 Y18.507 E47.82119
G1 X65.550 Y19.884 E47.95164
G1 X65.119 Y21.252 E48.08207
G1 X64.660 Y22.611 E48.21255
G1 X64.234 Y23.794 E48.32681
G1 X63.730 Y25.113 E48.45521
G1 X63.181 Y26.463 E48.58777
G1 X62.613 Y27.780 E48.71816
G1 X62.018 Y29.085 E48.84858
G1 X61.395 Y30.377 E48.97904
G1 X60.745 Y31.657 E49.10953
G1 X60.069 Y32.922 E49.24000
G1 X59.366 Y34.173 E49.37039
G1 X58.638 Y35.408 E49.50080
G1 X57.883 Y36.630 E49.63143
G1 X57.103 Y37.833 E49.76177
G1 X56.298 Y39.021 E49.89224
G1 X55.469 Y40.192 E50.02273
G1 X54.615 Y41.344 E50.15307
G1 X53.737 Y42.479 E50.28357
G1 X52.836 Y43.595 E50.41403
G1 X51.912 Y44.691 E50.54443
G1 X50.964 Y45.769 E50.67489
G1 X49.993 Y46.827 E50.80548
G1 X49.003 Y47.862 E50.93573
G1 X47.990 Y48.878 E51.06622
G1 X46.827 Y49.993 E51.21270
G1 X45.769 Y50.964 E51.34329
G1 X44.691 Y51.912 E51.47375
G1 X43.595 Y52.836 E51.60415
G1 X42.479 Y53.737 E51.73461
G1 X41.344 Y54.615 E51.86511
G1 X40.192 Y55.469 E51.99545
G1 X39.021 Y56.298 E52.12594
G1 X37.833 Y57.103 E52.25641
G1 X36.630 Y57.883 E52.38675
G1 X35.408 Y58.638 E52.51738
G1 X34.173 Y59.366 E52.64779
G1 X32.922 Y60.069 E52.77818
G1 X31.657 Y60.745 E52.90865
G1 X30.377 Y61.395 E53.03914
G1 X29.085 Y62.018 E53.16960
G1 X27.780 Y62.613 E53.30002
G1 X26.463 Y63.181 E53.43041
G1 X25.133 Y63.722 E53.56094
G1 X23.794 Y64.234 E53.69137
G1 X22.444 Y64.718 E53.82177
G1 X21.083 Y65.174 E53.95227
G1 X19.713 Y65.601 E54.08273
G1 X18.335 Y66.000 E54.21320
G1 X16.929 Y66.374 E54.34552
G1 X15.556 Y66.709 E54.47403
G1 X14.329 Y66.984 E54.58831
G1 X12.922 Y67.269 E54.71885
G1 X11.512 Y67.525 E54.84920
G1 X10.094 Y67.751 E54.97974
G1 X8.674 Y67.948 E55.11011
G1 X7.248 Y68.115 E55.24062
G1 X5.821 Y68.251 E55.37102
G1 X4.390 Y68.358 E55.50151
G1 X2.958 Y68.435 E55.63192
G1 X1.523 Y68.482 E55.76243
G1 X0.089 Y68.499 E55.89281
G1 X-1.346 Y68.486 E56.02331
G1 X-2.779 Y68.443 E56.15369
G1 X-4.212 Y68.369 E56.28421
G1 X-5.643 Y68.266 E56.41461
G1 X-7.072 Y68.133 E56.54511
G1 X-8.497 Y67.970 E56.67551
G1 X-9.919 Y67.777 E56.80602
G1 X-11.335 Y67.555 E56.93638
G1 X-12.749 Y67.302 E57.06693
G1 X-14.154 Y67.021 E57.19728
G1 X-15.556 Y66.709 E57.32782
G1 X-16.949 Y66.369 E57.45820
G1 X-18.335 Y66.000 E57.58867
G1 X-19.713 Y65.601 E57.71913
G1 X-21.083 Y65.174 E57.84959
G1 X-22.443 Y64.718 E57.98001
G1 X-23.794 Y64.234 E58.11050
G1 X-25.133 Y63.722 E58.24090
G1 X-26.463 Y63.181 E58.37138
G1 X-27.780 Y62.613 E58.50184
G1 X-29.085 Y62.018 E58.63226
G1 X-30.377 Y61.395 E58.76272
G1 X-31.656 Y60.745 E58.89316
G1 X-33.077 Y59.984 E59.03969
G1 X-34.326 Y59.278 E59.17018
G1 X-35.561 Y58.546 E59.30070
G1 X-36.778 Y57.788 E59.43109
G1 X-37.981 Y57.005 E59.56157
G1 X-39.167 Y56.197 E59.69208
G1 X-40.335 Y55.365 E59.82250
G1 X-41.485 Y54.508 E59.95292
G1 X-42.618 Y53.627 E60.08342
G1 X-43.731 Y52.723 E60.21379
G1 X-44.826 Y51.795 E60.34429
G1 X-45.901 Y50.845 E60.47475
G1 X-46.955 Y49.874 E60.60507
G1 X-47.990 Y48.878 E60.73564
G1 X-49.003 Y47.862 E60.86613
G1 X-49.995 Y46.826 E60.99653
G1 X-50.964 Y45.769 E61.12699
G1 X-51.912 Y44.691 E61.25743
G1 X-52.836 Y43.595 E61.38786
G1 X-53.738 Y42.478 E61.51835
G1 X-54.615 Y41.344 E61.64879
G1 X-55.469 Y40.191 E61.77920
G1 X-56.299 Y39.020 E61.90969
G1 X-57.104 Y37.833 E62.04014
G1 X-57.883 Y36.629 E62.17057
G1 X-58.638 Y35.408 E62.30106
G1 X-59.366 Y34.173 E62.43147
G1 X-60.069 Y32.922 E62.56192
G1 X-60.745 Y31.656 E62.69238
G1 X-61.395 Y30.377 E62.82282
G1 X-62.018 Y29.085 E62.95328
G1 X-62.541 Y27.942 E63.06755
G1 X-63.104 Y26.647 E63.19598
G1 X-63.656 Y25.299 E63.32842
G1 X-64.172 Y23.960 E63.45891
G1 X-64.660 Y22.611 E63.58931
G1 X-65.119 Y21.252 E63.71979
G1 X-65.550 Y19.884 E63.85022
G1 X-65.952 Y18.506 E63.98069
G1 X-66.325 Y17.121 E64.11115
G1 X-66.669 Y15.728 E64.24159
G1 X-66.984 Y14.329 E64.37199
G1 X-67.269 Y12.922 E64.50255
G1 X-67.525 Y11.512 E64.63289
G1 X-67.751 Y10.094 E64.76342
G1 X-67.948 Y8.674 E64.89379
G1 X-68.115 Y7.248 E65.02429
G1 X-68.251 Y5.821 E65.15470
G1 X-68.358 Y4.389 E65.28522
G1 X-68.435 Y2.957 E65.41561
G1 X-68.482 Y1.523 E65.54611
G1 X-68.499 Y0.089 E65.67656
G1 X-68.486 Y-1.346 E65.80703
G1 X-68.435 Y-2.958 E65.95362
G1 X-68.358 Y-4.390 E66.08403
G1 X-68.251 Y-5.821 E66.21453
G1 X-68.115 Y-7.248 E66.34493
G1 X-67.948 Y-8.674 E66.47543
G1 X-67.751 Y-10.094 E66.60580
G1 X-67.525 Y-11.512 E66.73633
G1 X-67.269 Y-12.922 E66.86670
G1 X-66.984 Y-14.329 E66.99723
G1 X-66.669 Y-15.728 E67.12763
G1 X-66.325 Y-17.121 E67.25807
G1 X-65.952 Y-18.507 E67.38855
G1 X-65.550 Y-19.884 E67.51900
G1 X-65.119 Y-21.252 E67.64943
G1 X-64.660 Y-22.611 E67.77992
G1 X-64.172 Y-23.960 E67.91031
G1 X-63.656 Y-25.299 E68.04080
G1 X-63.112 Y-26.627 E68.17125
G1 X-62.541 Y-27.942 E68.30167
G1 X-61.942 Y-29.246 E68.43214
G1 X-61.316 Y-30.537 E68.56257
G1 X-60.663 Y-31.814 E68.69304
G1 X-59.983 Y-33.078 E68.82349
G1 X-59.278 Y-34.326 E68.95390
G1 X-58.546 Y-35.561 E69.08438
G1 X-57.788 Y-36.779 E69.21482
G1 X-57.005 Y-37.981 E69.34527
G1 X-56.197 Y-39.167 E69.47576
G1 X-55.365 Y-40.335 E69.60618
G1 X-54.508 Y-41.485 E69.73660
G1 X-53.627 Y-42.618 E69.86710
G1 X-52.723 Y-43.732 E69.99752
