; generated by Slic3r 1.2.9 on 2016-10-07 at 08:33:48

; external perimeters extrusion width = 0.40mm
; perimeters extrusion width = 0.48mm
; infill extrusion width = 0.48mm
; solid infill extrusion width = 0.48mm
; top infill extrusion width = 0.48mm

M107
M104 S210 ; set temperature
G28 ; home all axes
G1 Z5 F5000 ; lift nozzle

M109 S210 ; wait for temperature to be reached
G21 ; set units to millimeters
G90 ; use absolute coordinates
M82 ; use absolute distances for extrusion
G92 E0
G1 Z0.350 F7800.000
G1 E-2.00000 F2400.00000
G92 E0
G1 X0.000 Y36.124 F7800.000
G1 E2.00000 F2400.00000
G1 X-33.000 Y36.124 E5.00068 F1800.000
G1 X-35.950 Y35.726 E5.27133
G1 X-38.688 Y34.560 E5.54198
G1 X-41.020 Y32.710 E5.81263
G1 X-42.777 Y30.307 E6.08328
G1 X-43.834 Y27.525 E6.35394
G1 X-44.124 Y25.000 E6.58503
G1 X-44.124 Y-25.000 E11.13151
G1 X-43.726 Y-27.950 E11.40216
G1 X-42.560 Y-30.688 E11.67281
G1 X-40.710 Y-33.020 E11.94346
G1 X-38.307 Y-34.777 E12.21411
G1 X-35.525 Y-35.834 E12.48477
G1 X-33.000 Y-36.124 E12.71586
G1 X24.000 Y-36.124 E17.89884
G1 X26.950 Y-35.726 E18.16949
G1 X29.688 Y-34.560 E18.44015 F1800.000
G1 X32.020 Y-32.710 E18.71080
G1 X34.145 Y-29.565 E19.05589
G1 X43.145 Y-9.565 E21.05014
G1 X43.992 Y-6.712 E21.32079
G1 X44.124 Y-5.000 E21.47690
G1 X44.124 Y5.000 E22.38620
G1 X43.726 Y7.950 E22.65685
G1 X43.145 Y9.565 E22.81296
G1 X34.145 Y29.565 E24.80720
G1 X32.571 Y32.092 E25.07786
G1 X30.384 Y34.110 E25.34851
G1 X27.740 Y35.477 E25.61916
G1 X24.000 Y36.124 E25.96426
G1 X0.060 Y36.124 E28.14111
G1 X0.000 Y35.500 F7800.000
G1 X-33.000 Y35.500 E31.14179 F1800.000
G1 X-35.864 Y35.101 E31.40469
G1 X-38.510 Y33.937 E31.66760
G1 X-40.739 Y32.096 E31.93050
G1 X-42.381 Y29.716 E32.19341
G1 X-43.312 Y26.978 E32.45631
G1 X-43.500 Y25.000 E32.63700
G1 X-43.500 Y-25.000 E37.18348
G1 X-43.101 Y-27.864 E37.44638
G1 X-41.937 Y-30.510 E37.70929
G1 X-40.096 Y-32.739 E37.97219
G1 X-37.716 Y-34.381 E38.23510
G1 X-34.978 Y-35.312 E38.49800
G1 X-33.000 Y-35.500 E38.67869
G1 X24.000 Y-35.500 E43.86167
G1 X26.864 Y-35.101 E44.12458
G1 X29.510 Y-33.937 E44.38748 F1800.000
G1 X31.739 Y-32.096 E44.65039
G1 X33.575 Y-29.309 E44.95383
G1 X42.575 Y-9.309 E46.94807
G1 X43.387 Y-6.534 E47.21098
G1 X43.500 Y-5.000 E47.35082
G1 X43.500 Y5.000 E48.26011
G1 X43.101 Y7.864 E48.52302
G1 X42.575 Y9.309 E48.66286
G1 X33.575 Y29.309 E50.65710
G1 X32.037 Y31.757 E50.92000
G1 X29.889 Y33.693 E51.18291
G1 X27.295 Y34.969 E51.44581
G1 X24.000 Y35.500 E51.74926
G1 X0.060 Y35.500 E53.92611
G1 X0.000 Y34.875 F7800.000
G1 X-33.000 Y34.875 E56.92679 F1800.000
G1 X-35.775 Y34.477 E57.18171
G1 X-38.327 Y33.315 E57.43663
G1 X-40.449 Y31.483 E57.69156
G1 X-41.970 Y29.128 E57.94648
G1 X-42.769 Y26.441 E58.20140
G1 X-42.875 Y25.000 E58.33277
G1 X-42.875 Y-25.000 E62.87925
G1 X-42.477 Y-27.775 E63.13417
G1 X-41.315 Y-30.327 E63.38909
G1 X-39.483 Y-32.449 E63.64402
G1 X-37.128 Y-33.970 E63.89894
G1 X-34.441 Y-34.769 E64.15386
G1 X-33.000 Y-34.875 E64.28523
G1 X24.000 Y-34.875 E69.46821
G1 X26.775 Y-34.477 E69.72313
G1 X29.327 Y-33.315 E69.97806 F1800.000
G1 X31.449 Y-31.483 E70.23298
G1 X33.005 Y-29.052 E70.49541
G1 X42.005 Y-9.052 E72.48965
G1 X42.875 Y-5.000 E72.86651
G1 X42.875 Y5.000 E73.77581
G1 X42.005 Y9.052 E74.15267
G1 X33.005 Y29.052 E76.14691
G1 X31.503 Y31.420 E76.40183
G1 X29.397 Y33.270 E76.65675
G1 X26.855 Y34.453 E76.91168
G1 X24.000 Y34.875 E77.17411
G1 X0.060 Y34.875 E79.35096
G1 X0.000 Y34.250 F7800.000
G1 X-33.000 Y34.250 E82.35164 F1800.000
G1 X-35.684 Y33.852 E82.59832
G1 X-38.136 Y32.693 E82.84500
G1 X-40.147 Y30.872 E83.09169
G1 X-41.543 Y28.546 E83.33837
G1 X-42.250 Y25.000 E83.66710
G1 X-42.250 Y-25.000 E88.21358
G1 X-41.852 Y-27.684 E88.46026
G1 X-40.693 Y-30.136 E88.70695
G1 X-38.872 Y-32.147 E88.95363
G1 X-36.546 Y-33.543 E89.20031
G1 X-33.000 Y-34.250 E89.52904
G1 X24.000 Y-34.250 E94.71203
G1 X26.684 Y-33.852 E94.95871
G1 X29.136 Y-32.693 E95.20539 F1800.000
G1 X31.147 Y-30.872 E95.45208
G1 X32.435 Y-28.796 E95.67421
G1 X41.435 Y-8.796 E97.66845
G1 X42.250 Y-5.000 E98.02146
G1 X42.250 Y5.000 E98.93076
G1 X41.435 Y8.796 E99.28377
G1 X32.435 Y28.796 E101.27801
G1 X30.971 Y31.080 E101.52469
G1 X28.907 Y32.841 E101.77137
G1 X26.422 Y33.927 E102.01806
G1 X24.000 Y34.250 E102.24019
G1 X0.060 Y34.250 E104.41704
G1 X0.000 Y33.625 F7800.000
G1 X-33.000 Y33.625 E107.41772 F1800.000
G1 X-35.589 Y33.227 E107.65588
G1 X-37.939 Y32.071 E107.89403
G1 X-39.833 Y30.262 E108.13219
G1 X-41.098 Y27.969 E108.37035
G1 X-41.625 Y25.000 E108.64451
G1 X-41.625 Y-25.000 E113.19099
G1 X-41.227 Y-27.589 E113.42915
G1 X-40.071 Y-29.939 E113.66731
G1 X-38.262 Y-31.833 E113.90546
G1 X-35.969 Y-33.098 E114.14362
G1 X-33.000 Y-33.625 E114.41778
G1 X24.000 Y-33.625 E119.60077
G1 X26.589 Y-33.227 E119.83893
G1 X28.939 Y-32.071 E120.07709 F1800.000
G1 X30.833 Y-30.262 E120.31524
G1 X31.865 Y-28.539 E120.49786
G1 X40.865 Y-8.539 E122.49211
G1 X41.625 Y-5.000 E122.82127
G1 X41.625 Y5.000 E123.73056
G1 X40.865 Y8.539 E124.05972
G1 X31.865 Y28.539 E126.05396
G1 X30.440 Y30.737 E126.29212
G1 X28.421 Y32.405 E126.53028
G1 X25.995 Y33.391 E126.76844
G1 X24.000 Y33.625 E126.95106
G1 X0.060 Y33.625 E129.12791
G1 E127.12791 F2400.00000
G92 E0
G1 X-3.561 Y24.643 F7800.000
G1 E2.00000 F2400.00000
G1 X-4.549 Y24.431 E2.09184 F1800.000
G1 X-6.811 Y29.458 E2.59315
G1 X-10.064 Y31.561 E2.94531
G1 X-35.718 Y31.561 E5.27804
G1 X-39.561 Y27.718 E5.77230
G1 X-39.561 Y17.282 E6.72120
G1 X-35.718 Y13.439 E7.21546
G1 X-20.927 Y13.439 E8.56034
G1 X-20.561 Y13.073 E8.60741
G1 X-20.561 Y-13.073 E10.98479
G1 X-20.927 Y-13.439 E11.03186
G1 X-35.718 Y-13.439 E12.37674
G1 X-39.561 Y-17.282 E12.87100
G1 X-39.561 Y-27.718 E13.81990
G1 X-35.718 Y-31.561 E14.31416
G1 X-10.064 Y-31.561 E16.64689
G1 X-6.811 Y-29.458 E16.99905
G1 X-4.549 Y-24.431 E17.50036
G1 X-3.561 Y-24.643 E17.59220
G1 X-3.561 Y-27.718 E17.87180
G1 X0.282 Y-31.561 E18.36606
G1 X25.936 Y-31.561 E20.69879
G1 X29.189 Y-29.458 E21.05095
G1 X39.269 Y-7.058 E23.28458
G1 X39.561 Y-5.696 E23.41120
G1 X39.561 Y5.696 E24.44711
G1 X39.269 Y7.058 E24.57372
G1 X29.189 Y29.458 E26.80735
G1 X25.936 Y31.561 E27.15951
G1 X0.282 Y31.561 E29.49224
G1 X-3.561 Y27.718 E29.98650
G1 X-3.561 Y24.703 E30.26065
G1 E28.26065 F2400.00000
G92 E0
G1 X-2.936 Y21.731 F7800.000
G1 E2.00000 F2400.00000
G1 X-3.924 Y21.519 E2.09184 F1800.000
G1 X-7.305 Y29.034 E2.84111
G1 X-10.248 Y30.936 E3.15973
G1 X-35.459 Y30.936 E5.45216
G1 X-38.936 Y27.459 E5.89934
G1 X-38.936 Y17.541 E6.80117
G1 X-35.459 Y14.064 E7.24836
G1 X-20.302 Y14.064 E8.62653
G1 X-19.936 Y13.698 E8.67360
G1 X-19.936 Y-13.698 E11.16462
G1 X-20.302 Y-14.064 E11.21169
G1 X-35.459 Y-14.064 E12.58986
G1 X-38.936 Y-17.541 E13.03704
G1 X-38.936 Y-27.459 E13.93887
G1 X-35.459 Y-30.936 E14.38606
G1 X-10.248 Y-30.936 E16.67848
G1 X-7.305 Y-29.034 E16.99711
G1 X-3.924 Y-21.519 E17.74638
G1 X-2.936 Y-21.731 E17.83822
G1 X-2.936 Y-27.459 E18.35902
G1 X0.541 Y-30.936 E18.80620
G1 X25.752 Y-30.936 E21.09863
G1 X28.695 Y-29.034 E21.41725
G1 X38.672 Y-6.862 E23.62808
G1 X38.936 Y-5.630 E23.74264
G1 X38.936 Y5.630 E24.76649
G1 X38.672 Y6.862 E24.88104
G1 X28.695 Y29.034 E27.09187
G1 X25.752 Y30.936 E27.41050
G1 X0.541 Y30.936 E29.70292
G1 X-2.936 Y27.459 E30.15011
G1 X-2.936 Y21.791 E30.66545
G1 E28.66545 F2400.00000
G92 E0
G1 X-2.312 Y18.820 F7800.000
G1 E2.00000 F2400.00000
G1 X-3.299 Y18.608 E2.09184 F1800.000
G1 X-7.800 Y28.609 E3.08907
G1 X-10.432 Y30.312 E3.37416
G1 X-35.200 Y30.312 E5.62628
G1 X-38.312 Y27.200 E6.02639
G1 X-38.312 Y17.800 E6.88115
G1 X-35.200 Y14.688 E7.28126
G1 X-19.678 Y14.688 E8.69272
G1 X-19.312 Y14.322 E8.73979
G1 X-19.312 Y-14.322 E11.34445
G1 X-19.678 Y-14.688 E11.39152
G1 X-35.200 Y-14.688 E12.80297
G1 X-38.312 Y-17.800 E13.20308
G1 X-38.312 Y-27.200 E14.05784
G1 X-35.200 Y-30.312 E14.45796
G1 X-10.432 Y-30.312 E16.71008
G1 X-7.800 Y-28.609 E16.99516
G1 X-3.299 Y-18.608 E17.99239
G1 X-2.312 Y-18.820 E18.08423
G1 X-2.312 Y-27.200 E18.84623
G1 X0.800 Y-30.312 E19.24634
G1 X25.568 Y-30.312 E21.49846
G1 X28.200 Y-28.609 E21.78355
G1 X38.075 Y-6.666 E23.97158
G1 X38.312 Y-5.564 E24.07407
G1 X38.312 Y5.564 E25.08587
G1 X38.075 Y6.666 E25.18836
G1 X28.200 Y28.609 E27.37640
G1 X25.568 Y30.312 E27.66148
G1 X0.800 Y30.312 E29.91360
G1 X-2.312 Y27.200 E30.31371
G1 X-2.312 Y18.880 E31.07025
G1 X-1.687 Y18.820 F7800.000
G1 X-1.687 Y18.059 E31.13948 F1800.000
G1 X1.059 Y15.313 E31.49252
G1 X16.947 Y15.313 E32.93726
G1 X17.313 Y14.947 E32.98433
G1 X17.313 Y-14.947 E35.70263
G1 X16.947 Y-15.313 E35.74970
G1 X1.059 Y-15.313 E37.19444
G1 X-1.687 Y-18.059 E37.54748
G1 X-1.687 Y-26.941 E38.35517
G1 X1.059 Y-29.687 E38.70821
G1 X25.383 Y-29.687 E40.92002
G1 X27.706 Y-28.185 E41.17157 F1800.000
G1 X37.478 Y-6.470 E43.33680
G1 X37.687 Y-5.497 E43.42724
G1 X37.687 Y5.497 E44.42698
G1 X37.478 Y6.470 E44.51741
G1 X27.706 Y28.185 E46.68265
G1 X25.383 Y29.687 E46.93419
G1 X1.059 Y29.687 E49.14601
G1 X-1.687 Y26.941 E49.49905
G1 X-1.687 Y18.880 E50.23205
G1 X-1.062 Y18.820 F7800.000
G1 X-1.062 Y18.318 E50.27774 F1800.000
G1 X1.318 Y15.938 E50.58371
G1 X17.572 Y15.938 E52.06174
G1 X17.938 Y15.572 E52.10881
G1 X17.938 Y-15.572 E54.94075
G1 X17.572 Y-15.938 E54.98782
G1 X1.318 Y-15.938 E56.46585
G1 X-1.062 Y-18.318 E56.77181
G1 X-1.062 Y-26.682 E57.53243
G1 X1.318 Y-29.062 E57.83840
G1 X25.199 Y-29.062 E60.00991
G1 X27.212 Y-27.760 E60.22791
G1 X36.881 Y-6.274 E62.37035 F1800.000
G1 X37.062 Y-5.431 E62.44873
G1 X37.062 Y5.431 E63.43640
G1 X36.881 Y6.274 E63.51478
G1 X27.212 Y27.760 E65.65722
G1 X25.199 Y29.062 E65.87522
G1 X1.318 Y29.062 E68.04673
G1 X-1.062 Y26.682 E68.35270
G1 X-1.062 Y18.880 E69.06217
G1 X-0.437 Y18.820 F7800.000
G1 X-0.437 Y18.576 E69.08432 F1800.000
G1 X1.576 Y16.563 E69.34322
G1 X18.197 Y16.563 E70.85453
G1 X18.563 Y16.197 E70.90160
G1 X18.563 Y-16.197 E73.84718
G1 X18.197 Y-16.563 E73.89425
G1 X1.576 Y-16.563 E75.40556
G1 X-0.437 Y-18.576 E75.66446
G1 X-0.437 Y-26.424 E76.37800
G1 X1.576 Y-28.437 E76.63690
G1 X25.014 Y-28.437 E78.76810
G1 X26.718 Y-27.335 E78.95257 F1800.000
G1 X36.284 Y-6.078 E81.07220
G1 X36.437 Y-5.365 E81.13853
G1 X36.437 Y5.365 E82.11414
G1 X36.284 Y6.078 E82.18046
G1 X26.718 Y27.335 E84.30010
G1 X25.014 Y28.437 E84.48457
G1 X1.576 Y28.437 E86.61577
G1 X-0.437 Y26.424 E86.87466
G1 X-0.437 Y18.880 E87.56060
G1 X0.188 Y18.835 F7800.000
G1 X1.835 Y17.188 E87.77242 F1800.000
G1 X18.822 Y17.188 E89.31702
G1 X19.188 Y16.822 E89.36409
G1 X19.188 Y-16.822 E92.42331
G1 X18.822 Y-17.188 E92.47039
G1 X1.835 Y-17.188 E94.01498
G1 X0.188 Y-18.835 E94.22681
G1 X0.188 Y-26.165 E94.89328
G1 X1.835 Y-27.812 E95.10510
G1 X24.830 Y-27.812 E97.19600
G1 X26.224 Y-26.911 E97.34692
G1 X35.687 Y-5.882 E99.44376 F1800.000
G1 X35.812 Y-5.298 E99.49802
G1 X35.812 Y5.298 E100.46158
G1 X35.687 Y5.882 E100.51585
G1 X26.224 Y26.911 E102.61268
G1 X24.830 Y27.812 E102.76361
G1 X1.835 Y27.812 E104.85451
G1 X0.188 Y26.165 E105.06633
G1 X0.188 Y18.895 E105.72735
G1 X0.813 Y19.094 F7800.000
G1 X2.094 Y17.813 E105.89210 F1800.000
G1 X19.447 Y17.813 E107.46998
G1 X19.813 Y17.447 E107.51705
G1 X19.813 Y-17.447 E110.68992
G1 X19.447 Y-17.813 E110.73699
G1 X2.094 Y-17.813 E112.31487
G1 X0.813 Y-19.094 E112.47962
G1 X0.813 Y-25.906 E113.09902
G1 X2.094 Y-27.187 E113.26377
G1 X24.645 Y-27.187 E115.31436
G1 X25.730 Y-26.486 E115.43175 F1800.000
G1 X35.090 Y-5.686 E117.50579
G1 X35.187 Y-5.232 E117.54799
G1 X35.187 Y5.232 E118.49949
G1 X35.090 Y5.686 E118.54170
G1 X25.730 Y26.486 E120.61574
G1 X24.645 Y27.187 E120.73312
G1 X2.094 Y27.187 E122.78371
G1 X0.813 Y25.906 E122.94847
G1 X0.813 Y19.154 E123.56241
G1 X1.438 Y19.353 F7800.000
G1 X2.353 Y18.438 E123.68009 F1800.000
G1 X20.072 Y18.438 E125.29126
G1 X20.438 Y18.072 E125.33833
G1 X20.438 Y-18.072 E128.62484
G1 X20.072 Y-18.438 E128.67191
G1 X2.353 Y-18.438 E130.28307
G1 X1.438 Y-19.353 E130.40075
G1 X1.438 Y-25.647 E130.97308
G1 X2.353 Y-26.562 E131.09076
G1 X24.461 Y-26.562 E133.10105
G1 X25.235 Y-26.062 E133.18489
G1 X34.493 Y-5.490 E135.23613 F1800.000
G1 X34.562 Y-5.166 E135.26628
G1 X34.562 Y5.166 E136.20572
G1 X34.493 Y5.490 E136.23587
G1 X25.235 Y26.062 E138.28711
G1 X24.461 Y26.562 E138.37095
G1 X2.353 Y26.562 E140.38124
G1 X1.438 Y25.647 E140.49892
G1 X1.438 Y19.413 E141.06579
G1 X2.063 Y19.612 F7800.000
G1 X2.612 Y19.063 E141.13640 F1800.000
G1 X20.697 Y19.063 E142.78085
G1 X21.063 Y18.697 E142.82792
G1 X21.063 Y-18.697 E146.22807
G1 X20.697 Y-19.063 E146.27514
G1 X2.612 Y-19.063 E147.91959
G1 X2.063 Y-19.612 E147.99020
G1 X2.063 Y-25.388 E148.51546
G1 X2.612 Y-25.937 E148.58607
G1 X24.277 Y-25.937 E150.55604
G1 X24.741 Y-25.637 E150.60635 F1800.000
G1 X33.896 Y-5.294 E152.63479
G1 X33.937 Y-5.099 E152.65288
G1 X33.937 Y5.099 E153.58026
G1 X33.896 Y5.294 E153.59835
G1 X24.741 Y25.637 E155.62679
G1 X24.277 Y25.937 E155.67710
G1 X2.612 Y25.937 E157.64708
G1 X2.063 Y25.388 E157.71769
G1 X2.063 Y19.672 E158.23749
G1 X2.871 Y19.688 F7800.000
G1 X21.322 Y19.688 E159.91522 F1800.000
G1 X21.688 Y19.322 E159.96230
G1 X21.688 Y-19.322 E163.47609
G1 X21.322 Y-19.688 E163.52316
G1 X2.871 Y-19.688 E165.20089
G1 X2.688 Y-19.871 E165.22443
G1 X2.688 Y-25.129 E165.70261
G1 X2.871 Y-25.312 E165.72615
G1 X24.092 Y-25.312 E167.65582
G1 X24.247 Y-25.212 E167.67259
G1 X33.299 Y-5.098 E169.67823
G1 X33.312 Y-5.033 E169.68426
G1 X33.312 Y5.033 E170.59959
G1 X33.299 Y5.098 E170.60562
G1 X24.247 Y25.212 E172.61126
G1 X24.092 Y25.312 E172.62803
G1 X2.871 Y25.312 E174.55770
G1 X2.688 Y25.129 E174.58124
G1 X2.688 Y19.871 E175.05942
G1 X2.828 Y19.730 E175.07750
G1 E173.07750 F2400.00000
G92 E0
G1 X-1.403 Y16.892 F7800.000
G1 E2.00000 F2400.00000
G1 X-2.260 Y16.300 E2.09471 F1800.000
G1 X2.075 Y6.666 E3.05535
G1 X2.312 Y5.564 E3.15785
G1 X2.312 Y-5.564 E4.16964
G1 X2.075 Y-6.666 E4.27213
G1 X-2.260 Y-16.300 E5.23278
G1 X-1.403 Y-16.892 E5.32748
G1 X0.800 Y-14.688 E5.61078
G1 X16.322 Y-14.688 E7.02224
G1 X16.688 Y-14.322 E7.06931
G1 X16.688 Y14.322 E9.67397
G1 X16.322 Y14.688 E9.72104
G1 X0.800 Y14.688 E11.13250
G1 X-1.361 Y16.849 E11.41034
G1 E9.41034 F2400.00000
G92 E0
G1 X0.058 Y14.064 F7800.000
G1 E2.00000 F2400.00000
G1 X-0.312 Y13.492 E2.06185 F1800.000
G1 X2.672 Y6.862 E2.72301
G1 X2.936 Y5.630 E2.83756
G1 X2.936 Y-5.630 E3.86141
G1 X2.672 Y-6.862 E3.97597
G1 X-0.312 Y-13.492 E4.63713
G1 X0.058 Y-14.064 E4.69898
G1 X15.698 Y-14.064 E6.12111
G1 X16.064 Y-13.698 E6.16818
G1 X16.064 Y13.698 E8.65920 F1800.000
G1 X15.698 Y14.064 E8.70627
G1 X0.118 Y14.064 E10.12295
G1 X1.024 Y13.439 F7800.000
G1 X0.655 Y12.867 E10.18480 F1800.000
G1 X3.269 Y7.058 E10.76411
G1 X3.561 Y5.696 E10.89072
G1 X3.561 Y-5.696 E11.92663
G1 X3.269 Y-7.058 E12.05324
G1 X0.655 Y-12.867 E12.63255
G1 X1.024 Y-13.439 E12.69440
G1 X15.073 Y-13.439 E13.97183
G1 X15.439 Y-13.073 E14.01891 F1800.000
G1 X15.439 Y13.073 E16.39628
G1 X15.073 Y13.439 E16.44335
G1 X1.084 Y13.439 E17.71533
G1 E15.71533 F2400.00000
G92 E0
G1 X-1.206 Y12.435 F7800.000
G1 E2.00000 F2400.00000
G1 X-8.294 Y28.185 E3.57043 F1800.000
G1 X-10.617 Y29.687 E3.82197
G1 X-34.941 Y29.687 E6.03379
G1 X-37.687 Y26.941 E6.38683
G1 X-37.687 Y18.059 E7.19452
G1 X-34.941 Y15.313 E7.54755
G1 X-19.053 Y15.313 E8.99230
G1 X-18.687 Y14.947 E9.03937
G1 X-18.687 Y-14.947 E11.75767
G1 X-19.053 Y-15.313 E11.80474
G1 X-34.941 Y-15.313 E13.24948
G1 X-37.687 Y-18.059 E13.60252
G1 X-37.687 Y-26.941 E14.41021
G1 X-34.941 Y-29.687 E14.76325
G1 X-10.617 Y-29.687 E16.97506
G1 X-8.294 Y-28.185 E17.22661 F1800.000
G1 X1.478 Y-6.470 E19.39184
G1 X1.687 Y-5.497 E19.48228
G1 X1.687 Y5.497 E20.48201
G1 X1.478 Y6.470 E20.57245
G1 X-1.182 Y12.380 E21.16180
G1 X-1.776 Y12.179 F7800.000
G1 X-8.788 Y27.760 E22.71546 F1800.000
G1 X-10.801 Y29.062 E22.93346
G1 X-34.682 Y29.062 E25.10497
G1 X-37.062 Y26.682 E25.41094
G1 X-37.062 Y18.318 E26.17155
G1 X-34.682 Y15.938 E26.47752
G1 X-18.428 Y15.938 E27.95555
G1 X-18.062 Y15.572 E28.00262
G1 X-18.062 Y-15.572 E30.83456
G1 X-18.428 Y-15.938 E30.88163
G1 X-34.682 Y-15.938 E32.35966
G1 X-37.062 Y-18.318 E32.66563
G1 X-37.062 Y-26.682 E33.42624
G1 X-34.682 Y-29.062 E33.73221
G1 X-10.801 Y-29.062 E35.90372
