; generated by Slic3r 1.2.9 on 2016-10-07 at 11:03:30

; external perimeters extrusion width = 0.40mm
; perimeters extrusion width = 0.48mm
; infill extrusion width = 0.48mm
; solid infill extrusion width = 0.48mm
; top infill extrusion width = 0.48mm

M107
M104 S210 ; set temperature
G28 ; home all axes
G1 Z5 F5000 ; lift nozzle

M109 S210 ; wait for temperature to be reached
G21 ; set units to millimeters
G90 ; use absolute coordinates
M82 ; use absolute distances for extrusion
G92 E0
G1 Z0.350 F7800.000
G1 E-2.00000 F2400.00000
G92 E0
G1 X-33.447 Y0.000 F7800.000
G1 E2.00000 F2400.00000
G1 X-33.447 Y-40.261 E5.66095 F1800.000
G1 X-33.204 Y-42.575 E5.87249
G1 X-33.095 Y-43.088 E5.92021
G1 X-32.377 Y-45.296 E6.13127
G1 X-32.164 Y-45.774 E6.17888
G1 X-31.001 Y-47.789 E6.39040
G1 X-30.697 Y-48.208 E6.43751
G1 X-29.138 Y-49.939 E6.64932
G1 X-28.750 Y-50.290 E6.69691
G1 X-26.867 Y-51.657 E6.90846
G1 X-26.415 Y-51.918 E6.95599
G1 X-24.291 Y-52.864 E7.16733
G1 X-23.794 Y-53.025 E7.21486
G1 X-21.519 Y-53.509 E7.42635
G1 X-20.999 Y-53.564 E7.47391
G1 X-18.671 Y-53.563 E7.68558
G1 X-18.154 Y-53.509 E7.73289 F1800.000
G1 X-15.879 Y-53.025 E7.94435
G1 X-15.381 Y-52.864 E7.99192
G1 X-13.420 Y-52.010 E8.18645
G1 X26.759 Y-29.702 E12.36519
G1 X27.665 Y-29.179 E12.46033
G1 X29.546 Y-27.812 E12.67179
G1 X30.323 Y-27.113 E12.76683
G1 X31.879 Y-25.384 E12.97835
G1 X32.494 Y-24.539 E13.07340
G1 X33.656 Y-22.525 E13.28481
G1 X34.082 Y-21.569 E13.37993
G1 X34.800 Y-19.358 E13.59140
G1 X35.018 Y-18.334 E13.68658
G1 X35.261 Y-16.023 E13.89789
G1 X35.261 Y17.023 E16.90267
G1 X35.018 Y19.335 E17.11411
G1 X34.800 Y20.358 E17.20916
G1 X34.082 Y22.569 E17.42063
G1 X33.656 Y23.525 E17.51575
G1 X32.494 Y25.539 E17.72716
G1 X31.879 Y26.384 E17.82221
G1 X30.324 Y28.112 E18.03362
G1 X29.546 Y28.812 E18.12877
G1 X27.665 Y30.179 E18.34023
G1 X26.759 Y30.702 E18.43527
G1 X-13.609 Y52.112 E22.59026
G1 X-15.377 Y52.862 E22.76491
G1 X-15.879 Y53.025 E22.81288
G1 X-18.149 Y53.508 E23.02394
G1 X-18.674 Y53.564 E23.07197
G1 X-20.998 Y53.564 E23.28331
G1 X-21.518 Y53.509 E23.33083
G1 X-23.794 Y53.025 E23.54241
G1 X-24.291 Y52.864 E23.58992
G1 X-26.416 Y51.918 E23.80141
G1 X-26.869 Y51.656 E23.84894
G1 X-28.745 Y50.294 E24.05979
G1 X-29.138 Y49.940 E24.10786
G1 X-30.694 Y48.212 E24.31933
G1 X-31.001 Y47.789 E24.36685
G1 X-32.165 Y45.773 E24.57852
G1 X-32.377 Y45.295 E24.62605
G1 X-33.095 Y43.086 E24.83726
G1 X-33.204 Y42.575 E24.88478
G1 X-33.447 Y40.261 E25.09633
G1 X-33.447 Y0.060 E28.75182
G1 X-32.822 Y0.000 F7800.000
G1 X-32.822 Y-40.261 E32.41276 F1800.000
G1 X-32.593 Y-42.445 E32.61243
G1 X-32.483 Y-42.958 E32.66013
G1 X-31.806 Y-45.042 E32.85934
G1 X-31.593 Y-45.520 E32.90694
G1 X-30.496 Y-47.421 E33.10658
G1 X-30.191 Y-47.841 E33.15369
G1 X-28.720 Y-49.475 E33.35363
G1 X-28.331 Y-49.825 E33.40122
G1 X-26.555 Y-51.116 E33.60088
G1 X-26.102 Y-51.377 E33.64841
G1 X-24.098 Y-52.269 E33.84788
G1 X-23.601 Y-52.431 E33.89541
G1 X-21.454 Y-52.887 E34.09502
G1 X-20.934 Y-52.942 E34.14257
G1 X-18.736 Y-52.942 E34.34238
G1 X-18.219 Y-52.887 E34.38968 F1800.000
G1 X-16.072 Y-52.431 E34.58926
G1 X-15.575 Y-52.269 E34.63683
G1 X-13.723 Y-51.464 E34.82043
G1 X26.446 Y-29.161 E38.99822
G1 X27.352 Y-28.638 E39.09335
G1 X29.128 Y-27.348 E39.29294
G1 X29.905 Y-26.649 E39.38798
G1 X31.374 Y-25.017 E39.58762
G1 X31.988 Y-24.171 E39.68267
G1 X33.085 Y-22.271 E39.88220
G1 X33.511 Y-21.315 E39.97732
G1 X34.189 Y-19.228 E40.17690
G1 X34.407 Y-18.204 E40.27208
G1 X34.636 Y-16.023 E40.47152
G1 X34.636 Y17.023 E43.47630
G1 X34.406 Y19.205 E43.67587
G1 X34.189 Y20.228 E43.77092
G1 X33.511 Y22.315 E43.97051
G1 X33.085 Y23.271 E44.06563
G1 X31.988 Y25.171 E44.26515
G1 X31.374 Y26.017 E44.36020
G1 X29.906 Y27.648 E44.55975
G1 X29.128 Y28.348 E44.65489
G1 X27.352 Y29.638 E44.85447
G1 X26.447 Y30.161 E44.94951
G1 X-13.901 Y51.560 E49.10245
G1 X-15.570 Y52.268 E49.26729
G1 X-16.072 Y52.431 E49.31523
G1 X-18.214 Y52.887 E49.51444
G1 X-18.739 Y52.942 E49.56244
G1 X-20.933 Y52.942 E49.76191
G1 X-21.453 Y52.888 E49.80943
G1 X-23.601 Y52.431 E50.00912
G1 X-24.098 Y52.269 E50.05664
G1 X-26.103 Y51.377 E50.25624
G1 X-26.556 Y51.115 E50.30377
G1 X-28.327 Y49.829 E50.50278
G1 X-28.720 Y49.476 E50.55082
G1 X-30.188 Y47.845 E50.75040
G1 X-30.496 Y47.422 E50.79793
G1 X-31.594 Y45.519 E50.99771
G1 X-31.806 Y45.041 E51.04524
G1 X-32.484 Y42.956 E51.24458
G1 X-32.593 Y42.445 E51.29210
G1 X-32.822 Y40.261 E51.49177
G1 X-32.822 Y0.060 E55.14726
G1 X-32.197 Y0.000 F7800.000
G1 X-32.197 Y-40.261 E58.80820 F1800.000
G1 X-31.981 Y-42.315 E58.99598
G1 X-31.872 Y-42.828 E59.04368
G1 X-31.235 Y-44.788 E59.23103
G1 X-31.023 Y-45.266 E59.27863
G1 X-29.990 Y-47.054 E59.46639
G1 X-29.686 Y-47.473 E59.51349
G1 X-28.302 Y-49.011 E59.70156
G1 X-27.913 Y-49.361 E59.74914
G1 X-26.242 Y-50.575 E59.93692
G1 X-25.790 Y-50.836 E59.98446
G1 X-23.905 Y-51.675 E60.17205
G1 X-23.408 Y-51.837 E60.21958
G1 X-21.388 Y-52.266 E60.40731
G1 X-20.868 Y-52.321 E60.45486
G1 X-18.802 Y-52.320 E60.64280
G1 X-18.284 Y-52.266 E60.69009 F1800.000
G1 X-16.265 Y-51.837 E60.87779
G1 X-15.768 Y-51.675 E60.92536
G1 X-14.026 Y-50.917 E61.09803
G1 X26.134 Y-28.620 E65.27487
G1 X27.040 Y-28.097 E65.37000
G1 X28.710 Y-26.884 E65.55771
G1 X29.487 Y-26.184 E65.65275
G1 X30.868 Y-24.650 E65.84051
G1 X31.483 Y-23.804 E65.93556
G1 X32.515 Y-22.017 E66.12321
G1 X32.940 Y-21.061 E66.21832
G1 X33.578 Y-19.098 E66.40603
G1 X33.796 Y-18.074 E66.50121
G1 X34.011 Y-16.023 E66.68877
G1 X34.011 Y17.023 E69.69356
G1 X33.795 Y19.075 E69.88124
G1 X33.578 Y20.098 E69.97629
G1 X32.940 Y22.061 E70.16400
G1 X32.515 Y23.017 E70.25912
G1 X31.483 Y24.804 E70.44677
G1 X30.868 Y25.650 E70.54182
G1 X29.487 Y27.183 E70.72949
G1 X28.710 Y27.884 E70.82462
G1 X27.040 Y29.097 E71.01233
G1 X26.135 Y29.619 E71.10737
G1 X-14.194 Y51.008 E75.25826
G1 X-15.764 Y51.674 E75.41329
G1 X-16.265 Y51.837 E75.46120
G1 X-18.280 Y52.266 E75.64855
G1 X-18.805 Y52.321 E75.69653
G1 X-20.868 Y52.321 E75.88412
G1 X-21.388 Y52.266 E75.93165
G1 X-23.408 Y51.837 E76.11945
G1 X-23.905 Y51.675 E76.16697
G1 X-25.791 Y50.835 E76.35469
G1 X-26.244 Y50.574 E76.40223
G1 X-27.909 Y49.365 E76.58939
G1 X-28.301 Y49.011 E76.63740
G1 X-29.683 Y47.477 E76.82510
G1 X-29.990 Y47.054 E76.87263
G1 X-31.023 Y45.265 E77.06052
G1 X-31.236 Y44.787 E77.10804
G1 X-31.873 Y42.826 E77.29552
G1 X-31.981 Y42.315 E77.34305
G1 X-32.197 Y40.261 E77.53083
G1 X-32.197 Y0.060 E81.18632
G1 X-31.572 Y0.000 F7800.000
G1 X-31.572 Y-40.261 E84.84727 F1800.000
G1 X-31.370 Y-42.185 E85.02316
G1 X-31.261 Y-42.698 E85.07085
G1 X-30.665 Y-44.534 E85.24634
G1 X-30.452 Y-45.012 E85.29393
G1 X-29.485 Y-46.687 E85.46981
G1 X-29.179 Y-47.108 E85.51711
G1 X-27.884 Y-48.546 E85.69311
G1 X-27.495 Y-48.896 E85.74069
G1 X-25.930 Y-50.033 E85.91659
G1 X-25.477 Y-50.295 E85.96412
G1 X-23.712 Y-51.081 E86.13985
G1 X-23.215 Y-51.242 E86.18737
G1 X-21.323 Y-51.644 E86.36322
G1 X-20.803 Y-51.699 E86.41077
G1 X-18.867 Y-51.699 E86.58685
G1 X-18.350 Y-51.644 E86.63412 F1800.000
G1 X-16.458 Y-51.242 E86.80994
G1 X-15.961 Y-51.081 E86.85751
G1 X-14.330 Y-50.371 E87.01925
G1 X25.821 Y-28.079 E91.19515
G1 X26.727 Y-27.556 E91.29027
G1 X28.292 Y-26.419 E91.46610
G1 X29.069 Y-25.720 E91.56115
G1 X30.363 Y-24.282 E91.73702
G1 X30.977 Y-23.437 E91.83207
G1 X31.944 Y-21.763 E92.00785
G1 X32.369 Y-20.807 E92.10296
G1 X32.967 Y-18.968 E92.27879
G1 X33.184 Y-17.944 E92.37395
G1 X33.386 Y-16.023 E92.54965
G1 X33.386 Y17.023 E95.55443
G1 X33.184 Y18.945 E95.73024
G1 X32.967 Y19.968 E95.82529
G1 X32.369 Y21.807 E96.00112
G1 X31.944 Y22.763 E96.09624
G1 X30.977 Y24.437 E96.27201
G1 X30.363 Y25.282 E96.36706
G1 X29.069 Y26.719 E96.54285
G1 X28.292 Y27.419 E96.63798
G1 X26.727 Y28.556 E96.81381
G1 X25.822 Y29.078 E96.90885
G1 X-14.487 Y50.456 E101.05769
G1 X-15.957 Y51.080 E101.20291
G1 X-16.458 Y51.242 E101.25080
G1 X-18.346 Y51.644 E101.42629
G1 X-18.870 Y51.699 E101.47424
G1 X-20.803 Y51.699 E101.64996
G1 X-21.322 Y51.645 E101.69749
G1 X-23.215 Y51.242 E101.87340
G1 X-23.712 Y51.081 E101.92092
G1 X-25.478 Y50.294 E102.09677
G1 X-25.931 Y50.033 E102.14430
G1 X-27.491 Y48.900 E102.31962
G1 X-27.883 Y48.547 E102.36760
G1 X-29.177 Y47.110 E102.54343
G1 X-29.484 Y46.687 E102.59095
G1 X-30.452 Y45.011 E102.76695
G1 X-30.665 Y44.533 E102.81448
G1 X-31.261 Y42.696 E102.99009
G1 X-31.370 Y42.185 E103.03761
G1 X-31.572 Y40.261 E103.21352
G1 X-31.572 Y0.060 E106.86901
G1 X-30.947 Y0.000 F7800.000
G1 X-30.947 Y-40.261 E110.52995 F1800.000
G1 X-30.759 Y-42.055 E110.69396
G1 X-30.650 Y-42.568 E110.74164
G1 X-30.094 Y-44.279 E110.90527
G1 X-29.881 Y-44.758 E110.95286
G1 X-28.979 Y-46.320 E111.11686
G1 X-28.673 Y-46.740 E111.16414
G1 X-27.466 Y-48.082 E111.32828
G1 X-27.077 Y-48.432 E111.37586
G1 X-25.618 Y-49.492 E111.53987
G1 X-25.165 Y-49.754 E111.58741
G1 X-23.519 Y-50.486 E111.75126
G1 X-23.022 Y-50.648 E111.79879
G1 X-21.258 Y-51.023 E111.96276
G1 X-20.738 Y-51.078 E112.01030
G1 X-18.932 Y-51.077 E112.17451
G1 X-18.415 Y-51.023 E112.22177 F1800.000
G1 X-16.651 Y-50.648 E112.38572
G1 X-16.154 Y-50.487 E112.43328
G1 X-14.633 Y-49.825 E112.58410
G1 X25.509 Y-27.538 E116.75905
G1 X26.415 Y-27.015 E116.85416
G1 X27.874 Y-25.955 E117.01811
G1 X28.650 Y-25.255 E117.11316
G1 X29.857 Y-23.915 E117.27715
G1 X30.472 Y-23.069 E117.37220
G1 X31.373 Y-21.508 E117.53610
G1 X31.798 Y-20.553 E117.63121
G1 X32.355 Y-18.838 E117.79516
G1 X32.573 Y-17.814 E117.89032
G1 X32.761 Y-16.023 E118.05414
G1 X32.761 Y17.023 E121.05893
G1 X32.573 Y18.816 E121.22286
G1 X32.355 Y19.838 E121.31791
G1 X31.798 Y21.553 E121.48187
G1 X31.373 Y22.508 E121.57697
G1 X30.472 Y24.069 E121.74087
G1 X29.857 Y24.915 E121.83592
G1 X28.644 Y26.261 E122.00074
G1 X27.874 Y26.955 E122.09496
G1 X26.415 Y28.015 E122.25891
G1 X25.237 Y28.688 E122.38224
G1 X-14.779 Y49.904 E126.50074
G1 X-16.150 Y50.485 E126.63615
G1 X-16.651 Y50.648 E126.68401
G1 X-18.411 Y51.023 E126.84765
G1 X-18.935 Y51.078 E126.89557
G1 X-20.737 Y51.078 E127.05942
G1 X-21.257 Y51.023 E127.10694
G1 X-23.022 Y50.648 E127.27098
G1 X-23.519 Y50.487 E127.31850
G1 X-25.166 Y49.753 E127.48246
G1 X-25.619 Y49.492 E127.53000
G1 X-27.073 Y48.435 E127.69347
G1 X-27.465 Y48.082 E127.74142
G1 X-28.672 Y46.743 E127.90537
G1 X-28.979 Y46.320 E127.95289
G1 X-29.881 Y44.757 E128.11700
G1 X-30.094 Y44.279 E128.16453
G1 X-30.650 Y42.566 E128.32828
G1 X-30.759 Y42.055 E128.37580
G1 X-30.947 Y40.261 E128.53982
G1 X-30.947 Y0.060 E132.19531
G1 E130.19531 F2400.00000
G92 E0
G1 X-28.884 Y0.000 F7800.000
G1 E2.00000 F2400.00000
G1 X-28.884 Y-40.605 E5.69222 F1800.000
G1 X-28.812 Y-41.290 E5.75478
G1 X-28.560 Y-42.474 E5.86490
G1 X-28.348 Y-43.127 E5.92732
G1 X-27.856 Y-44.233 E6.03737
G1 X-27.512 Y-44.828 E6.09992
G1 X-26.800 Y-45.808 E6.21008
G1 X-26.340 Y-46.319 E6.27253
G1 X-25.440 Y-47.129 E6.38262
G1 X-24.883 Y-47.534 E6.44524
G1 X-23.836 Y-48.138 E6.55521
G1 X-23.208 Y-48.418 E6.61771
G1 X-22.057 Y-48.792 E6.72775
G1 X-21.384 Y-48.935 E6.79029
G1 X-20.180 Y-49.061 E6.90034
G1 X-19.493 Y-49.061 E6.96281
G1 X-19.147 Y-49.025 E6.99450
G1 X-18.289 Y-48.935 E7.07296 F1800.000
G1 X-17.616 Y-48.792 E7.13549
G1 X-16.465 Y-48.418 E7.24557
G1 X-15.836 Y-48.138 E7.30810
G1 X-14.789 Y-47.533 E7.41813
G1 X-14.232 Y-47.129 E7.48071
G1 X-13.332 Y-46.319 E7.59075
G1 X-12.872 Y-45.808 E7.65328
G1 X-12.161 Y-44.828 E7.76338
G1 X-11.817 Y-44.232 E7.82594
G1 X-11.325 Y-43.127 E7.93598
G1 X-11.112 Y-42.473 E7.99845
G1 X-10.861 Y-41.289 E8.10850
G1 X-10.789 Y-40.605 E8.17105
G1 X-10.789 Y-27.427 E9.36931
G1 X-10.423 Y-27.061 E9.41638
G1 X19.335 Y-27.061 E12.12226
G1 X19.678 Y-27.043 E12.15348
G1 X21.231 Y-26.880 E12.29546
G1 X21.903 Y-26.737 E12.35793
G1 X23.552 Y-26.202 E12.51556
G1 X24.180 Y-25.922 E12.57806
G1 X25.681 Y-25.055 E12.73570
G1 X26.238 Y-24.651 E12.79826
G1 X27.525 Y-23.492 E12.95580
G1 X27.986 Y-22.980 E13.01835
G1 X29.004 Y-21.578 E13.17593
G1 X29.348 Y-20.983 E13.23844
G1 X30.053 Y-19.399 E13.39606
G1 X30.266 Y-18.745 E13.45860
G1 X30.553 Y-17.395 E13.58414
G1 X30.626 Y-17.050 E13.61624
G1 X30.698 Y-16.366 E13.67872
G1 X30.698 Y17.366 E16.74602
G1 X30.626 Y18.050 E16.80854
G1 X30.266 Y19.745 E16.96604
G1 X30.053 Y20.399 E17.02863
G1 X29.348 Y21.983 E17.18628
G1 X29.004 Y22.578 E17.24879
G1 X27.986 Y23.980 E17.40634
G1 X27.526 Y24.491 E17.46887
G1 X26.237 Y25.651 E17.62651
G1 X25.681 Y26.056 E17.68904
G1 X24.180 Y26.922 E17.84659
G1 X23.553 Y27.201 E17.90906
G1 X21.904 Y27.737 E18.06674
G1 X21.231 Y27.880 E18.12931
G1 X19.679 Y28.043 E18.27119
G1 X19.336 Y28.061 E18.30244
G1 X-10.423 Y28.061 E21.00834
G1 X-10.789 Y28.427 E21.05541
G1 X-10.789 Y40.605 E22.16274
G1 X-10.861 Y41.290 E22.22530
G1 X-11.112 Y42.472 E22.33525
G1 X-11.324 Y43.126 E22.39776
G1 X-11.817 Y44.234 E22.50799
G1 X-12.161 Y44.829 E22.57049
G1 X-12.875 Y45.810 E22.68084
G1 X-13.336 Y46.322 E22.74345
G1 X-14.232 Y47.129 E22.85309
G1 X-14.788 Y47.533 E22.91558
G1 X-15.836 Y48.138 E23.02561
G1 X-16.463 Y48.417 E23.08802
G1 X-17.615 Y48.792 E23.19822
G1 X-18.287 Y48.934 E23.26063
G1 X-18.635 Y48.971 E23.29248
G1 X-19.493 Y49.061 E23.37098
G1 X-20.182 Y49.061 E23.43362
G1 X-21.385 Y48.935 E23.54357
G1 X-22.060 Y48.791 E23.60635
G1 X-23.208 Y48.418 E23.71611
G1 X-23.837 Y48.138 E23.77867
G1 X-24.884 Y47.533 E23.88862
G1 X-25.439 Y47.130 E23.95097
G1 X-26.340 Y46.319 E24.06126
G1 X-26.800 Y45.808 E24.12379
G1 X-27.511 Y44.830 E24.23370
G1 X-27.856 Y44.233 E24.29641
G1 X-28.348 Y43.126 E24.40652
G1 X-28.560 Y42.473 E24.46898
G1 X-28.812 Y41.290 E24.57899
G1 X-28.884 Y40.605 E24.64156
G1 X-28.884 Y0.060 E28.32834
G1 X-28.259 Y0.000 F7800.000
G1 X-28.259 Y-40.573 E32.01758 F1800.000
G1 X-28.194 Y-41.192 E32.07418
G1 X-27.956 Y-42.312 E32.17834
G1 X-27.764 Y-42.903 E32.23481
G1 X-27.298 Y-43.949 E32.33891
G1 X-26.987 Y-44.488 E32.39551
G1 X-26.313 Y-45.415 E32.49970
G1 X-25.898 Y-45.876 E32.55620
G1 X-25.047 Y-46.643 E32.66033
G1 X-24.542 Y-47.009 E32.71699
G1 X-23.552 Y-47.581 E32.82101
G1 X-22.984 Y-47.834 E32.87756
G1 X-21.895 Y-48.187 E32.98165
G1 X-21.286 Y-48.317 E33.03823
G1 X-20.148 Y-48.436 E33.14232
G1 X-19.526 Y-48.436 E33.19885
G1 X-18.387 Y-48.317 E33.30303 F1800.000
G1 X-17.778 Y-48.187 E33.35960
G1 X-16.689 Y-47.834 E33.46373
G1 X-16.121 Y-47.580 E33.52030
G1 X-15.129 Y-47.008 E33.62438
G1 X-14.626 Y-46.642 E33.68099
G1 X-13.775 Y-45.876 E33.78508
G1 X-13.359 Y-45.414 E33.84166
G1 X-12.685 Y-44.487 E33.94580
G1 X-12.374 Y-43.948 E34.00240
G1 X-11.909 Y-42.902 E34.10649
G1 X-11.717 Y-42.311 E34.16301
G1 X-11.479 Y-41.191 E34.26710
G1 X-11.414 Y-40.573 E34.32370
G1 X-11.414 Y-26.802 E35.57580
G1 X-11.047 Y-26.436 E35.62287
G1 X19.319 Y-26.436 E38.38408
G1 X19.629 Y-26.420 E38.41233
G1 X21.133 Y-26.262 E38.54984
G1 X21.741 Y-26.133 E38.60636
G1 X23.328 Y-25.618 E38.75803
G1 X23.896 Y-25.365 E38.81458
G1 X25.340 Y-24.531 E38.96625
G1 X25.844 Y-24.165 E39.02286
G1 X27.083 Y-23.049 E39.17444
G1 X27.499 Y-22.587 E39.23104
G1 X28.479 Y-21.238 E39.38266
G1 X28.790 Y-20.699 E39.43922
G1 X29.469 Y-19.175 E39.59088
G1 X29.661 Y-18.583 E39.64746
G1 X29.941 Y-17.265 E39.76999
G1 X30.008 Y-16.952 E39.79914
G1 X30.073 Y-16.333 E39.85568
G1 X30.073 Y17.334 E42.91702
G1 X30.008 Y17.952 E42.97359
G1 X29.661 Y19.583 E43.12514
G1 X29.469 Y20.175 E43.18177
G1 X28.790 Y21.699 E43.33345
G1 X28.479 Y22.238 E43.39001
G1 X27.499 Y23.586 E43.54161
G1 X27.083 Y24.049 E43.59819
G1 X25.844 Y25.165 E43.74986
G1 X25.340 Y25.531 E43.80644
G1 X23.896 Y26.364 E43.95803
G1 X23.329 Y26.617 E44.01455
G1 X21.742 Y27.133 E44.16627
G1 X21.133 Y27.262 E44.22288
G1 X19.630 Y27.420 E44.36030
G1 X19.319 Y27.436 E44.38858
G1 X-11.047 Y27.436 E47.14981
G1 X-11.414 Y27.802 E47.19688
G1 X-11.414 Y40.573 E48.35805
G1 X-11.479 Y41.192 E48.41466
G1 X-11.716 Y42.310 E48.51865
G1 X-11.909 Y42.902 E48.57521
G1 X-12.375 Y43.949 E48.67947
G1 X-12.686 Y44.488 E48.73602
G1 X-13.361 Y45.416 E48.84038
G1 X-13.778 Y45.879 E48.89703
G1 X-14.626 Y46.642 E49.00076
G1 X-15.129 Y47.008 E49.05730
G1 X-16.120 Y47.580 E49.16137
G1 X-16.687 Y47.833 E49.21784
G1 X-17.777 Y48.187 E49.32206
G1 X-18.385 Y48.316 E49.37854
G1 X-18.699 Y48.350 E49.40725
