; generated by Slic3r 1.2.9 on 2016-10-08 at 18:01:36

; external perimeters extrusion width = 0.40mm
; perimeters extrusion width = 0.48mm
; infill extrusion width = 0.48mm
; solid infill extrusion width = 0.48mm
; top infill extrusion width = 0.48mm

M107
M104 S210 ; set temperature
G28 ; home all axes
G1 Z5 F5000 ; lift nozzle

M109 S210 ; wait for temperature to be reached
G21 ; set units to millimeters
G90 ; use absolute coordinates
M82 ; use absolute distances for extrusion
G92 E0
G1 Z0.350 F7800.000
G1 E-2.00000 F2400.00000
G92 E0
G1 X19.569 Y-42.118 F7800.000
G1 E2.00000 F2400.00000
G1 X50.090 Y-27.937 E5.06022 F1800.000
G1 X50.577 Y-27.695 E5.10962
G1 X51.576 Y-27.106 E5.21510
G1 X52.348 Y-26.545 E5.30189
G1 X53.223 Y-25.773 E5.40794
G1 X54.142 Y-24.751 E5.53293
G1 X54.703 Y-23.979 E5.61973
G1 X55.293 Y-22.980 E5.72523
G1 X55.778 Y-21.916 E5.83152
G1 X56.202 Y-20.611 E5.95629
G1 X56.433 Y-19.470 E6.06221
G1 X56.533 Y-18.523 E6.14874
G1 X56.557 Y-17.835 E6.21138
G1 X56.557 Y19.665 E9.62124
G1 X56.533 Y20.354 E9.68388
G1 X56.434 Y21.300 E9.77040
G1 X56.148 Y22.646 E9.89550
G1 X55.778 Y23.747 E10.00115
G1 X55.293 Y24.810 E10.10743
G1 X54.703 Y25.810 E10.21298
G1 X54.010 Y26.745 E10.31873
G1 X53.222 Y27.603 E10.42470
G1 X52.349 Y28.375 E10.53072
G1 X51.401 Y29.050 E10.63653
G1 X50.577 Y29.526 E10.72300
G1 X49.829 Y29.884 E10.79841
G1 X1.141 Y50.675 E15.61239
G1 X0.382 Y50.960 E15.68613
G1 X-0.120 Y51.123 E15.73404
G1 X-1.980 Y51.519 E15.90702
G1 X-2.506 Y51.574 E15.95509
G1 X-4.413 Y51.574 E16.12850
G1 X-4.933 Y51.520 E16.17603
G1 X-6.800 Y51.123 E16.34955
G1 X-7.297 Y50.962 E16.39707
G1 X-8.905 Y50.261 E16.55660
G1 X-49.054 Y27.970 E20.73227
G1 X-49.961 Y27.447 E20.82743
G1 X-51.504 Y26.326 E21.00087
G1 X-52.280 Y25.627 E21.09592
G1 X-53.557 Y24.209 E21.26941
G1 X-54.172 Y23.363 E21.36449
G1 X-55.125 Y21.712 E21.53785
G1 X-55.551 Y20.756 E21.63296
G1 X-56.140 Y18.942 E21.80642
G1 X-56.358 Y17.918 E21.90159
G1 X-56.557 Y16.023 E22.07489
G1 X-56.557 Y-17.023 E25.07968
G1 X-56.357 Y-18.919 E25.25310
G1 X-56.140 Y-19.942 E25.34815
G1 X-55.551 Y-21.756 E25.52160
G1 X-55.125 Y-22.712 E25.61672
G1 X-54.172 Y-24.363 E25.79011
G1 X-53.557 Y-25.209 E25.88516
G1 X-52.281 Y-26.627 E26.05864
G1 X-51.504 Y-27.326 E26.15370
G1 X-49.961 Y-28.447 E26.32714
G1 X-48.767 Y-29.129 E26.45211
G1 X-8.750 Y-50.345 E30.57061
G1 X-7.298 Y-50.961 E30.71403
G1 X-6.799 Y-51.123 E30.76175
G1 X-4.935 Y-51.520 E30.93504
G1 X-4.413 Y-51.575 E30.98280
G1 X-2.503 Y-51.574 E31.15641
G1 X-1.986 Y-51.520 E31.20367 F1800.000
G1 X-0.120 Y-51.123 E31.37719
G1 X0.377 Y-50.962 E31.42471
G1 X1.402 Y-50.559 E31.52485
G1 X19.515 Y-42.143 E33.34092
G1 X19.306 Y-41.551 F7800.000
G1 X49.827 Y-27.370 E36.40114 F1800.000
G1 X50.293 Y-27.139 E36.44846
G1 X51.236 Y-26.582 E36.54802
G1 X51.955 Y-26.059 E36.62886
G1 X52.781 Y-25.331 E36.72895
G1 X53.656 Y-24.358 E36.84798
G1 X54.179 Y-23.639 E36.92884
G1 X54.736 Y-22.696 E37.02842
G1 X55.195 Y-21.693 E37.12873
G1 X55.599 Y-20.450 E37.24756
G1 X55.816 Y-19.372 E37.34753
G1 X55.909 Y-18.491 E37.42813
G1 X55.932 Y-17.835 E37.48779
G1 X55.932 Y19.665 E40.89764
G1 X55.909 Y20.321 E40.95730
G1 X55.816 Y21.202 E41.03789
G1 X55.544 Y22.484 E41.15703
G1 X55.195 Y23.523 E41.25675
G1 X54.736 Y24.527 E41.35705
G1 X54.179 Y25.470 E41.45668
G1 X53.525 Y26.351 E41.55649
G1 X52.781 Y27.162 E41.65650
G1 X51.955 Y27.890 E41.75656
G1 X51.060 Y28.526 E41.85643
G1 X50.293 Y28.969 E41.93698
G1 X49.584 Y29.309 E42.00852
G1 X0.895 Y50.101 E46.82251
G1 X0.188 Y50.366 E46.89119
G1 X-0.313 Y50.529 E46.93908
G1 X-2.046 Y50.898 E47.10022
G1 X-2.571 Y50.953 E47.14824
G1 X-4.348 Y50.953 E47.30978
G1 X-4.868 Y50.898 E47.35731
G1 X-6.606 Y50.529 E47.51895
G1 X-7.103 Y50.367 E47.56646
G1 X-8.602 Y49.715 E47.71507
G1 X-48.742 Y27.429 E51.88980
G1 X-49.648 Y26.906 E51.98495
G1 X-51.086 Y25.862 E52.14651
G1 X-51.862 Y25.162 E52.24155
G1 X-53.052 Y23.841 E52.40317
G1 X-53.666 Y22.995 E52.49824
G1 X-54.554 Y21.457 E52.65974
G1 X-54.980 Y20.502 E52.75484
G1 X-55.529 Y18.812 E52.91641
G1 X-55.746 Y17.788 E53.01158
G1 X-55.932 Y16.023 E53.17301
G1 X-55.932 Y-17.023 E56.17780
G1 X-55.746 Y-18.789 E56.33934
G1 X-55.529 Y-19.812 E56.43439
G1 X-54.980 Y-21.502 E56.59597
G1 X-54.554 Y-22.457 E56.69108
G1 X-53.666 Y-23.996 E56.85259
G1 X-53.052 Y-24.841 E56.94764
G1 X-51.862 Y-26.162 E57.10925
G1 X-51.086 Y-26.862 E57.20430
G1 X-49.648 Y-27.906 E57.36587
G1 X-48.475 Y-28.577 E57.48879
G1 X-8.458 Y-49.793 E61.60729
G1 X-7.105 Y-50.367 E61.74089
G1 X-6.606 Y-50.529 E61.78859
G1 X-4.870 Y-50.898 E61.95001
G1 X-4.347 Y-50.953 E61.99775
G1 X-2.569 Y-50.953 E62.15950
G1 X-2.052 Y-50.898 E62.20676 F1800.000
G1 X-0.313 Y-50.529 E62.36839
G1 X0.184 Y-50.367 E62.41591
G1 X1.139 Y-49.992 E62.50919
G1 X19.251 Y-41.576 E64.32526
G1 X19.042 Y-40.984 F7800.000
G1 X49.564 Y-26.803 E67.38548 F1800.000
G1 X50.009 Y-26.582 E67.43073
G1 X50.896 Y-26.058 E67.52436
G1 X51.562 Y-25.574 E67.59926
G1 X52.339 Y-24.889 E67.69339
G1 X53.171 Y-23.965 E67.80646
G1 X53.655 Y-23.298 E67.88138
G1 X54.179 Y-22.412 E67.97503
G1 X54.611 Y-21.469 E68.06937
G1 X54.995 Y-20.288 E68.18226
G1 X55.199 Y-19.274 E68.27627
G1 X55.285 Y-18.458 E68.35095
G1 X55.307 Y-17.835 E68.40762
G1 X55.307 Y19.665 E71.81748
G1 X55.285 Y20.288 E71.87415
G1 X55.199 Y21.105 E71.94881
G1 X54.940 Y22.322 E72.06199
G1 X54.611 Y23.300 E72.15577
G1 X54.179 Y24.243 E72.25010
G1 X53.654 Y25.129 E72.34380
G1 X53.039 Y25.958 E72.43767
G1 X52.339 Y26.720 E72.53173
G1 X51.562 Y27.404 E72.62583
G1 X50.720 Y28.002 E72.71976
G1 X50.009 Y28.412 E72.79438
G1 X49.338 Y28.734 E72.86206
G1 X0.650 Y49.526 E77.67605
G1 X-0.005 Y49.772 E77.73968
G1 X-0.506 Y49.934 E77.78755
G1 X-2.112 Y50.276 E77.93683
G1 X-2.637 Y50.332 E77.98482
G1 X-4.283 Y50.332 E78.13449
G1 X-4.802 Y50.277 E78.18201
G1 X-6.413 Y49.934 E78.33177
G1 X-6.910 Y49.773 E78.37929
G1 X-8.299 Y49.169 E78.51697
G1 X-48.430 Y26.888 E82.69075
G1 X-49.336 Y26.365 E82.78589
G1 X-50.667 Y25.397 E82.93557
G1 X-51.444 Y24.698 E83.03062
G1 X-52.546 Y23.474 E83.18035
G1 X-53.161 Y22.628 E83.27542
G1 X-53.983 Y21.203 E83.42504
G1 X-54.409 Y20.248 E83.52014
G1 X-54.917 Y18.682 E83.66984
G1 X-55.135 Y17.658 E83.76500
G1 X-55.307 Y16.023 E83.91456
G1 X-55.307 Y-17.023 E86.91935
G1 X-55.135 Y-18.660 E87.06901
G1 X-54.917 Y-19.682 E87.16406
G1 X-54.409 Y-21.248 E87.31376
G1 X-53.983 Y-22.203 E87.40886
G1 X-53.160 Y-23.628 E87.55851
G1 X-52.546 Y-24.474 E87.65356
G1 X-51.444 Y-25.698 E87.80328
G1 X-50.667 Y-26.397 E87.89833
G1 X-49.336 Y-27.365 E88.04802
G1 X-48.182 Y-28.025 E88.16889
G1 X-8.165 Y-49.241 E92.28739
G1 X-6.912 Y-49.773 E92.41117
G1 X-6.413 Y-49.935 E92.45885
G1 X-4.804 Y-50.277 E92.60841
G1 X-4.282 Y-50.332 E92.65613
G1 X-2.634 Y-50.331 E92.80603
G1 X-2.117 Y-50.277 E92.85327 F1800.000
G1 X-0.506 Y-49.935 E93.00302
G1 X-0.009 Y-49.773 E93.05054
G1 X0.875 Y-49.425 E93.13696
G1 X18.988 Y-41.010 E94.95303
G1 X18.779 Y-40.418 F7800.000
G1 X49.726 Y-26.025 E98.05640 F1800.000
G1 X50.555 Y-25.534 E98.14411
G1 X51.169 Y-25.088 E98.21307
G1 X51.897 Y-24.447 E98.30124
G1 X52.685 Y-23.572 E98.40836
G1 X53.131 Y-22.958 E98.47733
G1 X53.623 Y-22.128 E98.56506
G1 X54.028 Y-21.245 E98.65342
G1 X54.391 Y-20.126 E98.76036
G1 X54.582 Y-19.177 E98.84843
G1 X54.661 Y-18.425 E98.91718
G1 X54.682 Y-17.835 E98.97086
G1 X54.682 Y19.665 E102.38072
G1 X54.661 Y20.255 E102.43440
G1 X54.582 Y21.007 E102.50315
G1 X54.337 Y22.160 E102.61035
G1 X54.028 Y23.076 E102.69821
G1 X53.623 Y23.959 E102.78656
G1 X53.130 Y24.789 E102.87433
G1 X52.553 Y25.565 E102.96226
G1 X51.897 Y26.278 E103.05037
G1 X51.169 Y26.918 E103.13851
G1 X50.380 Y27.478 E103.22649
G1 X49.726 Y27.856 E103.29520
G1 X49.093 Y28.160 E103.35902
G1 X0.404 Y48.951 E108.17301
G1 X-0.199 Y49.178 E108.23159
G1 X-0.699 Y49.340 E108.27942
G1 X-2.177 Y49.655 E108.41686
G1 X-2.702 Y49.710 E108.46482
G1 X-4.217 Y49.710 E108.60261
G1 X-4.737 Y49.655 E108.65013
G1 X-6.220 Y49.340 E108.78800
G1 X-6.717 Y49.179 E108.83552
G1 X-7.995 Y48.622 E108.96227
G1 X-48.117 Y26.347 E113.13511
G1 X-49.023 Y25.824 E113.23024
G1 X-50.249 Y24.933 E113.36805
G1 X-51.026 Y24.233 E113.46309
G1 X-52.041 Y23.107 E113.60094
G1 X-52.655 Y22.261 E113.69602
G1 X-53.413 Y20.949 E113.83376
G1 X-53.838 Y19.994 E113.92886
G1 X-54.306 Y18.552 E114.06668
G1 X-54.524 Y17.529 E114.16183
G1 X-54.682 Y16.023 E114.29952
G1 X-54.682 Y-17.023 E117.30431
G1 X-54.524 Y-18.530 E117.44210
G1 X-54.306 Y-19.552 E117.53715
G1 X-53.838 Y-20.994 E117.67496
G1 X-53.413 Y-21.949 E117.77006
G1 X-52.655 Y-23.261 E117.90783
G1 X-52.041 Y-24.107 E118.00288
G1 X-51.026 Y-25.233 E118.14072
G1 X-50.249 Y-25.933 E118.23577
G1 X-49.023 Y-26.824 E118.37358
G1 X-47.889 Y-27.473 E118.49241
G1 X-7.872 Y-48.689 E122.61091
G1 X-6.718 Y-49.178 E122.72486
G1 X-6.220 Y-49.340 E122.77253
G1 X-4.739 Y-49.655 E122.91022
G1 X-4.217 Y-49.710 E122.95793
G1 X-2.699 Y-49.710 E123.09596
G1 X-2.182 Y-49.656 E123.14319 F1800.000
G1 X-0.699 Y-49.340 E123.28106
G1 X-0.202 Y-49.179 E123.32858
G1 X0.612 Y-48.859 E123.40814
G1 X18.725 Y-40.443 E125.22421
G1 X18.516 Y-39.851 F7800.000
G1 X49.442 Y-25.469 E128.32550 F1800.000
G1 X50.215 Y-25.009 E128.40730
G1 X50.776 Y-24.602 E128.47031
G1 X51.455 Y-24.006 E128.55252
G1 X52.199 Y-23.179 E128.65368
G1 X52.607 Y-22.618 E128.71670
G1 X53.066 Y-21.844 E128.79851
G1 X53.445 Y-21.021 E128.88090
G1 X53.788 Y-19.965 E128.98190
G1 X53.965 Y-19.079 E129.06401
G1 X54.037 Y-18.392 E129.12684
G1 X54.057 Y-17.835 E129.17753
G1 X54.057 Y19.665 E132.58739
G1 X54.037 Y20.222 E132.63809
G1 X53.965 Y20.909 E132.70091
G1 X53.733 Y21.998 E132.80215
G1 X53.444 Y22.852 E132.88407
G1 X53.066 Y23.675 E132.96644
G1 X52.606 Y24.449 E133.04830
G1 X52.068 Y25.172 E133.13028
G1 X51.455 Y25.836 E133.21244
G1 X50.776 Y26.432 E133.29462
G1 X50.040 Y26.954 E133.37666
G1 X49.442 Y27.299 E133.43944
G1 X48.847 Y27.585 E133.49940
G1 X0.159 Y48.376 E138.31339
G1 X-0.892 Y48.746 E138.41470
G1 X-2.243 Y49.034 E138.54030
G1 X-2.767 Y49.089 E138.58821
G1 X-4.152 Y49.089 E138.71413
G1 X-4.672 Y49.034 E138.76165
G1 X-6.027 Y48.746 E138.88764
G1 X-6.524 Y48.584 E138.93516
G1 X-7.692 Y48.076 E139.05098
G1 X-47.805 Y25.806 E143.22287
G1 X-48.711 Y25.282 E143.31800
G1 X-49.831 Y24.468 E143.44393
G1 X-50.608 Y23.769 E143.53897
G1 X-51.535 Y22.740 E143.66494
G1 X-52.150 Y21.894 E143.76001
G1 X-52.842 Y20.695 E143.88589
G1 X-53.267 Y19.739 E143.98098
G1 X-53.695 Y18.422 E144.10691
G1 X-53.913 Y17.399 E144.20206
G1 X-54.057 Y16.023 E144.32788
G1 X-54.057 Y-17.023 E147.33267
G1 X-53.912 Y-18.400 E147.45858
G1 X-53.695 Y-19.422 E147.55363
G1 X-53.267 Y-20.739 E147.67957
G1 X-52.842 Y-21.695 E147.77466
G1 X-52.149 Y-22.894 E147.90056
G1 X-51.535 Y-23.740 E147.99561
G1 X-50.608 Y-24.769 E148.12157
G1 X-49.831 Y-25.468 E148.21662
G1 X-48.711 Y-26.282 E148.34255
G1 X-47.596 Y-26.921 E148.45933
G1 X-7.580 Y-48.137 E152.57782
G1 X-6.525 Y-48.584 E152.68196
G1 X-6.027 Y-48.746 E152.72961
G1 X-4.673 Y-49.034 E152.85544
G1 X-4.152 Y-49.089 E152.90313
G1 X-2.764 Y-49.088 E153.02930
G1 X-2.248 Y-49.034 E153.07652 F1800.000
G1 X-0.892 Y-48.746 E153.20250
G1 X-0.395 Y-48.584 E153.25002
G1 X0.349 Y-48.292 E153.32273
G1 X18.461 Y-39.876 E155.13880
G1 E153.13880 F2400.00000
G92 E0
G1 X26.659 Y10.440 F7800.000
G1 E2.00000 F2400.00000
G1 X27.147 Y10.463 E2.04448 F1800.000
G1 X27.613 Y10.537 E2.08732
G1 X28.065 Y10.658 E2.12993
G1 X28.503 Y10.826 E2.17253
G1 X28.920 Y11.039 E2.21513
G1 X29.313 Y11.294 E2.25774
G1 X29.677 Y11.589 E2.30035
G1 X30.009 Y11.920 E2.34295
G1 X30.303 Y12.284 E2.38556
G1 X30.559 Y12.677 E2.42815
G1 X30.771 Y13.094 E2.47076
G1 X30.939 Y13.532 E2.51336
G1 X31.061 Y13.984 E2.55597
G1 X31.134 Y14.447 E2.59857
G1 X31.158 Y14.915 E2.64118
G1 X31.134 Y15.383 E2.68377
G1 X31.060 Y15.849 E2.72664
G1 X30.931 Y16.321 E2.77118
G1 X30.771 Y16.736 E2.81158
G1 X30.559 Y17.153 E2.85419
G1 X30.303 Y17.546 E2.89678
G1 X30.009 Y17.910 E2.93939
G1 X29.677 Y18.242 E2.98199
G1 X29.313 Y18.537 E3.02460
G1 X28.920 Y18.792 E3.06721
G1 X28.503 Y19.004 E3.10981
G1 X28.065 Y19.172 E3.15241
G1 X27.613 Y19.294 E3.19502
G1 X27.150 Y19.367 E3.23762
G1 X26.682 Y19.391 E3.28022
G1 X26.214 Y19.367 E3.32283
G1 X25.751 Y19.294 E3.36543
G1 X25.299 Y19.172 E3.40803
G1 X24.861 Y19.004 E3.45064
G1 X24.444 Y18.792 E3.49323
G1 X24.051 Y18.536 E3.53584
G1 X23.687 Y18.242 E3.57845
G1 X23.356 Y17.910 E3.62105
G1 X23.061 Y17.546 E3.66366
G1 X22.806 Y17.153 E3.70625
G1 X22.593 Y16.736 E3.74886
G1 X22.424 Y16.296 E3.79172
G1 X22.300 Y15.822 E3.83626
G1 X22.230 Y15.383 E3.87667
G1 X22.206 Y14.915 E3.91927
G1 X22.230 Y14.447 E3.96188
G1 X22.304 Y13.982 E4.00473
G1 X22.434 Y13.509 E4.04927
G1 X22.593 Y13.094 E4.08968
G1 X22.806 Y12.677 E4.13228
G1 X23.061 Y12.284 E4.17487
G1 X23.356 Y11.920 E4.21748
G1 X23.687 Y11.589 E4.26009
G1 X24.051 Y11.294 E4.30269
G1 X24.444 Y11.039 E4.34530
G1 X24.861 Y10.826 E4.38790
G1 X25.299 Y10.658 E4.43050
G1 X25.752 Y10.537 E4.47311
G1 X26.214 Y10.463 E4.51571
G1 X26.599 Y10.443 E4.55073 F1800.000
G1 X26.660 Y11.066 F7800.000
G1 X27.084 Y11.086 E4.58925 F1800.000
G1 X27.483 Y11.149 E4.62598
G1 X27.872 Y11.253 E4.66263
G1 X28.248 Y11.398 E4.69928
G1 X28.607 Y11.580 E4.73593
G1 X28.945 Y11.800 E4.77257
G1 X29.259 Y12.054 E4.80923
G1 X29.544 Y12.339 E4.84587
G1 X29.797 Y12.652 E4.88253
G1 X30.017 Y12.990 E4.91917
G1 X30.200 Y13.349 E4.95581
G1 X30.344 Y13.725 E4.99246
G1 X30.448 Y14.115 E5.02911
G1 X30.512 Y14.513 E5.06576
G1 X30.533 Y14.915 E5.10241
G1 X30.512 Y15.318 E5.13905
G1 X30.448 Y15.717 E5.17580
G1 X30.336 Y16.126 E5.21438
G1 X30.200 Y16.481 E5.24899
G1 X30.017 Y16.840 E5.28564
G1 X29.797 Y17.178 E5.32228
G1 X29.544 Y17.492 E5.35894
G1 X29.259 Y17.777 E5.39558
G1 X28.945 Y18.030 E5.43223
G1 X28.607 Y18.250 E5.46888
G1 X28.248 Y18.433 E5.50553
G1 X27.872 Y18.577 E5.54218
G1 X27.483 Y18.681 E5.57882
G1 X27.085 Y18.744 E5.61547
G1 X26.682 Y18.766 E5.65212
G1 X26.280 Y18.744 E5.68877
G1 X25.882 Y18.681 E5.72541
G1 X25.492 Y18.577 E5.76206
G1 X25.116 Y18.433 E5.79871
G1 X24.757 Y18.250 E5.83536
G1 X24.419 Y18.030 E5.87200
G1 X24.106 Y17.777 E5.90866
G1 X23.821 Y17.492 E5.94530
G1 X23.567 Y17.178 E5.98196
G1 X23.348 Y16.840 E6.01860
G1 X23.165 Y16.481 E6.05524
G1 X23.020 Y16.104 E6.09198
G1 X22.912 Y15.694 E6.13057
G1 X22.853 Y15.318 E6.16519
G1 X22.832 Y14.915 E6.20183
G1 X22.853 Y14.513 E6.23848
G1 X22.916 Y14.114 E6.27522
G1 X23.028 Y13.704 E6.31380
G1 X23.165 Y13.349 E6.34841
G1 X23.348 Y12.990 E6.38506
G1 X23.567 Y12.652 E6.42170
G1 X23.821 Y12.339 E6.45836
G1 X24.106 Y12.054 E6.49500
G1 X24.419 Y11.800 E6.53165
G1 X24.757 Y11.580 E6.56830
G1 X25.116 Y11.398 E6.60495
G1 X25.492 Y11.253 E6.64160
G1 X25.882 Y11.149 E6.67824
G1 X26.280 Y11.086 E6.71489
G1 X26.601 Y11.069 E6.74411 F1800.000
G1 X26.865 Y10.722 F7800.000
G1 X25.132 Y10.053 F7800.000
G1 X24.607 Y10.254 E6.79526 F1800.000
G1 X24.131 Y10.497 E6.84381
G1 X23.683 Y10.788 E6.89238
G1 X23.268 Y11.124 E6.94094
G1 X22.891 Y11.501 E6.98950
G1 X22.555 Y11.916 E7.03807
G1 X22.264 Y12.364 E7.08661
G1 X22.021 Y12.840 E7.13517
G1 X21.839 Y13.314 E7.18137
G1 X21.692 Y13.850 E7.23186
G1 X21.608 Y14.382 E7.28084
G1 X21.580 Y14.915 E7.32940
G1 X21.608 Y15.448 E7.37796
G1 X21.688 Y15.950 E7.42416
G1 X21.828 Y16.487 E7.47466
G1 X22.021 Y16.990 E7.52364
G1 X22.264 Y17.466 E7.57220
G1 X22.555 Y17.914 E7.62074
G1 X22.891 Y18.329 E7.66931
G1 X23.268 Y18.707 E7.71787
G1 X23.683 Y19.043 E7.76643
G1 X24.131 Y19.334 E7.81500
G1 X24.607 Y19.576 E7.86355
G1 X25.083 Y19.759 E7.90991
G1 X25.026 Y20.065 E7.93827
G1 X11.501 Y20.065 E9.16813
G1 X11.482 Y19.710 E9.20048
G1 X11.813 Y19.675 E9.23070
G1 X12.238 Y19.559 E9.27082
G1 X12.818 Y19.300 E9.32853
G1 X13.376 Y18.894 E9.39130
G1 X13.839 Y18.380 E9.45418
G1 X14.185 Y17.781 E9.51706
G1 X14.398 Y17.123 E9.57998
G1 X14.471 Y16.435 E9.64287
G1 X14.398 Y15.747 E9.70577
G1 X14.185 Y15.089 E9.76869
G1 X13.839 Y14.490 E9.83156
G1 X13.376 Y13.976 E9.89445
G1 X12.817 Y13.570 E9.95733
G1 X12.185 Y13.288 E10.02023
G1 X11.545 Y13.152 E10.07972
G1 X11.104 Y13.132 E10.11984
G1 X10.473 Y13.199 E10.17753
G1 X9.816 Y13.413 E10.24034
G1 X9.217 Y13.759 E10.30322
