; generated by Slic3r 1.2.9 on 2016-10-06 at 12:15:37

; external perimeters extrusion width = 0.40mm
; perimeters extrusion width = 0.48mm
; infill extrusion width = 0.48mm
; solid infill extrusion width = 0.48mm
; top infill extrusion width = 0.48mm

M107
M104 S210 ; set temperature
G28 ; home all axes
G1 Z5 F5000 ; lift nozzle

M109 S210 ; wait for temperature to be reached
G21 ; set units to millimeters
G90 ; use absolute coordinates
M82 ; use absolute distances for extrusion
G92 E0
G1 Z0.350 F7800.000
G1 E-2.00000 F2400.00000
G92 E0
G1 X-0.323 Y38.038 F7800.000
G1 E2.00000 F2400.00000
G1 X-38.308 Y37.715 E5.45412 F1800.000
G1 X-39.231 Y37.676 E5.53814
G1 X-40.180 Y37.576 E5.62493
G1 X-40.697 Y37.494 E5.67252
G1 X-41.632 Y37.295 E5.75940
G1 X-42.138 Y37.160 E5.80699
G1 X-43.046 Y36.865 E5.89382
G1 X-43.534 Y36.677 E5.94141
G1 X-44.407 Y36.289 E6.02826
G1 X-44.874 Y36.051 E6.07588
G1 X-45.701 Y35.573 E6.16271
G1 X-46.139 Y35.288 E6.21029
G1 X-46.911 Y34.728 E6.29704
G1 X-47.318 Y34.398 E6.34464
G1 X-48.029 Y33.758 E6.43164
G1 X-48.399 Y33.388 E6.47922
G1 X-49.037 Y32.679 E6.56593
G1 X-49.367 Y32.273 E6.61352
G1 X-49.929 Y31.499 E6.70047
G1 X-50.214 Y31.060 E6.74807
G1 X-50.691 Y30.233 E6.83485
G1 X-50.928 Y29.767 E6.88244
G1 X-51.317 Y28.895 E6.96921
G1 X-51.504 Y28.407 E7.01680
G1 X-51.800 Y27.497 E7.10381
G1 X-51.935 Y26.991 E7.15139
G1 X-52.134 Y26.059 E7.23811
G1 X-52.215 Y25.542 E7.28570
G1 X-52.315 Y24.592 E7.37253
G1 X-52.355 Y23.680 E7.45554
G1 X-52.654 Y-7.903 E10.32750
G1 X-52.655 Y-23.988 E11.79007
G1 X-52.615 Y-24.988 E11.88110
G1 X-52.515 Y-25.938 E11.96794
G1 X-52.433 Y-26.455 E12.01557
G1 X-52.235 Y-27.388 E12.10227
G1 X-52.099 Y-27.894 E12.14987
G1 X-51.804 Y-28.803 E12.23684
G1 X-51.616 Y-29.292 E12.28446
G1 X-51.228 Y-30.164 E12.37123
G1 X-50.990 Y-30.630 E12.41882
G1 X-50.513 Y-31.457 E12.50558
G1 X-50.228 Y-31.896 E12.55320
G1 X-49.666 Y-32.669 E12.64012
G1 X-49.337 Y-33.076 E12.68774
G1 X-48.699 Y-33.785 E12.77446
G1 X-48.329 Y-34.155 E12.82204
G1 X-47.618 Y-34.795 E12.90904
G1 X-47.211 Y-35.124 E12.95663
G1 X-46.439 Y-35.685 E13.04337
G1 X-46.000 Y-35.970 E13.09097
G1 X-45.173 Y-36.448 E13.17782
G1 X-44.734 Y-36.672 E13.22263
G1 X-43.834 Y-37.074 E13.31227
G1 X-43.345 Y-37.262 E13.35986
G1 X-42.437 Y-37.557 E13.44667
G1 X-41.932 Y-37.692 E13.49426
G1 X-40.997 Y-37.891 E13.58115
G1 X-40.480 Y-37.973 E13.62875
G1 X-39.531 Y-38.072 E13.71556
G1 X-38.530 Y-38.112 E13.80658
G1 X37.947 Y-38.100 E20.76065
G1 X38.470 Y-38.072 E20.80827 F1800.000
G1 X39.419 Y-37.973 E20.89506
G1 X39.936 Y-37.891 E20.94265
G1 X40.871 Y-37.692 E21.02954
G1 X41.377 Y-37.557 E21.07713
G1 X42.285 Y-37.262 E21.16394
G1 X42.773 Y-37.074 E21.21156
G1 X43.646 Y-36.685 E21.29840
G1 X44.112 Y-36.448 E21.34598
G1 X44.939 Y-35.970 E21.43285
G1 X45.378 Y-35.685 E21.48044
G1 X46.150 Y-35.124 E21.56717
G1 X46.557 Y-34.795 E21.61477
G1 X47.268 Y-34.155 E21.70176
G1 X47.638 Y-33.785 E21.74935
G1 X48.276 Y-33.076 E21.83606
G1 X48.605 Y-32.669 E21.88366
G1 X49.167 Y-31.896 E21.97060
G1 X49.452 Y-31.457 E22.01819
G1 X49.930 Y-30.630 E22.10498
G1 X50.167 Y-30.164 E22.15257
G1 X50.555 Y-29.292 E22.23934
G1 X50.743 Y-28.804 E22.28694
G1 X51.039 Y-27.894 E22.37387
G1 X51.174 Y-27.388 E22.42153
G1 X51.372 Y-26.455 E22.50823
G1 X51.454 Y-25.938 E22.55582
G1 X51.554 Y-24.989 E22.64266
G1 X51.592 Y-24.190 E22.71540
G1 X52.653 Y23.786 E27.07888
G1 X52.615 Y24.988 E27.18823
G1 X52.515 Y25.938 E27.27507
G1 X52.433 Y26.455 E27.32271
G1 X52.235 Y27.388 E27.40940
G1 X52.099 Y27.894 E27.45699
G1 X51.804 Y28.804 E27.54401
G1 X51.616 Y29.292 E27.59160
G1 X51.228 Y30.164 E27.67836
G1 X50.990 Y30.630 E27.72595
G1 X50.513 Y31.457 E27.81271
G1 X50.228 Y31.896 E27.86033
G1 X49.666 Y32.669 E27.94728
G1 X49.337 Y33.076 E27.99487
G1 X48.699 Y33.785 E28.08158
G1 X48.329 Y34.155 E28.12916
G1 X47.618 Y34.795 E28.21616
G1 X47.211 Y35.125 E28.26379
G1 X46.439 Y35.685 E28.35051
G1 X46.026 Y35.954 E28.39532
G1 X45.173 Y36.448 E28.48495
G1 X44.707 Y36.685 E28.53253
G1 X43.834 Y37.074 E28.61940
G1 X43.345 Y37.262 E28.66699
G1 X42.437 Y37.557 E28.75381
G1 X41.932 Y37.692 E28.80140
G1 X40.997 Y37.891 E28.88828
G1 X40.480 Y37.973 E28.93588
G1 X39.531 Y38.072 E29.02269
G1 X38.530 Y38.112 E29.11371
G1 X8.530 Y38.112 E31.84160
G1 X-0.263 Y38.038 E32.64118
G1 X-0.317 Y37.413 F7800.000
G1 X-38.303 Y37.090 E36.09530 F1800.000
G1 X-39.199 Y37.052 E36.17682
G1 X-40.083 Y36.959 E36.25767
G1 X-40.600 Y36.877 E36.30526
G1 X-41.470 Y36.692 E36.38619
G1 X-41.976 Y36.556 E36.43378
G1 X-42.822 Y36.281 E36.51466
G1 X-43.310 Y36.094 E36.56225
G1 X-44.123 Y35.732 E36.64316
G1 X-44.590 Y35.494 E36.69077
G1 X-45.360 Y35.049 E36.77166
G1 X-45.799 Y34.764 E36.81924
G1 X-46.518 Y34.242 E36.90005
G1 X-46.925 Y33.913 E36.94765
G1 X-47.587 Y33.316 E37.02869
G1 X-47.957 Y32.946 E37.07627
G1 X-48.552 Y32.286 E37.15704
G1 X-48.881 Y31.879 E37.20463
G1 X-49.405 Y31.159 E37.28563
G1 X-49.690 Y30.720 E37.33322
G1 X-50.134 Y29.950 E37.41406
G1 X-50.372 Y29.483 E37.46165
G1 X-50.733 Y28.671 E37.54248
G1 X-50.921 Y28.183 E37.59007
G1 X-51.196 Y27.335 E37.67112
G1 X-51.332 Y26.830 E37.71870
G1 X-51.516 Y25.961 E37.79948
G1 X-51.598 Y25.444 E37.84707
G1 X-51.691 Y24.559 E37.92795
G1 X-51.730 Y23.674 E38.00854
G1 X-52.030 Y-7.909 E40.88048
G1 X-52.030 Y-23.988 E42.34252
G1 X-51.991 Y-24.955 E42.43058
G1 X-51.898 Y-25.840 E42.51146
G1 X-51.816 Y-26.358 E42.55909
G1 X-51.631 Y-27.226 E42.63986
G1 X-51.496 Y-27.732 E42.68745
G1 X-51.221 Y-28.579 E42.76846
G1 X-51.033 Y-29.068 E42.81608
G1 X-50.671 Y-29.880 E42.89691
G1 X-50.434 Y-30.347 E42.94450
G1 X-49.989 Y-31.116 E43.02532
G1 X-49.704 Y-31.555 E43.07294
G1 X-49.181 Y-32.276 E43.15391
G1 X-48.851 Y-32.683 E43.20153
G1 X-48.257 Y-33.343 E43.28230
G1 X-47.887 Y-33.713 E43.32989
G1 X-47.224 Y-34.309 E43.41092
G1 X-46.818 Y-34.639 E43.45852
G1 X-46.099 Y-35.161 E43.53931
G1 X-45.685 Y-35.430 E43.58413
G1 X-44.889 Y-35.891 E43.66781
G1 X-44.423 Y-36.129 E43.71542
G1 X-43.610 Y-36.491 E43.79632
G1 X-43.121 Y-36.678 E43.84391
G1 X-42.276 Y-36.953 E43.92478
G1 X-41.770 Y-37.088 E43.97236
G1 X-40.899 Y-37.274 E44.05330
G1 X-40.382 Y-37.355 E44.10090
G1 X-39.498 Y-37.448 E44.18177
G1 X-38.530 Y-37.487 E44.26981
G1 X37.914 Y-37.476 E51.22091
G1 X38.437 Y-37.448 E51.26853 F1800.000
G1 X39.322 Y-37.355 E51.34937
G1 X39.839 Y-37.274 E51.39696
G1 X40.709 Y-37.088 E51.47790
G1 X41.215 Y-36.953 E51.52549
G1 X42.061 Y-36.678 E51.60635
G1 X42.550 Y-36.491 E51.65398
G1 X43.362 Y-36.129 E51.73486
G1 X43.828 Y-35.891 E51.78245
G1 X44.599 Y-35.446 E51.86337
G1 X45.038 Y-35.161 E51.91095
G1 X45.757 Y-34.639 E51.99175
G1 X46.164 Y-34.309 E52.03935
G1 X46.826 Y-33.713 E52.12038
G1 X47.196 Y-33.343 E52.16797
G1 X47.790 Y-32.683 E52.24874
G1 X48.120 Y-32.276 E52.29634
G1 X48.643 Y-31.556 E52.37733
G1 X48.928 Y-31.117 E52.42492
G1 X49.373 Y-30.347 E52.50577
G1 X49.611 Y-29.880 E52.55336
G1 X49.972 Y-29.068 E52.63418
G1 X50.160 Y-28.580 E52.68178
G1 X50.435 Y-27.733 E52.76276
G1 X50.571 Y-27.226 E52.81041
G1 X50.755 Y-26.358 E52.89117
G1 X50.837 Y-25.841 E52.93876
G1 X50.930 Y-24.956 E53.01965
G1 X50.967 Y-24.176 E53.09068
G1 X52.028 Y23.800 E57.45415
G1 X51.991 Y24.955 E57.55927
G1 X51.898 Y25.840 E57.64017
G1 X51.816 Y26.358 E57.68780
G1 X51.631 Y27.226 E57.76856
G1 X51.496 Y27.732 E57.81615
G1 X51.220 Y28.580 E57.89720
G1 X51.033 Y29.068 E57.94479
G1 X50.671 Y29.880 E58.02562
G1 X50.434 Y30.347 E58.07320
G1 X49.989 Y31.116 E58.15402
G1 X49.704 Y31.556 E58.20164
G1 X49.181 Y32.276 E58.28264
G1 X48.851 Y32.683 E58.33023
G1 X48.257 Y33.343 E58.41100
G1 X47.887 Y33.713 E58.45858
G1 X47.224 Y34.309 E58.53962
G1 X46.817 Y34.639 E58.58724
G1 X46.099 Y35.161 E58.66802
G1 X45.659 Y35.446 E58.71565
G1 X44.889 Y35.891 E58.79652
G1 X44.423 Y36.129 E58.84411
G1 X43.610 Y36.491 E58.92502
G1 X43.121 Y36.678 E58.97261
G1 X42.275 Y36.953 E59.05349
G1 X41.770 Y37.088 E59.10107
G1 X40.899 Y37.274 E59.18201
G1 X40.382 Y37.355 E59.22961
G1 X39.498 Y37.448 E59.31047
G1 X38.530 Y37.487 E59.39852
G1 X8.530 Y37.487 E62.12641
G1 X-0.257 Y37.413 E62.92551
G1 X-0.312 Y36.788 F7800.000
G1 X-38.298 Y36.465 E66.37963 F1800.000
G1 X-39.166 Y36.428 E66.45865
G1 X-39.985 Y36.341 E66.53355
G1 X-40.502 Y36.260 E66.58115
G1 X-41.309 Y36.088 E66.65613
G1 X-41.814 Y35.953 E66.70372
G1 X-42.598 Y35.698 E66.77865
G1 X-43.086 Y35.510 E66.82624
G1 X-43.840 Y35.175 E66.90120
G1 X-44.306 Y34.937 E66.94881
G1 X-45.020 Y34.525 E67.02375
G1 X-45.459 Y34.240 E67.07134
G1 X-46.125 Y33.756 E67.14620
G1 X-46.532 Y33.427 E67.19380
G1 X-47.145 Y32.874 E67.26888
G1 X-47.515 Y32.504 E67.31647
G1 X-48.066 Y31.893 E67.39129
G1 X-48.395 Y31.486 E67.43889
G1 X-48.880 Y30.818 E67.51393
G1 X-49.165 Y30.379 E67.56152
G1 X-49.577 Y29.666 E67.63642
G1 X-49.815 Y29.200 E67.68401
G1 X-50.150 Y28.447 E67.75890
G1 X-50.337 Y27.959 E67.80649
G1 X-50.593 Y27.173 E67.88157
G1 X-50.728 Y26.668 E67.92916
G1 X-50.899 Y25.863 E68.00400
G1 X-50.981 Y25.346 E68.05159
G1 X-51.067 Y24.526 E68.12652
G1 X-51.105 Y23.668 E68.20468
G1 X-51.405 Y-7.915 E71.07660
G1 X-51.405 Y-23.988 E72.53811
G1 X-51.367 Y-24.923 E72.62319
G1 X-51.281 Y-25.742 E72.69813
G1 X-51.199 Y-26.260 E72.74576
G1 X-51.028 Y-27.065 E72.82059
G1 X-50.892 Y-27.570 E72.86818
G1 X-50.637 Y-28.355 E72.94324
G1 X-50.449 Y-28.844 E72.99085
G1 X-50.114 Y-29.597 E73.06574
G1 X-49.877 Y-30.063 E73.11333
G1 X-49.465 Y-30.776 E73.18821
G1 X-49.180 Y-31.215 E73.23582
G1 X-48.695 Y-31.883 E73.31084
G1 X-48.366 Y-32.290 E73.35845
G1 X-47.815 Y-32.901 E73.43329
G1 X-47.445 Y-33.271 E73.48088
G1 X-46.831 Y-33.824 E73.55596
G1 X-46.424 Y-34.153 E73.60355
G1 X-45.758 Y-34.637 E73.67841
G1 X-45.319 Y-34.922 E73.72600
G1 X-44.606 Y-35.334 E73.80096
G1 X-44.139 Y-35.572 E73.84856
G1 X-43.386 Y-35.907 E73.92352
G1 X-42.897 Y-36.095 E73.97111
G1 X-42.114 Y-36.349 E74.04603
G1 X-41.608 Y-36.485 E74.09362
G1 X-40.802 Y-36.656 E74.16860
G1 X-40.285 Y-36.738 E74.21620
G1 X-39.465 Y-36.824 E74.29113
G1 X-38.530 Y-36.863 E74.37619
G1 X37.882 Y-36.852 E81.32432
G1 X38.405 Y-36.824 E81.37193 F1800.000
G1 X39.224 Y-36.738 E81.44683
G1 X39.741 Y-36.656 E81.49443
G1 X40.548 Y-36.485 E81.56941
G1 X41.053 Y-36.349 E81.61700
G1 X41.837 Y-36.095 E81.69192
G1 X42.326 Y-35.907 E81.73954
G1 X43.078 Y-35.572 E81.81448
G1 X43.545 Y-35.334 E81.86207
G1 X44.259 Y-34.922 E81.93703
G1 X44.698 Y-34.637 E81.98462
G1 X45.364 Y-34.153 E82.05948
G1 X45.770 Y-33.824 E82.10707
G1 X46.384 Y-33.271 E82.18215
G1 X46.754 Y-32.901 E82.22974
G1 X47.305 Y-32.290 E82.30457
G1 X47.634 Y-31.883 E82.35217
G1 X48.119 Y-31.215 E82.42721
G1 X48.404 Y-30.776 E82.47479
G1 X48.816 Y-30.063 E82.54970
G1 X49.054 Y-29.597 E82.59729
G1 X49.389 Y-28.844 E82.67217
G1 X49.576 Y-28.356 E82.71976
G1 X49.831 Y-27.571 E82.79479
G1 X49.967 Y-27.065 E82.84244
G1 X50.138 Y-26.260 E82.91727
G1 X50.220 Y-25.743 E82.96486
G1 X50.306 Y-24.923 E83.03980
G1 X50.342 Y-24.162 E83.10910
G1 X51.403 Y23.814 E87.47258
G1 X51.367 Y24.923 E87.57346
G1 X51.281 Y25.742 E87.64841
G1 X51.199 Y26.260 E87.69604
G1 X51.028 Y27.065 E87.77086
G1 X50.892 Y27.570 E87.81845
G1 X50.637 Y28.356 E87.89355
G1 X50.449 Y28.844 E87.94114
G1 X50.114 Y29.597 E88.01602
G1 X49.877 Y30.063 E88.06361
G1 X49.465 Y30.776 E88.13848
G1 X49.180 Y31.215 E88.18610
G1 X48.695 Y31.883 E88.26114
G1 X48.366 Y32.290 E88.30873
G1 X47.815 Y32.901 E88.38356
G1 X47.445 Y33.271 E88.43115
G1 X46.831 Y33.824 E88.50623
G1 X46.424 Y34.153 E88.55385
G1 X45.758 Y34.637 E88.62869
G1 X45.319 Y34.922 E88.67631
G1 X44.605 Y35.334 E88.75124
G1 X44.139 Y35.572 E88.79883
G1 X43.386 Y35.907 E88.87379
G1 X42.897 Y36.095 E88.92138
G1 X42.114 Y36.349 E88.99631
G1 X41.608 Y36.485 E89.04390
G1 X40.802 Y36.656 E89.11888
G1 X40.285 Y36.738 E89.16648
G1 X39.465 Y36.824 E89.24140
G1 X38.530 Y36.863 E89.32647
G1 X8.530 Y36.863 E92.05436
G1 X-0.252 Y36.788 E92.85298
G1 X-0.307 Y36.163 F7800.000
G1 X-38.292 Y35.841 E96.30710 F1800.000
G1 X-39.133 Y35.804 E96.38363
G1 X-39.887 Y35.724 E96.45259
G1 X-40.404 Y35.642 E96.50018
G1 X-41.147 Y35.485 E96.56921
G1 X-41.652 Y35.349 E96.61680
G1 X-42.374 Y35.115 E96.68579
G1 X-42.863 Y34.927 E96.73338
G1 X-43.556 Y34.618 E96.80239
G1 X-44.022 Y34.381 E96.85000
G1 X-44.679 Y34.001 E96.91899
G1 X-45.118 Y33.716 E96.96657
G1 X-45.732 Y33.271 E97.03550
G1 X-46.138 Y32.941 E97.08310
G1 X-46.703 Y32.433 E97.15222
G1 X-47.073 Y32.063 E97.19981
G1 X-47.580 Y31.500 E97.26870
G1 X-47.910 Y31.093 E97.31629
G1 X-48.356 Y30.478 E97.38538
G1 X-48.641 Y30.039 E97.43297
G1 X-49.020 Y29.382 E97.50192
G1 X-49.258 Y28.916 E97.54951
G1 X-49.566 Y28.223 E97.61846
G1 X-49.754 Y27.735 E97.66605
G1 X-49.989 Y27.012 E97.73517
G1 X-50.124 Y26.506 E97.78276
G1 X-50.282 Y25.765 E97.85166
G1 X-50.364 Y25.248 E97.89925
G1 X-50.443 Y24.494 E97.96824
G1 X-50.480 Y23.662 E98.04397
G1 X-50.780 Y-7.921 E100.91586
G1 X-50.780 Y-23.988 E102.37685
G1 X-50.743 Y-24.890 E102.45895
G1 X-50.663 Y-25.645 E102.52795
G1 X-50.582 Y-26.162 E102.57557
G1 X-50.424 Y-26.903 E102.64446
G1 X-50.289 Y-27.409 E102.69206
G1 X-50.054 Y-28.131 E102.76115
G1 X-49.866 Y-28.620 E102.80877
G1 X-49.558 Y-29.313 E102.87771
G1 X-49.320 Y-29.779 E102.92530
G1 X-48.941 Y-30.436 E102.99424
G1 X-48.656 Y-30.875 E103.04185
G1 X-48.209 Y-31.489 E103.11091
G1 X-47.880 Y-31.896 E103.15853
G1 X-47.373 Y-32.459 E103.22743
G1 X-47.003 Y-32.829 E103.27501
G1 X-46.438 Y-33.338 E103.34413
G1 X-46.031 Y-33.667 E103.39173
G1 X-45.418 Y-34.113 E103.46064
G1 X-44.979 Y-34.398 E103.50824
G1 X-44.322 Y-34.778 E103.57725
G1 X-43.855 Y-35.015 E103.62485
G1 X-43.162 Y-35.324 E103.69385
G1 X-42.673 Y-35.511 E103.74145
G1 X-41.952 Y-35.746 E103.81042
G1 X-41.447 Y-35.881 E103.85801
G1 X-40.704 Y-36.039 E103.92705
G1 X-40.187 Y-36.121 E103.97464
G1 X-39.432 Y-36.200 E104.04362
G1 X-38.530 Y-36.238 E104.12572
G1 X37.849 Y-36.228 E111.07086
G1 X38.372 Y-36.200 E111.11848 F1800.000
G1 X39.126 Y-36.121 E111.18743
G1 X39.643 Y-36.039 E111.23503
G1 X40.386 Y-35.881 E111.30407
G1 X40.891 Y-35.746 E111.35165
G1 X41.613 Y-35.511 E111.42063
G1 X42.102 Y-35.324 E111.46824
G1 X42.795 Y-35.015 E111.53724
G1 X43.261 Y-34.778 E111.58483
G1 X43.918 Y-34.398 E111.65384
G1 X44.357 Y-34.113 E111.70143
G1 X44.970 Y-33.667 E111.77035
G1 X45.377 Y-33.338 E111.81794
G1 X45.942 Y-32.829 E111.88706
G1 X46.312 Y-32.459 E111.93465
G1 X46.819 Y-31.896 E112.00354
G1 X47.149 Y-31.490 E112.05114
G1 X47.595 Y-30.875 E112.12022
G1 X47.880 Y-30.436 E112.16781
G1 X48.259 Y-29.779 E112.23677
G1 X48.497 Y-29.313 E112.28436
G1 X48.805 Y-28.620 E112.35330
G1 X48.993 Y-28.132 E112.40090
G1 X49.228 Y-27.409 E112.46997
G1 X49.363 Y-26.903 E112.51761
G1 X49.521 Y-26.162 E112.58650
G1 X49.603 Y-25.645 E112.63409
G1 X49.682 Y-24.890 E112.70308
G1 X49.718 Y-24.148 E112.77066
G1 X50.778 Y23.828 E117.13414
G1 X50.743 Y24.890 E117.23080
G1 X50.663 Y25.645 E117.29980
G1 X50.582 Y26.162 E117.34742
G1 X50.424 Y26.903 E117.41631
G1 X50.289 Y27.409 E117.46390
G1 X50.054 Y28.132 E117.53303
G1 X49.866 Y28.620 E117.58062
G1 X49.558 Y29.313 E117.64956
G1 X49.320 Y29.779 E117.69715
G1 X48.941 Y30.436 E117.76609
G1 X48.656 Y30.875 E117.81370
G1 X48.209 Y31.490 E117.88279
G1 X47.880 Y31.896 E117.93038
G1 X47.373 Y32.459 E117.99927
G1 X47.003 Y32.829 E118.04685
G1 X46.438 Y33.338 E118.11598
G1 X46.031 Y33.668 E118.16360
G1 X45.418 Y34.113 E118.23250
G1 X44.979 Y34.398 E118.28012
G1 X44.322 Y34.778 E118.34910
G1 X43.855 Y35.015 E118.39669
G1 X43.162 Y35.324 E118.46570
G1 X42.674 Y35.511 E118.51329
G1 X41.952 Y35.746 E118.58228
G1 X41.446 Y35.881 E118.62986
G1 X40.704 Y36.039 E118.69889
G1 X40.187 Y36.121 E118.74649
G1 X39.432 Y36.200 E118.81547
G1 X38.530 Y36.238 E118.89756
G1 X8.530 Y36.238 E121.62545
G1 X-0.247 Y36.163 E122.42359
G1 X-0.302 Y35.538 F7800.000
G1 X-38.287 Y35.216 E125.87771 F1800.000
G1 X-39.100 Y35.179 E125.95175
G1 X-39.790 Y35.107 E126.01476
G1 X-40.307 Y35.025 E126.06236
G1 X-40.985 Y34.881 E126.12544
G1 X-41.491 Y34.745 E126.17302
G1 X-42.150 Y34.531 E126.23607
G1 X-42.639 Y34.344 E126.28365
G1 X-43.272 Y34.062 E126.34672
G1 X-43.739 Y33.824 E126.39432
G1 X-44.339 Y33.477 E126.45737
G1 X-44.778 Y33.192 E126.50495
