; generated by Slic3r 1.2.9 on 2016-10-07 at 17:21:38

; external perimeters extrusion width = 0.40mm
; perimeters extrusion width = 0.48mm
; infill extrusion width = 0.48mm
; solid infill extrusion width = 0.48mm
; top infill extrusion width = 0.48mm

M107
M104 S210 ; set temperature
G28 ; home all axes
G1 Z5 F5000 ; lift nozzle

M109 S210 ; wait for temperature to be reached
G21 ; set units to millimeters
G90 ; use absolute coordinates
M82 ; use absolute distances for extrusion
G92 E0
G1 Z0.350 F7800.000
G1 E-2.00000 F2400.00000
G92 E0
G1 X20.695 Y-10.956 F7800.000
G1 E2.00000 F2400.00000
G1 X27.260 Y1.444 E3.27582 F1800.000
G1 X27.611 Y2.130 E3.34591
G1 X28.000 Y3.003 E3.43275
G1 X28.299 Y3.790 E3.50936
G1 X33.299 Y17.790 E4.86112
G1 X33.520 Y18.497 E4.92841
G1 X33.682 Y19.103 E4.98551
G1 X33.881 Y20.039 E5.07250
G1 X33.979 Y20.659 E5.12961
G1 X34.079 Y21.608 E5.21635
G1 X34.112 Y22.235 E5.27346
G1 X34.112 Y23.191 E5.36039
G1 X34.079 Y23.818 E5.41750
G1 X33.979 Y24.767 E5.50424
G1 X33.881 Y25.387 E5.56134
G1 X33.682 Y26.323 E5.64833
G1 X33.520 Y26.930 E5.70545
G1 X33.225 Y27.836 E5.79212
G1 X33.000 Y28.423 E5.84924
G1 X32.611 Y29.296 E5.93611
G1 X32.326 Y29.855 E5.99321
G1 X31.848 Y30.683 E6.08016
G1 X31.506 Y31.210 E6.13727
G1 X30.945 Y31.982 E6.22402
G1 X30.550 Y32.470 E6.28113
G1 X29.911 Y33.180 E6.36799
G1 X29.467 Y33.624 E6.42511
G1 X28.757 Y34.263 E6.51199
G1 X28.269 Y34.659 E6.56909
G1 X27.497 Y35.219 E6.65585
G1 X26.970 Y35.561 E6.71296
G1 X26.142 Y36.039 E6.79988
G1 X25.583 Y36.325 E6.85699
G1 X24.710 Y36.713 E6.94388
G1 X24.123 Y36.938 E7.00100
G1 X23.216 Y37.233 E7.08769
G1 X22.610 Y37.395 E7.14480
G1 X21.674 Y37.594 E7.23177
G1 X21.054 Y37.692 E7.28888
G1 X20.105 Y37.792 E7.37562
G1 X19.000 Y37.838 E7.47620
G1 X-19.478 Y37.825 E10.97498
G1 X-20.105 Y37.792 E11.03209
G1 X-21.054 Y37.692 E11.11883
G1 X-21.674 Y37.594 E11.17594
G1 X-22.610 Y37.395 E11.26291
G1 X-23.216 Y37.233 E11.32002
G1 X-24.123 Y36.938 E11.40671
G1 X-24.709 Y36.713 E11.46382
G1 X-25.583 Y36.325 E11.55072
G1 X-26.142 Y36.039 E11.60783
G1 X-26.970 Y35.561 E11.69475
G1 X-27.497 Y35.219 E11.75186
G1 X-28.269 Y34.659 E11.83862
G1 X-28.757 Y34.263 E11.89572
G1 X-29.467 Y33.624 E11.98261
G1 X-29.911 Y33.180 E12.03971
G1 X-30.550 Y32.470 E12.12657
G1 X-30.945 Y31.982 E12.18368
G1 X-31.506 Y31.210 E12.27044
G1 X-31.848 Y30.683 E12.32755
G1 X-32.326 Y29.855 E12.41449
G1 X-32.611 Y29.296 E12.47160
G1 X-33.000 Y28.423 E12.55848
G1 X-33.225 Y27.836 E12.61559
G1 X-33.520 Y26.930 E12.70227
G1 X-33.682 Y26.323 E12.75939
G1 X-33.881 Y25.387 E12.84636
G1 X-33.979 Y24.767 E12.90348
G1 X-34.079 Y23.818 E12.99022
G1 X-34.112 Y23.191 E13.04734
G1 X-34.112 Y22.235 E13.13425
G1 X-34.079 Y21.608 E13.19136
G1 X-33.979 Y20.659 E13.27810
G1 X-33.881 Y20.039 E13.33521
G1 X-33.682 Y19.103 E13.42219
G1 X-33.520 Y18.496 E13.47931
G1 X-33.299 Y17.790 E13.54659
G1 X-28.299 Y3.790 E14.89835
G1 X-16.924 Y-27.670 E17.94024
G1 X-16.637 Y-28.424 E18.01359
G1 X-16.249 Y-29.296 E18.10043
G1 X-15.976 Y-29.831 E18.15504
G1 X-15.486 Y-30.683 E18.24438
G1 X-15.144 Y-31.210 E18.30150
G1 X-14.582 Y-31.982 E18.38833
G1 X-14.187 Y-32.470 E18.44547
G1 X-13.548 Y-33.180 E18.53228
G1 X-13.104 Y-33.624 E18.58939
G1 X-12.395 Y-34.263 E18.67619
G1 X-11.906 Y-34.658 E18.73334
G1 X-11.134 Y-35.220 E18.82019
G1 X-10.607 Y-35.562 E18.87729
G1 X-9.780 Y-36.039 E18.96413
G1 X-9.220 Y-36.324 E19.02124
G1 X-8.348 Y-36.713 E19.10804
G1 X-7.761 Y-36.938 E19.16519
G1 X-6.853 Y-37.233 E19.25200
G1 X-6.246 Y-37.396 E19.30914
G1 X-5.312 Y-37.594 E19.39599
G1 X-4.692 Y-37.692 E19.45310
G1 X-3.742 Y-37.792 E19.53991
G1 X-3.115 Y-37.825 E19.59705
G1 X-2.132 Y-37.824 E19.68638
G1 X-1.533 Y-37.792 E19.74099 F1800.000
G1 X-0.583 Y-37.692 E19.82783
G1 X0.037 Y-37.594 E19.88494
G1 X0.971 Y-37.396 E19.97176
G1 X1.578 Y-37.233 E20.02890
G1 X2.487 Y-36.938 E20.11575
G1 X3.073 Y-36.713 E20.17285
G1 X3.945 Y-36.324 E20.25967
G1 X4.505 Y-36.039 E20.31680
G1 X5.332 Y-35.562 E20.40362
G1 X5.859 Y-35.220 E20.46075
G1 X6.632 Y-34.658 E20.54759
G1 X7.120 Y-34.263 E20.60470
G1 X7.829 Y-33.624 E20.69154
G1 X8.274 Y-33.180 E20.74865
G1 X8.913 Y-32.470 E20.83550
G1 X9.308 Y-31.982 E20.89261
G1 X9.869 Y-31.209 E20.97945
G1 X10.211 Y-30.683 E21.03655
G1 X10.623 Y-29.982 E21.11042
G1 X20.667 Y-11.009 E23.06248
G1 X20.143 Y-10.664 F7800.000
G1 X26.708 Y1.736 E24.33830 F1800.000
G1 X27.054 Y2.414 E24.40750
G1 X27.416 Y3.227 E24.48840
G1 X27.711 Y4.000 E24.56367
G1 X32.711 Y18.000 E25.91543
G1 X32.916 Y18.658 E25.97811
G1 X33.079 Y19.265 E26.03521
G1 X33.264 Y20.137 E26.11624
G1 X33.362 Y20.757 E26.17336
G1 X33.455 Y21.641 E26.25415
G1 X33.488 Y22.268 E26.31126
G1 X33.488 Y23.158 E26.39224
G1 X33.455 Y23.786 E26.44935
G1 X33.362 Y24.669 E26.53015
G1 X33.264 Y25.290 E26.58725
G1 X33.079 Y26.161 E26.66828
G1 X32.916 Y26.768 E26.72540
G1 X32.642 Y27.613 E26.80614
G1 X32.417 Y28.199 E26.86325
G1 X32.055 Y29.012 E26.94417
G1 X31.770 Y29.572 E27.00128
G1 X31.324 Y30.343 E27.08227
G1 X30.982 Y30.870 E27.13938
G1 X30.460 Y31.589 E27.22019
G1 X30.064 Y32.077 E27.27730
G1 X29.469 Y32.738 E27.35821
G1 X29.025 Y33.182 E27.41533
G1 X28.363 Y33.778 E27.49626
G1 X27.875 Y34.173 E27.55336
G1 X27.156 Y34.695 E27.63418
G1 X26.630 Y35.037 E27.69129
G1 X25.859 Y35.483 E27.77226
G1 X25.299 Y35.768 E27.82936
G1 X24.486 Y36.130 E27.91030
G1 X23.899 Y36.355 E27.96742
G1 X23.055 Y36.629 E28.04818
G1 X22.448 Y36.792 E28.10528
G1 X21.576 Y36.977 E28.18630
G1 X20.956 Y37.075 E28.24341
G1 X20.072 Y37.168 E28.32421
G1 X19.000 Y37.213 E28.42181
G1 X-19.445 Y37.201 E31.91762
G1 X-20.072 Y37.168 E31.97473
G1 X-20.956 Y37.075 E32.05553
G1 X-21.576 Y36.977 E32.11264
G1 X-22.448 Y36.792 E32.19365
G1 X-23.055 Y36.629 E32.25076
G1 X-23.899 Y36.355 E32.33151
G1 X-24.486 Y36.130 E32.38862
G1 X-25.299 Y35.768 E32.46957
G1 X-25.859 Y35.483 E32.52668
G1 X-26.630 Y35.037 E32.60765
G1 X-27.156 Y34.695 E32.66476
G1 X-27.875 Y34.173 E32.74557
G1 X-28.363 Y33.778 E32.80268
G1 X-29.025 Y33.182 E32.88361
G1 X-29.469 Y32.738 E32.94072
G1 X-30.064 Y32.077 E33.02163
G1 X-30.460 Y31.589 E33.07874
G1 X-30.982 Y30.870 E33.15955
G1 X-31.324 Y30.343 E33.21666
G1 X-31.770 Y29.572 E33.29765
G1 X-32.055 Y29.012 E33.35476
G1 X-32.417 Y28.199 E33.43569
G1 X-32.642 Y27.612 E33.49280
G1 X-32.916 Y26.768 E33.57355
G1 X-33.079 Y26.161 E33.63066
G1 X-33.264 Y25.290 E33.71168
G1 X-33.362 Y24.669 E33.76879
G1 X-33.455 Y23.786 E33.84959
G1 X-33.488 Y23.158 E33.90671
G1 X-33.488 Y22.268 E33.98767
G1 X-33.455 Y21.641 E34.04478
G1 X-33.362 Y20.757 E34.12558
G1 X-33.264 Y20.137 E34.18269
G1 X-33.079 Y19.265 E34.26372
G1 X-32.916 Y18.658 E34.32084
G1 X-32.711 Y18.000 E34.38350
G1 X-27.711 Y4.000 E35.73527
G1 X-16.337 Y-27.457 E38.77693
G1 X-16.054 Y-28.200 E38.84917
G1 X-15.692 Y-29.012 E38.93007
G1 X-15.419 Y-29.547 E38.98467
G1 X-14.962 Y-30.342 E39.06807
G1 X-14.620 Y-30.869 E39.12518
G1 X-14.097 Y-31.589 E39.20607
G1 X-13.701 Y-32.077 E39.26321
G1 X-13.106 Y-32.738 E39.34407
G1 X-12.662 Y-33.182 E39.40118
G1 X-12.001 Y-33.777 E39.48204
G1 X-11.513 Y-34.173 E39.53918
G1 X-10.793 Y-34.696 E39.62008
G1 X-10.266 Y-35.038 E39.67719
G1 X-9.472 Y-35.495 E39.76058
G1 X-8.936 Y-35.768 E39.81519
G1 X-8.124 Y-36.129 E39.89604
G1 X-7.537 Y-36.355 E39.95319
G1 X-6.692 Y-36.629 E40.03405
G1 X-6.085 Y-36.792 E40.09119
G1 X-5.214 Y-36.977 E40.17209
G1 X-4.594 Y-37.075 E40.22920
G1 X-3.710 Y-37.168 E40.31007
G1 X-3.082 Y-37.201 E40.36720
G1 X-2.165 Y-37.200 E40.45059
G1 X-1.565 Y-37.168 E40.50520 F1800.000
G1 X-0.681 Y-37.075 E40.58609
G1 X-0.060 Y-36.977 E40.64320
G1 X0.810 Y-36.792 E40.72407
G1 X1.417 Y-36.629 E40.78121
G1 X2.263 Y-36.355 E40.86211
G1 X2.849 Y-36.129 E40.91922
G1 X3.662 Y-35.768 E41.00009
G1 X4.221 Y-35.482 E41.05721
G1 X4.992 Y-35.038 E41.13809
G1 X5.519 Y-34.696 E41.19522
G1 X6.238 Y-34.173 E41.27612
G1 X6.726 Y-33.777 E41.33322
G1 X7.388 Y-33.182 E41.41412
G1 X7.832 Y-32.738 E41.47123
G1 X8.427 Y-32.077 E41.55212
G1 X8.822 Y-31.589 E41.60924
G1 X9.345 Y-30.869 E41.69013
G1 X9.687 Y-30.342 E41.74723
G1 X10.071 Y-29.690 E41.81604
G1 X20.115 Y-10.717 E43.76810
G1 X19.591 Y-10.372 F7800.000
G1 X26.156 Y2.029 E45.04392 F1800.000
G1 X26.498 Y2.698 E45.11223
G1 X26.833 Y3.451 E45.18718
G1 X27.122 Y4.211 E45.26111
G1 X32.122 Y18.211 E46.61288
G1 X32.312 Y18.820 E46.67095
G1 X32.475 Y19.427 E46.72805
G1 X32.647 Y20.234 E46.80313
G1 X32.745 Y20.855 E46.86024
G1 X32.831 Y21.673 E46.93510
G1 X32.864 Y22.301 E46.99221
G1 X32.864 Y23.126 E47.06722
G1 X32.831 Y23.753 E47.12434
G1 X32.745 Y24.572 E47.19920
G1 X32.647 Y25.192 E47.25630
G1 X32.475 Y26.000 E47.33137
G1 X32.312 Y26.606 E47.38849
G1 X32.058 Y27.389 E47.46329
G1 X31.833 Y27.975 E47.52041
G1 X31.498 Y28.728 E47.59538
G1 X31.213 Y29.288 E47.65248
G1 X30.800 Y30.003 E47.72752
G1 X30.458 Y30.529 E47.78463
G1 X29.974 Y31.195 E47.85950
G1 X29.579 Y31.683 E47.91661
G1 X29.027 Y32.296 E47.99157
G1 X28.583 Y32.740 E48.04869
G1 X27.970 Y33.292 E48.12367
G1 X27.482 Y33.687 E48.18077
G1 X26.816 Y34.171 E48.25565
G1 X26.289 Y34.513 E48.31275
G1 X25.575 Y34.926 E48.38777
G1 X25.015 Y35.211 E48.44488
G1 X24.262 Y35.546 E48.51987
G1 X23.675 Y35.771 E48.57698
G1 X22.893 Y36.026 E48.65180
G1 X22.286 Y36.188 E48.70891
G1 X21.479 Y36.360 E48.78397
G1 X20.858 Y36.458 E48.84108
G1 X20.040 Y36.544 E48.91594
G1 X19.000 Y36.588 E49.01056
G1 X-19.413 Y36.577 E52.50339
G1 X-20.040 Y36.544 E52.56050
G1 X-20.858 Y36.458 E52.63536
G1 X-21.479 Y36.360 E52.69247
G1 X-22.286 Y36.188 E52.76753
G1 X-22.893 Y36.026 E52.82464
G1 X-23.675 Y35.771 E52.89946
G1 X-24.262 Y35.546 E52.95656
G1 X-25.015 Y35.211 E53.03156
G1 X-25.575 Y34.926 E53.08867
G1 X-26.289 Y34.513 E53.16368
G1 X-26.816 Y34.171 E53.22079
G1 X-27.482 Y33.687 E53.29567
G1 X-27.970 Y33.292 E53.35277
G1 X-28.583 Y32.740 E53.42776
G1 X-29.027 Y32.296 E53.48486
G1 X-29.579 Y31.683 E53.55983
G1 X-29.974 Y31.195 E53.61694
G1 X-30.458 Y30.529 E53.69181
G1 X-30.800 Y30.003 E53.74892
G1 X-31.213 Y29.288 E53.82395
G1 X-31.498 Y28.728 E53.88106
G1 X-31.833 Y27.975 E53.95604
G1 X-32.058 Y27.389 E54.01315
G1 X-32.312 Y26.606 E54.08796
G1 X-32.475 Y25.999 E54.14507
G1 X-32.647 Y25.192 E54.22013
G1 X-32.745 Y24.572 E54.27725
G1 X-32.831 Y23.753 E54.35211
G1 X-32.864 Y23.126 E54.40923
G1 X-32.864 Y22.301 E54.48423
G1 X-32.831 Y21.673 E54.54134
G1 X-32.745 Y20.855 E54.61620
G1 X-32.647 Y20.234 E54.67331
G1 X-32.475 Y19.427 E54.74838
G1 X-32.312 Y18.820 E54.80550
G1 X-32.122 Y18.211 E54.86356
G1 X-27.122 Y4.211 E56.21532
G1 X-15.749 Y-27.245 E59.25676
G1 X-15.470 Y-27.976 E59.32789
G1 X-15.135 Y-28.729 E59.40284
G1 X-14.862 Y-29.264 E59.45747
G1 X-14.438 Y-30.002 E59.53489
G1 X-14.096 Y-30.529 E59.59201
G1 X-13.611 Y-31.196 E59.66695
G1 X-13.216 Y-31.684 E59.72408
G1 X-12.664 Y-32.296 E59.79900
G1 X-12.220 Y-32.740 E59.85611
G1 X-11.608 Y-33.292 E59.93103
G1 X-11.120 Y-33.687 E59.98817
G1 X-10.453 Y-34.172 E60.06312
G1 X-9.926 Y-34.514 E60.12022
G1 X-9.188 Y-34.938 E60.19767
G1 X-8.653 Y-35.211 E60.25228
G1 X-7.900 Y-35.546 E60.32719
G1 X-7.313 Y-35.771 E60.38433
G1 X-6.530 Y-36.026 E60.45925
G1 X-5.923 Y-36.188 E60.51638
G1 X-5.117 Y-36.360 E60.59134
G1 X-4.496 Y-36.458 E60.64845
G1 X-3.677 Y-36.544 E60.72337
G1 X-3.049 Y-36.577 E60.78050
G1 X-2.198 Y-36.576 E60.85794
G1 X-1.598 Y-36.544 E60.91255 F1800.000
G1 X-0.778 Y-36.458 E60.98749
G1 X-0.158 Y-36.360 E61.04460
G1 X0.648 Y-36.188 E61.11953
G1 X1.255 Y-36.026 E61.17667
G1 X2.039 Y-35.771 E61.25162
G1 X2.625 Y-35.546 E61.30872
G1 X3.378 Y-35.211 E61.38365
G1 X3.938 Y-34.926 E61.44077
G1 X4.651 Y-34.514 E61.51570
G1 X5.178 Y-34.172 E61.57283
G1 X5.845 Y-33.687 E61.64778
G1 X6.333 Y-33.292 E61.70489
G1 X6.946 Y-32.740 E61.77984
G1 X7.390 Y-32.296 E61.83694
G1 X7.941 Y-31.684 E61.91189
G1 X8.337 Y-31.196 E61.96900
G1 X8.821 Y-30.529 E62.04395
G1 X9.163 Y-30.002 E62.10105
G1 X9.518 Y-29.398 E62.16481
G1 X19.563 Y-10.425 E64.11686
G1 X19.039 Y-10.079 F7800.000
G1 X25.603 Y2.321 E65.39268 F1800.000
G1 X25.941 Y2.981 E65.46011
G1 X26.250 Y3.675 E65.52911
G1 X26.534 Y4.421 E65.60170
G1 X31.534 Y18.421 E66.95347
G1 X31.871 Y19.589 E67.06401
G1 X32.030 Y20.332 E67.13313
G1 X32.128 Y20.952 E67.19024
G1 X32.207 Y21.706 E67.25916
G1 X32.240 Y22.333 E67.31627
G1 X32.240 Y23.093 E67.38533
G1 X32.207 Y23.720 E67.44244
G1 X32.128 Y24.474 E67.51136
G1 X32.030 Y25.094 E67.56847
G1 X31.871 Y25.838 E67.63759
G1 X31.709 Y26.444 E67.69470
G1 X31.475 Y27.165 E67.76357
G1 X31.250 Y27.751 E67.82068
G1 X30.941 Y28.445 E67.88970
G1 X30.656 Y29.004 E67.94681
G1 X30.276 Y29.662 E68.01589
G1 X29.934 Y30.189 E68.07300
G1 X29.488 Y30.802 E68.14193
G1 X29.093 Y31.290 E68.19904
G1 X28.585 Y31.854 E68.26805
G1 X28.141 Y32.298 E68.32517
G1 X27.577 Y32.806 E68.39419
G1 X27.089 Y33.202 E68.45130
G1 X26.476 Y33.647 E68.52023
G1 X25.949 Y33.989 E68.57734
G1 X25.291 Y34.369 E68.64641
G1 X24.732 Y34.654 E68.70351
G1 X24.038 Y34.963 E68.77255
G1 X23.452 Y35.188 E68.82967
G1 X22.731 Y35.422 E68.89855
G1 X22.124 Y35.585 E68.95565
G1 X21.381 Y35.743 E69.02476
G1 X20.761 Y35.841 E69.08186
G1 X20.007 Y35.920 E69.15079
G1 X19.000 Y35.963 E69.24243
G1 X-19.380 Y35.953 E72.73229
G1 X-20.007 Y35.920 E72.78939
G1 X-20.761 Y35.841 E72.85832
G1 X-21.381 Y35.743 E72.91542
G1 X-22.124 Y35.585 E72.98453
G1 X-22.731 Y35.422 E73.04163
G1 X-23.452 Y35.188 E73.11052
G1 X-24.038 Y34.963 E73.16762
G1 X-24.732 Y34.654 E73.23667
G1 X-25.291 Y34.369 E73.29377
G1 X-25.949 Y33.989 E73.36284
G1 X-26.476 Y33.647 E73.41995
G1 X-27.089 Y33.202 E73.48888
G1 X-27.577 Y32.806 E73.54598
G1 X-28.141 Y32.298 E73.61502
G1 X-28.585 Y31.854 E73.67213
G1 X-29.093 Y31.290 E73.74114
G1 X-29.488 Y30.802 E73.79825
G1 X-29.934 Y30.189 E73.86718
G1 X-30.276 Y29.662 E73.92429
G1 X-30.656 Y29.004 E73.99337
G1 X-30.941 Y28.445 E74.05048
G1 X-31.250 Y27.751 E74.11951
G1 X-31.475 Y27.165 E74.17662
G1 X-31.709 Y26.444 E74.24549
G1 X-31.871 Y25.838 E74.30260
G1 X-32.030 Y25.094 E74.37171
G1 X-32.128 Y24.474 E74.42882
G1 X-32.207 Y23.720 E74.49774
G1 X-32.240 Y23.093 E74.55486
G1 X-32.240 Y22.333 E74.62391
G1 X-32.207 Y21.706 E74.68102
G1 X-32.128 Y20.952 E74.74994
G1 X-32.030 Y20.332 E74.80705
G1 X-31.871 Y19.589 E74.87616
G1 X-31.534 Y18.421 E74.98671
G1 X-26.534 Y4.421 E76.33848
G1 X-15.161 Y-27.032 E79.37969
G1 X-14.887 Y-27.752 E79.44971
G1 X-14.578 Y-28.445 E79.51871
G1 X-14.306 Y-28.980 E79.57332
G1 X-13.914 Y-29.662 E79.64481
G1 X-13.572 Y-30.188 E79.70193
G1 X-13.126 Y-30.802 E79.77092
G1 X-12.730 Y-31.291 E79.82806
G1 X-12.223 Y-31.854 E79.89703
G1 X-11.778 Y-32.298 E79.95414
G1 X-11.215 Y-32.806 E80.02311
G1 X-10.726 Y-33.201 E80.08025
G1 X-10.113 Y-33.647 E80.14925
G1 X-9.586 Y-33.990 E80.20635
G1 X-8.929 Y-34.369 E80.27535
G1 X-8.369 Y-34.654 E80.33246
G1 X-7.676 Y-34.963 E80.40143
G1 X-7.090 Y-35.188 E80.45857
G1 X-6.368 Y-35.422 E80.52754
G1 X-5.761 Y-35.585 E80.58468
G1 X-5.019 Y-35.743 E80.65368
G1 X-4.399 Y-35.841 E80.71079
G1 X-3.644 Y-35.920 E80.77977
G1 X-3.017 Y-35.953 E80.83690
G1 X-2.230 Y-35.952 E80.90839
G1 X-1.631 Y-35.920 E80.96300 F1800.000
G1 X-0.876 Y-35.841 E81.03200
G1 X-0.256 Y-35.743 E81.08910
G1 X0.486 Y-35.585 E81.15808
G1 X1.093 Y-35.422 E81.21522
G1 X1.815 Y-35.188 E81.28422
G1 X2.401 Y-34.963 E81.34133
G1 X3.094 Y-34.654 E81.41031
G1 X3.654 Y-34.369 E81.46743
G1 X4.311 Y-33.990 E81.53642
G1 X4.838 Y-33.647 E81.59354
G1 X5.452 Y-33.201 E81.66254
G1 X5.940 Y-32.806 E81.71965
G1 X6.504 Y-32.298 E81.78865
G1 X6.948 Y-31.854 E81.84576
G1 X7.456 Y-31.290 E81.91476
G1 X7.851 Y-30.802 E81.97187
G1 X8.297 Y-30.188 E82.04087
G1 X8.639 Y-29.662 E82.09798
G1 X8.966 Y-29.105 E82.15667
G1 X19.011 Y-10.132 E84.10873
G1 X18.486 Y-9.787 F7800.000
G1 X25.051 Y2.613 E85.38454 F1800.000
G1 X25.384 Y3.265 E85.45108
G1 X25.666 Y3.899 E85.51413
G1 X25.945 Y4.631 E85.58539
G1 X30.945 Y18.631 E86.93716
G1 X31.268 Y19.750 E87.04310
G1 X31.412 Y20.430 E87.10626
G1 X31.511 Y21.050 E87.16337
G1 X31.583 Y21.739 E87.22634
G1 X31.616 Y22.366 E87.28345
G1 X31.616 Y23.060 E87.34656
G1 X31.583 Y23.687 E87.40368
G1 X31.511 Y24.376 E87.46666
G1 X31.412 Y24.997 E87.52376
G1 X31.268 Y25.676 E87.58692
G1 X31.105 Y26.283 E87.64403
G1 X30.891 Y26.941 E87.70696
