; generated by Slic3r 1.2.9 on 2016-10-08 at 09:18:25

; external perimeters extrusion width = 0.40mm
; perimeters extrusion width = 0.48mm
; infill extrusion width = 0.48mm
; solid infill extrusion width = 0.48mm
; top infill extrusion width = 0.48mm

M107
M104 S210 ; set temperature
G28 ; home all axes
G1 Z5 F5000 ; lift nozzle

M109 S210 ; wait for temperature to be reached
G21 ; set units to millimeters
G90 ; use absolute coordinates
M82 ; use absolute distances for extrusion
G92 E0
G1 Z0.350 F7800.000
G1 E-2.00000 F2400.00000
G92 E0
G1 X-20.680 Y0.000 F7800.000
G1 E2.00000 F2400.00000
G1 X-20.680 Y-17.994 E3.63620 F1800.000
G1 X-20.282 Y-20.944 E3.90685
G1 X-19.476 Y-23.029 E4.11012
G1 X-12.364 Y-37.041 E5.53891
G1 X-10.674 Y-39.491 E5.80956
G1 X-8.395 Y-41.405 E6.08021
G1 X-5.690 Y-42.646 E6.35087
G1 X-2.444 Y-43.130 E6.64922
G1 X18.556 Y-43.130 E8.55874
G1 X21.506 Y-42.732 E8.82939
G1 X24.244 Y-41.566 E9.10004 F1800.000
G1 X26.575 Y-39.715 E9.37070
G1 X28.333 Y-37.313 E9.64135
G1 X29.390 Y-34.531 E9.91200
G1 X29.680 Y-32.006 E10.14309
G1 X29.680 Y17.994 E14.68957
G1 X29.282 Y20.944 E14.96022
G1 X28.476 Y23.029 E15.16349
G1 X21.364 Y37.041 E16.59228
G1 X19.674 Y39.491 E16.86293
G1 X17.395 Y41.405 E17.13358
G1 X14.690 Y42.646 E17.40424
G1 X11.444 Y43.130 E17.70259
G1 X-9.556 Y43.130 E19.61211
G1 X-12.505 Y42.732 E19.88276
G1 X-15.244 Y41.566 E20.15341
G1 X-17.575 Y39.715 E20.42407
G1 X-19.333 Y37.313 E20.69472
G1 X-20.390 Y34.531 E20.96537
G1 X-20.680 Y32.006 E21.19646
G1 X-20.680 Y0.060 E24.10128
G1 X-20.055 Y0.000 F7800.000
G1 X-20.055 Y-17.994 E25.73748 F1800.000
G1 X-19.657 Y-20.858 E26.00039
G1 X-18.918 Y-22.746 E26.18475
G1 X-11.807 Y-36.758 E27.61354
G1 X-10.156 Y-39.131 E27.87645
G1 X-7.920 Y-40.964 E28.13935
G1 X-5.269 Y-42.118 E28.40226
G1 X-2.444 Y-42.505 E28.66150
G1 X18.556 Y-42.505 E30.57102
G1 X21.420 Y-42.107 E30.83393
G1 X24.066 Y-40.943 E31.09683 F1800.000
G1 X26.295 Y-39.101 E31.35974
G1 X27.937 Y-36.722 E31.62264
G1 X28.867 Y-33.984 E31.88555
G1 X29.055 Y-32.006 E32.06623
G1 X29.055 Y17.994 E36.61271
G1 X28.657 Y20.858 E36.87562
G1 X27.918 Y22.746 E37.05998
G1 X20.807 Y36.758 E38.48877
G1 X19.156 Y39.131 E38.75167
G1 X16.920 Y40.964 E39.01458
G1 X14.269 Y42.118 E39.27748
G1 X11.444 Y42.505 E39.53672
G1 X-9.556 Y42.505 E41.44625
G1 X-12.420 Y42.107 E41.70915
G1 X-15.066 Y40.943 E41.97206
G1 X-17.295 Y39.101 E42.23496
G1 X-18.937 Y36.722 E42.49787
G1 X-19.867 Y33.984 E42.76077
G1 X-20.055 Y32.006 E42.94146
G1 X-20.055 Y0.060 E45.84628
G1 X-19.430 Y0.000 F7800.000
G1 X-19.430 Y-17.994 E47.48248 F1800.000
G1 X-19.032 Y-20.769 E47.73740
G1 X-18.361 Y-22.463 E47.90309
G1 X-11.250 Y-36.475 E49.33187
G1 X-9.639 Y-38.770 E49.58680
G1 X-7.448 Y-40.519 E49.84172
G1 X-4.854 Y-41.582 E50.09664
G1 X-2.444 Y-41.881 E50.31743
G1 X18.556 Y-41.881 E52.22695
G1 X21.331 Y-41.483 E52.48187
G1 X23.882 Y-40.321 E52.73680 F1800.000
G1 X26.004 Y-38.489 E52.99172
G1 X27.526 Y-36.134 E53.24664
G1 X28.325 Y-33.447 E53.50157
G1 X28.430 Y-32.006 E53.63293
G1 X28.430 Y17.994 E58.17941
G1 X28.032 Y20.769 E58.43433
G1 X27.361 Y22.463 E58.60002
G1 X20.250 Y36.475 E60.02881
G1 X18.639 Y38.770 E60.28373
G1 X16.448 Y40.519 E60.53865
G1 X13.854 Y41.582 E60.79357
G1 X11.444 Y41.881 E61.01436
G1 X-9.556 Y41.881 E62.92388
G1 X-12.331 Y41.483 E63.17881
G1 X-14.882 Y40.321 E63.43373
G1 X-17.004 Y38.489 E63.68865
G1 X-18.526 Y36.134 E63.94357
G1 X-19.325 Y33.447 E64.19850
G1 X-19.430 Y32.006 E64.32986
G1 X-19.430 Y0.060 E67.23468
G1 X-18.806 Y0.000 F7800.000
G1 X-18.806 Y-17.994 E68.87088 F1800.000
G1 X-18.408 Y-20.678 E69.11757
G1 X-17.804 Y-22.180 E69.26483
G1 X-10.692 Y-36.192 E70.69361
G1 X-9.123 Y-38.405 E70.94029
G1 X-6.979 Y-40.068 E71.18698
G1 X-4.445 Y-41.037 E71.43366
G1 X-2.444 Y-41.256 E71.61671
G1 X18.556 Y-41.256 E73.52623
G1 X21.239 Y-40.858 E73.77291
G1 X23.692 Y-39.699 E74.01960 F1800.000
G1 X25.703 Y-37.877 E74.26628
G1 X27.099 Y-35.551 E74.51296
G1 X27.806 Y-32.006 E74.84169
G1 X27.806 Y17.994 E79.38817
G1 X27.408 Y20.678 E79.63486
G1 X26.804 Y22.180 E79.78211
G1 X19.692 Y36.192 E81.21090
G1 X18.123 Y38.405 E81.45758
G1 X15.979 Y40.068 E81.70426
G1 X13.445 Y41.037 E81.95095
G1 X11.444 Y41.256 E82.13400
G1 X-9.556 Y41.256 E84.04352
G1 X-12.239 Y40.858 E84.29020
G1 X-14.692 Y39.699 E84.53688
G1 X-16.703 Y37.877 E84.78357
G1 X-18.099 Y35.551 E85.03025
G1 X-18.806 Y32.006 E85.35898
G1 X-18.806 Y0.060 E88.26381
G1 X-18.181 Y0.000 F7800.000
G1 X-18.181 Y-17.994 E89.90001 F1800.000
G1 X-17.783 Y-20.583 E90.13816
G1 X-17.247 Y-21.898 E90.26727
G1 X-10.135 Y-35.909 E91.69606
G1 X-8.609 Y-38.038 E91.93421
G1 X-6.514 Y-39.610 E92.17237
G1 X-4.044 Y-40.481 E92.41053
G1 X-2.444 Y-40.631 E92.55664
G1 X18.556 Y-40.631 E94.46616
G1 X21.145 Y-40.233 E94.70432
G1 X23.495 Y-39.077 E94.94248 F1800.000
G1 X25.389 Y-37.268 E95.18064
G1 X26.654 Y-34.975 E95.41879
G1 X27.181 Y-32.006 E95.69296
G1 X27.181 Y17.994 E100.23944
G1 X26.783 Y20.583 E100.47759
G1 X26.247 Y21.898 E100.60670
G1 X19.135 Y35.909 E102.03549
G1 X17.609 Y38.038 E102.27364
G1 X15.514 Y39.610 E102.51180
G1 X13.044 Y40.481 E102.74996
G1 X11.444 Y40.631 E102.89607
G1 X-9.556 Y40.631 E104.80560
G1 X-12.145 Y40.233 E105.04375
G1 X-14.495 Y39.077 E105.28191
G1 X-16.389 Y37.268 E105.52007
G1 X-17.654 Y34.975 E105.75823
G1 X-18.181 Y32.006 E106.03239
G1 X-18.181 Y0.060 E108.93721
G1 E106.93721 F2400.00000
G92 E0
G1 X-16.117 Y0.000 F7800.000
G1 E2.00000 F2400.00000
G1 X-16.117 Y-20.712 E3.88333 F1800.000
G1 X-12.274 Y-24.555 E4.37758
G1 X-9.372 Y-24.555 E4.64145
G1 X-9.006 Y-24.922 E4.68853
G1 X-9.006 Y-34.724 E5.57983
G1 X-5.162 Y-38.567 E6.07408
G1 X21.274 Y-38.567 E8.47786
G1 X25.117 Y-34.724 E8.97212
G1 X25.117 Y20.712 E14.01285 F1800.000
G1 X21.274 Y24.555 E14.50711
G1 X18.372 Y24.555 E14.77098
G1 X18.006 Y24.922 E14.81805
G1 X18.006 Y34.724 E15.70935
G1 X14.162 Y38.567 E16.20361
G1 X-12.274 Y38.567 E18.60738
G1 X-16.117 Y34.724 E19.10164
G1 X-16.117 Y0.060 E22.25359
G1 X-15.492 Y0.000 F7800.000
G1 X-15.492 Y-20.453 E24.11338 F1800.000
G1 X-12.015 Y-23.931 E24.56057
G1 X-8.747 Y-23.931 E24.85772
G1 X-8.381 Y-24.297 E24.90479
G1 X-8.381 Y-34.465 E25.82938
G1 X-4.903 Y-37.942 E26.27656
G1 X21.015 Y-37.942 E28.63327
G1 X24.492 Y-34.465 E29.08045 F1800.000
G1 X24.492 Y20.453 E34.07411
G1 X21.015 Y23.931 E34.52130
G1 X17.747 Y23.931 E34.81845
G1 X17.381 Y24.297 E34.86553
G1 X17.381 Y34.465 E35.79011
G1 X13.903 Y37.942 E36.23730
G1 X-12.015 Y37.942 E38.59400
G1 X-15.492 Y34.465 E39.04118
G1 X-15.492 Y0.060 E42.16960
G1 E40.16960 F2400.00000
G92 E0
G1 X-7.347 Y-23.306 F7800.000
G1 E2.00000 F2400.00000
G1 X-7.027 Y-24.077 E2.07593 F1800.000
G1 X-7.756 Y-24.806 E2.16962
G1 X-7.756 Y-34.206 E3.02438
G1 X-4.644 Y-37.317 E3.42449
G1 X20.756 Y-37.317 E5.73412
G1 X23.867 Y-34.206 E6.13423
G1 X23.867 Y20.194 E11.08082
G1 X20.756 Y23.306 E11.48093
G1 X16.347 Y23.306 E11.88185
G1 X16.027 Y24.077 E11.95778
G1 X16.756 Y24.806 E12.05146
G1 X16.756 Y34.206 E12.90622
G1 X13.644 Y37.317 E13.30633
G1 X-11.756 Y37.317 E15.61597
G1 X-14.867 Y34.206 E16.01608
G1 X-14.867 Y-20.194 E20.96267
G1 X-11.756 Y-23.306 E21.36278
G1 X-7.407 Y-23.306 E21.75824
G1 X-5.838 Y-22.681 F7800.000
G1 X-5.519 Y-23.452 E21.83417 F1800.000
G1 X-7.131 Y-25.065 E22.04150
G1 X-7.131 Y-33.947 E22.84918
G1 X-4.386 Y-36.693 E23.20222
G1 X20.497 Y-36.693 E25.46478
G1 X23.242 Y-33.947 E25.81782
G1 X23.242 Y19.935 E30.71734
G1 X20.497 Y22.681 E31.07038
G1 X14.838 Y22.681 E31.58493
G1 X14.519 Y23.452 E31.66087
G1 X16.131 Y25.065 E31.86819
G1 X16.131 Y33.947 E32.67588
G1 X13.386 Y36.693 E33.02892
G1 X-11.497 Y36.693 E35.29148
G1 X-14.242 Y33.947 E35.64452
G1 X-14.242 Y-19.935 E40.54404
G1 X-11.497 Y-22.681 E40.89708
G1 X-5.898 Y-22.681 E41.40618
G1 X-4.330 Y-22.056 F7800.000
G1 X-4.010 Y-22.827 E41.48211 F1800.000
G1 X-6.506 Y-25.323 E41.80308
G1 X-6.506 Y-33.688 E42.56369
G1 X-4.127 Y-36.068 E42.86966
G1 X20.238 Y-36.068 E45.08515
G1 X22.618 Y-33.688 E45.39112
G1 X22.618 Y19.677 E50.24356
G1 X20.238 Y22.056 E50.54953
G1 X13.330 Y22.056 E51.17773
G1 X13.010 Y22.827 E51.25366
G1 X15.506 Y25.323 E51.57463
G1 X15.506 Y33.688 E52.33524
G1 X13.127 Y36.068 E52.64121
G1 X-11.238 Y36.068 E54.85670
G1 X-13.618 Y33.688 E55.16267
G1 X-13.618 Y-19.677 E60.01511
G1 X-11.238 Y-22.056 E60.32108
G1 X-4.390 Y-22.056 E60.94382
G1 X-4.330 Y-21.431 F7800.000
G1 X12.753 Y-21.431 E62.49712 F1800.000
G1 X13.119 Y-21.797 E62.54419
G1 X13.119 Y-23.203 E62.67202
G1 X12.753 Y-23.569 E62.71909
G1 X-3.868 Y-23.569 E64.23040
G1 X-5.881 Y-25.582 E64.48930
G1 X-5.881 Y-33.429 E65.20284
G1 X-3.868 Y-35.443 E65.46174
G1 X19.979 Y-35.443 E67.63016
G1 X21.993 Y-33.429 E67.88905 F1800.000
G1 X21.993 Y19.418 E72.69443
G1 X19.979 Y21.431 E72.95332
G1 X-3.753 Y21.431 E75.11128
G1 X-4.119 Y21.797 E75.15835
G1 X-4.119 Y23.203 E75.28618
G1 X-3.753 Y23.569 E75.33325
G1 X12.868 Y23.569 E76.84456
G1 X14.881 Y25.582 E77.10346
G1 X14.881 Y33.429 E77.81700
G1 X12.868 Y35.443 E78.07590
G1 X-10.979 Y35.443 E80.24432
G1 X-12.993 Y33.429 E80.50321
G1 X-12.993 Y-19.418 E85.30859
G1 X-10.979 Y-21.431 E85.56748
G1 X-4.390 Y-21.431 E86.16669
G1 E84.16669 F2400.00000
G92 E0
G1 X12.972 Y-20.443 F7800.000
G1 E2.00000 F2400.00000
G1 X13.744 Y-20.762 E2.07593 F1800.000
G1 X13.744 Y-23.828 E2.35466
G1 X13.378 Y-24.194 E2.40173
G1 X-3.609 Y-24.194 E3.94633
G1 X-5.256 Y-25.841 E4.15815
G1 X-5.256 Y-33.171 E4.82462
G1 X-3.609 Y-34.818 E5.03645
G1 X19.721 Y-34.818 E7.15779
G1 X21.368 Y-33.171 E7.36962
G1 X21.368 Y19.159 E12.12792
G1 X19.721 Y20.806 E12.33974
G1 X-3.609 Y20.806 E14.46109
G1 X-3.972 Y20.443 E14.50780
G1 X-4.744 Y20.762 E14.58373
G1 X-4.744 Y23.828 E14.86246
G1 X-4.378 Y24.194 E14.90953
G1 X12.609 Y24.194 E16.45413
G1 X14.256 Y25.841 E16.66595
G1 X14.256 Y33.171 E17.33242
G1 X12.609 Y34.818 E17.54424
G1 X-10.721 Y34.818 E19.66559
G1 X-12.368 Y33.171 E19.87741
G1 X-12.368 Y-19.159 E24.63572
G1 X-10.721 Y-20.806 E24.84754
G1 X12.609 Y-20.806 E26.96889
G1 X12.930 Y-20.485 E27.01014
G1 X13.597 Y-18.934 F7800.000
G1 X14.369 Y-19.254 E27.08607 F1800.000
G1 X14.369 Y-24.453 E27.55880
G1 X14.003 Y-24.819 E27.60587
G1 X-3.350 Y-24.819 E29.18375
G1 X-4.631 Y-26.100 E29.34850
G1 X-4.631 Y-32.912 E29.96790
G1 X-3.350 Y-34.193 E30.13265
G1 X19.462 Y-34.193 E32.20693
G1 X20.743 Y-32.912 E32.37168
G1 X20.743 Y18.900 E37.08291
G1 X19.462 Y20.181 E37.24766
G1 X-3.350 Y20.181 E39.32193
G1 X-4.597 Y18.934 E39.48229
G1 X-5.369 Y19.254 E39.55822
G1 X-5.369 Y24.453 E40.03095
G1 X-5.003 Y24.819 E40.07802
G1 X12.350 Y24.819 E41.65590
G1 X13.631 Y26.100 E41.82065
G1 X13.631 Y32.912 E42.44005
G1 X12.350 Y34.193 E42.60480
G1 X-10.462 Y34.193 E44.67907
G1 X-11.743 Y32.912 E44.84383
G1 X-11.743 Y-18.900 E49.55506
G1 X-10.462 Y-20.181 E49.71981
G1 X12.350 Y-20.181 E51.79408
G1 X13.555 Y-18.977 E51.94898
G1 X14.994 Y-18.934 F7800.000
G1 X14.994 Y-25.078 E52.50758 F1800.000
G1 X14.627 Y-25.444 E52.55466
G1 X-3.091 Y-25.444 E54.16582
G1 X-4.006 Y-26.359 E54.28350
G1 X-4.006 Y-32.653 E54.85583
G1 X-3.091 Y-33.568 E54.97351
G1 X19.203 Y-33.568 E57.00071
G1 X20.118 Y-32.653 E57.11839
G1 X20.118 Y18.641 E61.78255 F1800.000
G1 X19.203 Y19.556 E61.90023
G1 X-3.091 Y19.556 E63.92743
G1 X-4.006 Y18.641 E64.04511
G1 X-4.006 Y12.347 E64.61744
G1 X-3.091 Y11.432 E64.73512
G1 X14.627 Y11.432 E66.34628
G1 X14.994 Y11.066 E66.39335
G1 X14.994 Y-18.874 E69.11580
G1 X15.618 Y-18.934 F7800.000
G1 X15.618 Y-25.702 E69.73123 F1800.000
G1 X15.252 Y-26.069 E69.77830
G1 X-2.833 Y-26.069 E71.42275
G1 X-3.382 Y-26.618 E71.49336
G1 X-3.382 Y-32.394 E72.01861
G1 X-2.833 Y-32.943 E72.08922
G1 X18.944 Y-32.943 E74.06935
G1 X19.493 Y-32.394 E74.13996 F1800.000
G1 X19.493 Y18.382 E78.75704
G1 X18.944 Y18.931 E78.82765
G1 X-2.833 Y18.931 E80.80778
G1 X-3.382 Y18.382 E80.87839
G1 X-3.382 Y12.606 E81.40364
G1 X-2.833 Y12.057 E81.47425
G1 X15.252 Y12.057 E83.11870
G1 X15.618 Y11.691 E83.16577
G1 X15.618 Y-18.874 E85.94504
G1 E83.94504 F2400.00000
G92 E0
G1 X18.868 Y-32.135 F7800.000
G1 E2.00000 F2400.00000
G1 X18.868 Y18.124 E6.57001 F1800.000
G1 X18.685 Y18.307 E6.59355
G1 X-2.574 Y18.307 E8.52661
G1 X-2.757 Y18.124 E8.55014
G1 X-2.757 Y12.865 E9.02833
G1 X-2.574 Y12.682 E9.05186
G1 X15.877 Y12.682 E10.72960
G1 X16.243 Y12.316 E10.77667
G1 X16.243 Y-26.327 E14.29046
G1 X15.877 Y-26.693 E14.33753
G1 X-2.574 Y-26.693 E16.01527
G1 X-2.757 Y-26.876 E16.03880
G1 X-2.757 Y-32.135 E16.51699
G1 X-2.574 Y-32.318 E16.54052
G1 X18.685 Y-32.318 E18.47358
G1 X18.826 Y-32.178 E18.49166
G1 E16.49166 F2400.00000
G92 E0
G1 X13.597 Y-12.054 F7800.000
G1 E2.00000 F2400.00000
G1 X14.369 Y-11.734 E2.07593 F1800.000
G1 X14.369 Y10.441 E4.09233
G1 X14.003 Y10.807 E4.13941
G1 X-3.350 Y10.807 E5.71729
G1 X-4.597 Y12.054 E5.87764
G1 X-5.369 Y11.734 E5.95357
G1 X-5.369 Y-10.441 E7.96997
G1 X-5.003 Y-10.807 E8.01704
G1 X12.350 Y-10.807 E9.59492
G1 X13.555 Y-12.012 E9.74982
G1 X12.972 Y-10.545 F7800.000
G1 X13.744 Y-10.226 E9.82575 F1800.000
G1 X13.744 Y9.816 E11.64815
G1 X13.378 Y10.182 E11.69522
G1 X-3.609 Y10.182 E13.23982
G1 X-3.972 Y10.545 E13.28653
G1 X-4.744 Y10.226 E13.36246
G1 X-4.744 Y-9.816 E15.18486
G1 X-4.378 Y-10.182 E15.23193
G1 X12.609 Y-10.182 E16.77653
G1 X12.930 Y-10.503 E16.81778
G1 X12.753 Y-9.557 F7800.000
G1 X13.119 Y-9.191 E16.86486 F1800.000
G1 X13.119 Y9.191 E18.53636 F1800.000
G1 X12.753 Y9.557 E18.58343
G1 X-3.753 Y9.557 E20.08428
G1 X-4.119 Y9.191 E20.13135
G1 X-4.119 Y-9.191 E21.80286
G1 X-3.753 Y-9.557 E21.84993
G1 X12.693 Y-9.557 E23.34532
G1 X12.128 Y-8.932 F7800.000
G1 X12.494 Y-8.566 E23.39240 F1800.000
G1 X12.494 Y8.566 E24.95026
G1 X12.128 Y8.932 E24.99733
G1 X-3.128 Y8.932 E26.38454
G1 X-3.494 Y8.566 E26.43161
G1 X-3.494 Y-8.566 E27.98947
G1 X-3.128 Y-8.932 E28.03655
G1 X12.068 Y-8.932 E29.41830
G1 X11.503 Y-8.307 F7800.000
G1 X11.869 Y-7.941 E29.46537 F1800.000
G1 X11.869 Y7.941 E30.90959 F1800.000
G1 X11.503 Y8.307 E30.95666
G1 X-2.503 Y8.307 E32.23023
G1 X-2.869 Y7.941 E32.27730
G1 X-2.869 Y-7.941 E33.72152
G1 X-2.503 Y-8.307 E33.76859
G1 X11.443 Y-8.307 E35.03670
G1 X10.878 Y-7.683 F7800.000
G1 X11.244 Y-7.317 E35.08378 F1800.000
G1 X11.244 Y7.317 E36.41436
G1 X10.878 Y7.683 E36.46143
G1 X-1.878 Y7.683 E37.62135
G1 X-2.244 Y7.317 E37.66842
G1 X-2.244 Y-7.317 E38.99900
G1 X-1.878 Y-7.683 E39.04607
G1 X10.818 Y-7.683 E40.20054
G1 X10.253 Y-7.058 F7800.000
G1 X10.619 Y-6.692 E40.24762 F1800.000
G1 X10.619 Y6.692 E41.46455 F1800.000
G1 X10.253 Y7.058 E41.51162
G1 X-1.253 Y7.058 E42.55791
G1 X-1.619 Y6.692 E42.60498
G1 X-1.619 Y-6.692 E43.82192
G1 X-1.253 Y-7.058 E43.86899
G1 X10.193 Y-7.058 E44.90982
G1 X9.628 Y-6.433 F7800.000
G1 X9.994 Y-6.067 E44.95689 F1800.000
G1 X9.994 Y6.067 E46.06018
G1 X9.628 Y6.433 E46.10726
G1 X-0.628 Y6.433 E47.03990
G1 X-0.994 Y6.067 E47.08697
G1 X-0.994 Y-6.067 E48.19026
G1 X-0.628 Y-6.433 E48.23734
G1 X9.568 Y-6.433 E49.16452
G1 E47.16452 F2400.00000
G92 E0
G1 X9.628 Y-11.432 F7800.000
G1 E2.00000 F2400.00000
G1 X-5.627 Y-11.432 E3.38721 F1800.000
G1 X-5.994 Y-11.066 E3.43428
G1 X-5.994 Y25.078 E6.72079
G1 X-5.627 Y25.444 E6.76786
G1 X12.091 Y25.444 E8.37903
G1 X13.006 Y26.359 E8.49671
G1 X13.006 Y32.653 E9.06903
G1 X12.091 Y33.568 E9.18671
G1 X-10.203 Y33.568 E11.21391
G1 X-11.118 Y32.653 E11.33159
G1 X-11.118 Y-18.641 E15.99575
G1 X-10.203 Y-19.556 E16.11343
G1 X12.091 Y-19.556 E18.14063
G1 X13.006 Y-18.641 E18.25831
G1 X13.006 Y-12.347 E18.83064 F1800.000
G1 X12.091 Y-11.432 E18.94832
G1 X9.688 Y-11.432 E19.16682
G1 X9.628 Y-12.057 F7800.000
G1 X-6.252 Y-12.057 E20.61085 F1800.000
G1 X-6.618 Y-11.691 E20.65792
G1 X-6.618 Y25.702 E24.05807
G1 X-6.252 Y26.069 E24.10515
G1 X11.833 Y26.069 E25.74959
G1 X12.382 Y26.618 E25.82020
G1 X12.382 Y32.394 E26.34546
G1 X11.833 Y32.943 E26.41607
G1 X-9.944 Y32.943 E28.39620
G1 X-10.493 Y32.394 E28.46680
G1 X-10.493 Y-18.382 E33.08389
G1 X-9.944 Y-18.931 E33.15450
G1 X11.833 Y-18.931 E35.13463
G1 X12.382 Y-18.382 E35.20524 F1800.000
G1 X12.382 Y-12.606 E35.73049
G1 X11.833 Y-12.057 E35.80110
G1 X9.688 Y-12.057 E35.99606
G1 X11.574 Y-12.682 F7800.000
G1 X-6.877 Y-12.682 E37.67380 F1800.000
G1 X-7.243 Y-12.316 E37.72087
G1 X-7.243 Y26.327 E41.23466
