; generated by Slic3r 1.2.9 on 2016-10-06 at 12:04:13

; external perimeters extrusion width = 0.40mm
; perimeters extrusion width = 0.48mm
; infill extrusion width = 0.48mm
; solid infill extrusion width = 0.48mm
; top infill extrusion width = 0.48mm

M107
M104 S210 ; set temperature
G28 ; home all axes
G1 Z5 F5000 ; lift nozzle

M109 S210 ; wait for temperature to be reached
G21 ; set units to millimeters
G90 ; use absolute coordinates
M82 ; use absolute distances for extrusion
G92 E0
G1 Z0.350 F7800.000
G1 E-2.00000 F2400.00000
G92 E0
G1 X45.120 Y26.050 F7800.000
G1 E2.00000 F2400.00000
G1 X26.283 Y58.676 E5.42559 F1800.000
G1 X24.606 Y60.785 E5.67059
G1 X22.387 Y62.312 E5.91559
G1 X19.818 Y63.124 E6.16058
G1 X18.216 Y63.237 E6.30657
G1 X13.106 Y63.144 E6.77133
G1 X11.158 Y62.898 E6.94982
G1 X-9.892 Y57.888 E8.91735
G1 X-12.024 Y57.088 E9.12442
G1 X-38.976 Y42.923 E11.89305
G1 X-41.908 Y40.480 E12.24008
G1 X-70.988 Y3.436 E16.52232
G1 X-72.320 Y1.094 E16.76732
G1 X-72.911 Y-1.535 E17.01232
G1 X-72.708 Y-4.221 E17.25731
G1 X-71.904 Y-6.412 E17.46947
G1 X-69.139 Y-11.722 E18.01384
G1 X-67.501 Y-13.958 E18.26590
G1 X-63.427 Y-18.022 E18.78914
G1 X-29.061 Y-49.842 E23.04779
G1 X-27.454 Y-51.031 E23.22960
G1 X-10.555 Y-60.874 E25.00790
G1 X-8.052 Y-61.871 E25.25290
G1 X-5.332 Y-62.092 E25.50103
G1 X20.355 Y-60.312 E27.84237
G1 X23.970 Y-59.286 E28.18400 F1800.000
G1 X50.922 Y-45.121 E30.95262
G1 X69.497 Y-34.422 E32.90182
G1 X71.606 Y-32.745 E33.14682
G1 X73.133 Y-30.525 E33.39181
G1 X73.946 Y-27.956 E33.63681
G1 X73.972 Y-25.262 E33.88181
G1 X72.837 Y-21.958 E34.19950
G1 X45.150 Y25.998 E39.23467
G1 X44.579 Y25.738 F7800.000
G1 X25.742 Y58.363 E42.66026 F1800.000
G1 X24.113 Y60.390 E42.89667
G1 X21.948 Y61.829 E43.13308
G1 X18.227 Y62.612 E43.47878
G1 X13.117 Y62.519 E43.94353
G1 X11.303 Y62.290 E44.10980
G1 X-9.747 Y57.280 E46.07734
G1 X-11.733 Y56.535 E46.27023
G1 X-38.685 Y42.370 E49.03885
G1 X-41.417 Y40.094 E49.36211
G1 X-70.496 Y3.050 E53.64436
G1 X-71.770 Y0.784 E53.88077
G1 X-72.299 Y-1.762 E54.11718
G1 X-72.034 Y-4.348 E54.35359
G1 X-71.350 Y-6.123 E54.52654
G1 X-68.585 Y-11.433 E55.07091
G1 X-67.059 Y-13.516 E55.30571
G1 X-63.002 Y-17.563 E55.82674
G1 X-28.637 Y-49.383 E60.08539
G1 X-27.140 Y-50.491 E60.25474
G1 X-10.240 Y-60.334 E62.03305
G1 X-7.820 Y-61.283 E62.26946
G1 X-5.375 Y-61.468 E62.49240
G1 X20.312 Y-59.689 E64.83375
G1 X23.679 Y-58.733 E65.15197 F1800.000
G1 X50.631 Y-44.568 E67.92059
G1 X69.185 Y-33.881 E69.86754
G1 X71.211 Y-32.251 E70.10395
G1 X72.650 Y-30.086 E70.34036
G1 X73.367 Y-27.587 E70.57677
G1 X73.295 Y-24.988 E70.81318
G1 X72.296 Y-22.270 E71.07652
G1 X44.609 Y25.686 E76.11169
G1 X44.038 Y25.425 F7800.000
G1 X25.201 Y58.051 E79.53728 F1800.000
G1 X23.622 Y59.991 E79.76478
G1 X21.513 Y61.339 E79.99228
G1 X18.239 Y61.987 E80.29582
G1 X13.129 Y61.894 E80.76058
G1 X11.448 Y61.682 E80.91462
G1 X-9.602 Y56.672 E82.88216
G1 X-11.442 Y55.982 E83.06087
G1 X-38.395 Y41.816 E85.82949
G1 X-40.925 Y39.708 E86.12898
G1 X-70.005 Y2.664 E90.41123
G1 X-71.217 Y0.476 E90.63873
G1 X-71.682 Y-1.982 E90.86623
G1 X-71.353 Y-4.463 E91.09373
G1 X-70.795 Y-5.834 E91.22838
G1 X-68.031 Y-11.145 E91.77274
G1 X-66.616 Y-13.074 E91.99028
G1 X-62.578 Y-17.105 E92.50911
G1 X-28.212 Y-48.924 E96.76776
G1 X-26.825 Y-49.951 E96.92466
G1 X-9.926 Y-59.794 E98.70296
G1 X-7.591 Y-60.693 E98.93047
G1 X-5.418 Y-60.845 E99.12853
G1 X20.269 Y-59.065 E101.46987
G1 X23.388 Y-58.180 E101.76470 F1800.000
G1 X50.605 Y-43.869 E104.56079
G1 X68.873 Y-33.339 E106.47801
G1 X70.813 Y-31.760 E106.70551
G1 X72.160 Y-29.652 E106.93301
G1 X72.778 Y-27.227 E107.16052
G1 X72.604 Y-24.731 E107.38802
G1 X71.755 Y-22.582 E107.59812
G1 X44.068 Y25.373 E112.63329
G1 X43.496 Y25.113 F7800.000
G1 X24.660 Y57.738 E116.05888 F1800.000
G1 X23.132 Y59.590 E116.27711
G1 X21.084 Y60.841 E116.49534
G1 X18.250 Y61.362 E116.75738
G1 X13.140 Y61.270 E117.22213
G1 X11.592 Y61.074 E117.36395
G1 X-9.458 Y56.064 E119.33149
G1 X-11.152 Y55.428 E119.49601
G1 X-38.104 Y41.263 E122.26463
G1 X-40.434 Y39.322 E122.54037
G1 X-69.513 Y2.279 E126.82261
G1 X-70.662 Y0.171 E127.04084
G1 X-71.060 Y-2.195 E127.25907
G1 X-70.241 Y-5.546 E127.57272
G1 X-67.476 Y-10.856 E128.11708
G1 X-66.174 Y-12.632 E128.31736
G1 X-62.153 Y-16.646 E128.83398
G1 X-27.788 Y-48.466 E133.09263
G1 X-26.511 Y-49.411 E133.23708
G1 X-9.611 Y-59.254 E135.01538
G1 X-7.366 Y-60.102 E135.23361
G1 X-5.462 Y-60.221 E135.40714
G1 X20.226 Y-58.442 E137.74849
G1 X23.098 Y-57.627 E138.01992 F1800.000
G1 X50.294 Y-43.327 E140.81383
G1 X68.560 Y-32.798 E142.73097
G1 X70.411 Y-31.271 E142.94920
G1 X71.662 Y-29.223 E143.16743
G1 X72.176 Y-26.878 E143.38566
G1 X71.896 Y-24.495 E143.60388
G1 X71.214 Y-22.895 E143.76205
G1 X43.526 Y25.061 E148.79721
G1 X42.955 Y24.800 F7800.000
G1 X24.119 Y57.426 E152.22281 F1800.000
G1 X22.645 Y59.184 E152.43135
G1 X20.661 Y60.334 E152.63989
G1 X18.261 Y60.737 E152.86117
G1 X13.151 Y60.645 E153.32592
G1 X11.737 Y60.466 E153.45552
G1 X-9.313 Y55.456 E155.42305
G1 X-10.861 Y54.875 E155.57340
G1 X-37.813 Y40.710 E158.34202
G1 X-39.942 Y38.937 E158.59398
G1 X-69.022 Y1.893 E162.87623
G1 X-70.104 Y-0.129 E163.08477
G1 X-70.432 Y-2.399 E163.29332
G1 X-69.687 Y-5.257 E163.56191
G1 X-66.922 Y-10.567 E164.10628
G1 X-65.732 Y-12.191 E164.28929
G1 X-61.729 Y-16.188 E164.80371
G1 X-27.363 Y-48.007 E169.06236
G1 X-26.196 Y-48.871 E169.19435
G1 X-9.297 Y-58.714 E170.97266
G1 X-7.145 Y-59.508 E171.18120
G1 X-5.505 Y-59.598 E171.33059
G1 X20.183 Y-57.818 E173.67194
G1 X22.807 Y-57.074 E173.91997 F1800.000
G1 X49.982 Y-42.786 E176.71170
G1 X68.248 Y-32.257 E178.62877
G1 X70.005 Y-30.784 E178.83731
G1 X71.155 Y-28.800 E179.04586
G1 X71.560 Y-26.542 E179.25440
G1 X71.171 Y-24.282 E179.46294
G1 X70.672 Y-23.207 E179.57064
G1 X42.985 Y24.748 E184.60581
G1 E182.60581 F2400.00000
G92 E0
G1 X-14.425 Y-32.580 F7800.000
G1 E2.00000 F2400.00000
G1 X-55.316 Y8.310 E7.25826 F1800.000
G1 X-58.163 Y8.310 E7.51715
G1 X-67.247 Y-0.774 E8.68534
G1 X-67.247 Y-3.622 E8.94423
G1 X-64.578 Y-6.291 E9.28750
G1 X-64.483 Y-6.521 E9.31011
G1 X-64.483 Y-8.191 E9.46203
G1 X-63.960 Y-9.454 E9.58629
G1 X-59.174 Y-14.240 E10.20173
G1 X-57.911 Y-14.763 E10.32605
G1 X-56.240 Y-14.763 E10.47800
G1 X-56.011 Y-14.859 E10.50061
G1 X-24.286 Y-46.583 E14.58021
G1 X-21.439 Y-46.583 E14.83910
G1 X-19.593 Y-44.737 E15.07649
G1 X-19.075 Y-44.737 E15.12356
G1 X-7.386 Y-56.426 E16.62666
G1 X-4.539 Y-56.426 E16.88555
G1 X1.017 Y-50.870 E17.60000 F1800.000
G1 X1.017 Y-48.023 E17.85889
G1 X-14.383 Y-32.623 E19.83923
G1 X-14.867 Y-33.022 F7800.000
G1 X-55.575 Y7.685 E25.07395 F1800.000
G1 X-57.904 Y7.685 E25.28577
G1 X-66.623 Y-1.033 E26.40689
G1 X-66.623 Y-3.363 E26.61871
G1 X-63.953 Y-6.032 E26.96198
G1 X-63.858 Y-6.262 E26.98459
G1 X-63.858 Y-8.067 E27.14874
G1 X-63.430 Y-9.100 E27.25041
G1 X-58.820 Y-13.710 E27.84323
G1 X-57.787 Y-14.139 E27.94495
G1 X-55.981 Y-14.139 E28.10913
G1 X-55.752 Y-14.234 E28.13174
G1 X-24.027 Y-45.958 E32.21134
G1 X-21.697 Y-45.958 E32.42316
G1 X-19.593 Y-43.853 E32.69383
G1 X-19.075 Y-43.853 E32.74090
G1 X-7.127 Y-55.801 E34.27729
G1 X-4.798 Y-55.801 E34.48911 F1800.000
G1 X0.392 Y-50.611 E35.15648
G1 X0.392 Y-48.282 E35.36831
G1 X-14.825 Y-33.065 E37.32511
G1 X-15.309 Y-33.464 F7800.000
G1 X-55.834 Y7.060 E42.53629 F1800.000
G1 X-57.645 Y7.060 E42.70104
G1 X-65.998 Y-1.292 E43.77508
G1 X-65.998 Y-3.104 E43.93983
G1 X-63.328 Y-5.773 E44.28311
G1 X-63.233 Y-6.003 E44.30571
G1 X-63.233 Y-7.943 E44.48211
G1 X-62.900 Y-8.746 E44.56118
G1 X-58.467 Y-13.181 E45.13138
G1 X-57.663 Y-13.514 E45.21050
G1 X-55.722 Y-13.514 E45.38691
G1 X-55.493 Y-13.609 E45.40952
G1 X-23.768 Y-45.333 E49.48912
G1 X-21.956 Y-45.333 E49.65387
G1 X-19.593 Y-42.970 E49.95782
G1 X-19.075 Y-42.970 E50.00490
G1 X-6.869 Y-55.176 E51.57456
G1 X-5.057 Y-55.176 E51.73931
G1 X-0.233 Y-50.352 E52.35962 F1800.000
G1 X-0.233 Y-48.541 E52.52437
G1 X-15.267 Y-33.507 E54.45763
G1 X-15.751 Y-33.906 F7800.000
G1 X-56.092 Y6.435 E59.64528 F1800.000
G1 X-57.387 Y6.435 E59.76296
G1 X-65.373 Y-1.551 E60.78993
G1 X-65.373 Y-2.845 E60.90761
G1 X-62.703 Y-5.515 E61.25088
G1 X-62.608 Y-5.744 E61.27349
G1 X-62.608 Y-7.819 E61.46212
G1 X-62.371 Y-8.393 E61.51860
G1 X-58.113 Y-12.651 E62.06618
G1 X-57.538 Y-12.889 E62.12269
G1 X-55.464 Y-12.889 E62.31134
G1 X-55.234 Y-12.984 E62.33395
G1 X-23.509 Y-44.709 E66.41354
G1 X-22.215 Y-44.709 E66.53122
G1 X-19.593 Y-42.086 E66.86847
G1 X-19.075 Y-42.086 E66.91554
G1 X-6.610 Y-54.551 E68.51849
G1 X-5.316 Y-54.551 E68.63617 F1800.000
G1 X-0.858 Y-50.094 E69.20940
G1 X-0.858 Y-48.799 E69.32708
G1 X-15.709 Y-33.948 E71.23681
G1 X-16.193 Y-34.348 F7800.000
G1 X-56.351 Y5.810 E76.40092 F1800.000
G1 X-57.128 Y5.810 E76.47152
G1 X-64.748 Y-1.810 E77.45143
G1 X-64.748 Y-2.586 E77.52203
G1 X-62.078 Y-5.256 E77.86530
G1 X-61.983 Y-5.485 E77.88791
G1 X-61.983 Y-7.695 E78.08879
G1 X-61.841 Y-8.039 E78.12267
G1 X-57.759 Y-12.121 E78.64763
G1 X-57.414 Y-12.264 E78.68153
G1 X-55.205 Y-12.264 E78.88242
G1 X-54.975 Y-12.359 E78.90502
G1 X-23.250 Y-44.084 E82.98462
G1 X-22.474 Y-44.084 E83.05523
G1 X-19.593 Y-41.202 E83.42576
G1 X-19.075 Y-41.202 E83.47283
G1 X-6.351 Y-53.926 E85.10906
G1 X-5.574 Y-53.926 E85.17967
G1 X-1.483 Y-49.835 E85.70583 F1800.000
G1 X-1.483 Y-49.058 E85.77644
G1 X-16.150 Y-34.390 E87.66263
G1 E85.66263 F2400.00000
G92 E0
G1 X-22.992 Y-43.459 F7800.000
G1 E2.00000 F2400.00000
G1 X-22.733 Y-43.459 E2.02354 F1800.000
G1 X-19.593 Y-40.319 E2.42735
G1 X-19.075 Y-40.319 E2.47442
G1 X-6.092 Y-53.301 E4.14394
G1 X-5.833 Y-53.301 E4.16747
G1 X-2.108 Y-49.576 E4.64657
G1 X-2.108 Y-49.317 E4.67010
G1 X-56.198 Y4.773 E11.62575
G1 X-56.610 Y5.185 E11.67878
G1 X-56.869 Y5.185 E11.70232
G1 X-64.123 Y-2.069 E12.63515
G1 X-64.123 Y-2.327 E12.65869
G1 X-61.454 Y-4.997 E13.00196
G1 X-61.358 Y-5.227 E13.02456
G1 X-61.358 Y-7.570 E13.23768
G1 X-61.311 Y-7.685 E13.24897
G1 X-57.405 Y-11.591 E13.75131
G1 X-57.290 Y-11.639 E13.76261
G1 X-54.946 Y-11.639 E13.97573
G1 X-54.716 Y-11.734 E13.99833
G1 X-23.034 Y-43.416 E18.07247
G1 E16.07247 F2400.00000
G92 E0
G1 X15.107 Y-30.111 F7800.000
G1 E2.00000 F2400.00000
G1 X-38.564 Y23.561 E8.90185 F1800.000
G1 X-41.412 Y23.561 E9.16074
G1 X-50.496 Y14.476 E10.32893
G1 X-50.496 Y11.629 E10.58782
G1 X-47.827 Y8.960 E10.93110
G1 X-47.731 Y8.730 E10.95370
G1 X-47.731 Y7.059 E11.10562
G1 X-47.209 Y5.797 E11.22988
G1 X-42.423 Y1.010 E11.84532
G1 X-41.160 Y0.487 E11.96965
G1 X-39.489 Y0.487 E12.12160
G1 X-39.259 Y0.392 E12.14420
G1 X-7.534 Y-31.333 E16.22380
G1 X-4.687 Y-31.333 E16.48270
G1 X-2.841 Y-29.487 E16.72008
G1 X-2.323 Y-29.487 E16.76716
G1 X9.365 Y-41.175 E18.27025
G1 X12.212 Y-41.175 E18.52914
G1 X17.768 Y-35.619 E19.24359
G1 X17.768 Y-34.400 E19.35451
G1 X18.695 Y-34.151 E19.44171
G1 X21.937 Y-39.767 E20.03135
G1 X21.803 Y-40.267 E20.07842
G1 X14.273 Y-44.615 E20.86901
G1 X13.537 Y-47.365 E21.12789
G1 X17.460 Y-54.161 E21.84145
G1 X20.211 Y-54.898 E22.10036
G1 X40.934 Y-42.950 E24.27549
G1 X41.671 Y-40.199 E24.53439
G1 X-4.603 Y39.949 E32.94971
G1 X-4.242 Y40.574 E33.01532
G1 X10.489 Y40.574 E34.35485
G1 X10.779 Y40.407 E34.38530
G1 X48.889 Y-25.602 E41.31595
G1 X48.755 Y-26.102 E41.36302
G1 X41.226 Y-30.449 E42.15361
G1 X40.489 Y-33.199 E42.41250
G1 X44.413 Y-39.995 E43.12606
G1 X47.163 Y-40.732 E43.38496
G1 X67.886 Y-28.784 E45.56009
G1 X68.623 Y-26.034 E45.81899
G1 X20.646 Y57.064 E54.54402
G1 X17.898 Y57.802 E54.80278
G1 X17.375 Y57.500 E54.85767
G1 X17.216 Y57.458 E54.87261
G1 X11.847 Y57.458 E55.36079
G1 X9.834 Y55.445 E55.61969
G1 X9.834 Y52.824 E55.85798
G1 X9.468 Y52.458 E55.90505
G1 X-9.203 Y52.448 E57.60277
G1 X-11.216 Y50.435 E57.86167
G1 X-11.216 Y43.659 E58.47779
G1 X-11.582 Y43.293 E58.52486
G1 X-15.105 Y43.293 E58.84520
G1 X-17.118 Y41.279 E59.10410
G1 X-17.118 Y38.659 E59.34240
G1 X-17.484 Y38.293 E59.38947
G1 X-36.155 Y38.283 E61.08718
G1 X-38.168 Y36.269 E61.34608
G1 X-38.168 Y28.422 E62.05962
G1 X-36.155 Y26.409 E62.31852
G1 X-16.463 Y26.409 E64.10910
G1 X-16.173 Y26.241 E64.13955
G1 X15.977 Y-29.444 E69.98630
G1 X15.155 Y-30.075 E70.08051
G1 X14.665 Y-30.553 F7800.000
G1 X-38.823 Y22.936 E76.95883 F1800.000
G1 X-41.153 Y22.936 E77.17064
G1 X-49.871 Y14.217 E78.29176
G1 X-49.871 Y11.888 E78.50358
G1 X-47.202 Y9.218 E78.84686
G1 X-47.106 Y8.989 E78.86946
G1 X-47.106 Y7.183 E79.03362
G1 X-46.679 Y6.150 E79.13529
G1 X-42.069 Y1.540 E79.72810
G1 X-41.035 Y1.112 E79.82982
G1 X-39.230 Y1.112 E79.99401
G1 X-39.000 Y1.017 E80.01661
G1 X-7.275 Y-30.708 E84.09621
G1 X-4.946 Y-30.708 E84.30803
G1 X-2.841 Y-28.603 E84.57871
G1 X-2.323 Y-28.603 E84.62578
G1 X9.624 Y-40.550 E86.16216
G1 X11.954 Y-40.550 E86.37398 F1800.000
G1 X17.143 Y-35.361 E87.04136
G1 X17.143 Y-33.031 E87.25318
G1 X14.708 Y-30.595 E87.56639
G1 X14.224 Y-30.995 F7800.000
G1 X-39.082 Y22.311 E94.42117 F1800.000
G1 X-40.894 Y22.311 E94.58591
G1 X-49.246 Y13.959 E95.65996
G1 X-49.246 Y12.147 E95.82471
G1 X-46.577 Y9.477 E96.16798
G1 X-46.482 Y9.248 E96.19059
G1 X-46.482 Y7.308 E96.36698
G1 X-46.149 Y6.504 E96.44606
G1 X-41.715 Y2.070 E97.01625
G1 X-40.911 Y1.737 E97.09537
G1 X-38.971 Y1.737 E97.27179
G1 X-38.741 Y1.642 E97.29439
G1 X-7.017 Y-30.083 E101.37399
G1 X-5.205 Y-30.083 E101.53874
G1 X-2.841 Y-27.719 E101.84270
G1 X-2.323 Y-27.719 E101.88977
G1 X9.883 Y-39.925 E103.45944
G1 X11.695 Y-39.925 E103.62419
G1 X16.519 Y-35.102 E104.24449 F1800.000
G1 X16.519 Y-33.290 E104.40924
G1 X14.266 Y-31.037 E104.69891
G1 X13.782 Y-31.437 F7800.000
G1 X-39.341 Y21.686 E111.53015 F1800.000
G1 X-40.635 Y21.686 E111.64783
G1 X-48.621 Y13.700 E112.67480
G1 X-48.621 Y12.406 E112.79248
G1 X-45.952 Y9.736 E113.13576
G1 X-45.857 Y9.506 E113.15836
G1 X-45.857 Y7.432 E113.34700
G1 X-45.619 Y6.858 E113.40348
G1 X-41.361 Y2.600 E113.95105
G1 X-40.787 Y2.362 E114.00757
G1 X-38.712 Y2.362 E114.19622
G1 X-38.482 Y2.267 E114.21882
G1 X-6.758 Y-29.458 E118.29842
G1 X-5.464 Y-29.458 E118.41610
G1 X-2.841 Y-26.835 E118.75334
G1 X-2.323 Y-26.835 E118.80041
G1 X10.142 Y-39.301 E120.40336
G1 X11.436 Y-39.301 E120.52104 F1800.000
G1 X15.894 Y-34.843 E121.09427
G1 X15.894 Y-33.549 E121.21195
G1 X13.824 Y-31.479 E121.47809
G1 X13.340 Y-31.879 F7800.000
G1 X-39.600 Y21.061 E128.28579 F1800.000
G1 X-40.376 Y21.061 E128.35640
G1 X-47.996 Y13.441 E129.33630
G1 X-47.996 Y12.664 E129.40691
G1 X-45.327 Y9.995 E129.75018
G1 X-45.232 Y9.765 E129.77278
G1 X-45.232 Y7.556 E129.97366
G1 X-45.089 Y7.212 E130.00755
G1 X-41.007 Y3.129 E130.53250
G1 X-40.663 Y2.987 E130.56641
G1 X-38.453 Y2.987 E130.76729
G1 X-38.224 Y2.892 E130.78990
G1 X-6.499 Y-28.833 E134.86950
G1 X-5.722 Y-28.833 E134.94010
G1 X-2.841 Y-25.952 E135.31063
G1 X-2.323 Y-25.952 E135.35770
G1 X10.401 Y-38.676 E136.99394
G1 X11.177 Y-38.676 E137.06454
G1 X15.269 Y-34.584 E137.59071 F1800.000
G1 X15.269 Y-33.807 E137.66131
G1 X13.382 Y-31.921 E137.90391
G1 E135.90391 F2400.00000
G92 E0
G1 X14.644 Y-34.066 F7800.000
G1 E2.00000 F2400.00000
G1 X-39.859 Y20.436 E9.00868 F1800.000
G1 X-40.117 Y20.436 E9.03222
G1 X-47.371 Y13.182 E9.96505
G1 X-47.371 Y12.923 E9.98859
G1 X-44.702 Y10.254 E10.33186
G1 X-44.607 Y10.024 E10.35446
G1 X-44.607 Y7.680 E10.56758
G1 X-44.559 Y7.566 E10.57887
G1 X-40.653 Y3.659 E11.08120
G1 X-40.538 Y3.612 E11.09251
G1 X-38.194 Y3.612 E11.30563
G1 X-37.965 Y3.517 E11.32823
G1 X-6.240 Y-28.208 E15.40783
G1 X-5.981 Y-28.208 E15.43136
G1 X-2.841 Y-25.068 E15.83517
G1 X-2.323 Y-25.068 E15.88225
G1 X10.659 Y-38.051 E17.55176
G1 X10.918 Y-38.051 E17.57530
G1 X14.644 Y-34.325 E18.05439
G1 X14.644 Y-34.126 E18.07247
G1 E16.07247 F2400.00000
G92 E0
G1 X-5.685 Y40.574 F7800.000
G1 E2.00000 F2400.00000
G1 X-5.324 Y41.199 E2.06561 F1800.000
G1 X10.850 Y41.199 E3.53636
G1 X11.140 Y41.032 E3.56681
G1 X49.743 Y-25.831 E10.58709
G1 X49.609 Y-26.331 E10.63416
G1 X41.762 Y-30.861 E11.45803
G1 X41.159 Y-33.111 E11.66985
G1 X44.824 Y-39.459 E12.33633
G1 X47.075 Y-40.062 E12.54816
G1 X67.350 Y-28.373 E14.67623
G1 X67.953 Y-26.122 E14.88805
G1 X20.235 Y56.528 E23.56603
G1 X17.986 Y57.131 E23.77774
G1 X17.542 Y56.875 E23.82430
G1 X17.383 Y56.833 E23.83924
G1 X12.106 Y56.833 E24.31909
