; generated by Slic3r 1.2.9 on 2016-10-10 at 17:29:33

; external perimeters extrusion width = 0.40mm
; perimeters extrusion width = 0.68mm
; infill extrusion width = 1.28mm
; solid infill extrusion width = 0.68mm
; top infill extrusion width = 0.68mm

M107
M104 S210 ; set temperature
G28 ; home all axes
G1 Z5 F5000 ; lift nozzle

M109 S210 ; wait for temperature to be reached
G21 ; set units to millimeters
G90 ; use absolute coordinates
M82 ; use absolute distances for extrusion
G92 E0
G1 Z0.350 F7800.000
G1 E-2.00000 F2400.00000
G92 E0
G1 X0.000 Y15.124 F7800.000
G1 E2.00000 F2400.00000
G1 X-9.000 Y15.124 E2.81837 F1610.607
G1 X-10.105 Y15.079 E2.91890
G1 X-11.054 Y14.979 E3.00574
G1 X-11.675 Y14.881 E3.06285
G1 X-12.609 Y14.682 E3.14970
G1 X-13.216 Y14.520 E3.20681
G1 X-14.227 Y14.185 E3.30363
G1 X-14.710 Y14.000 E3.35075
G1 X-15.583 Y13.611 E3.43759
G1 X-16.142 Y13.326 E3.49469
G1 X-16.970 Y12.849 E3.58154
G1 X-17.496 Y12.507 E3.63864
G1 X-18.269 Y11.945 E3.72548
G1 X-18.757 Y11.550 E3.78259
G1 X-19.467 Y10.911 E3.86944
G1 X-19.911 Y10.467 E3.92655
G1 X-20.550 Y9.757 E4.01339
G1 X-20.945 Y9.269 E4.07050
G1 X-21.507 Y8.496 E4.15734
G1 X-21.849 Y7.969 E4.21446
G1 X-22.326 Y7.142 E4.30129
G1 X-22.611 Y6.583 E4.35840
G1 X-23.000 Y5.710 E4.44524
G1 X-23.185 Y5.227 E4.49235
G1 X-23.520 Y4.216 E4.58918
G1 X-23.682 Y3.609 E4.64629
G1 X-23.881 Y2.675 E4.73314
G1 X-23.979 Y2.054 E4.79025
G1 X-24.079 Y1.105 E4.87708
G1 X-24.112 Y0.477 E4.93420
G1 X-24.112 Y-0.478 E5.02104
G1 X-24.079 Y-1.105 E5.07814
G1 X-23.979 Y-2.054 E5.16498
G1 X-23.881 Y-2.675 E5.22209
G1 X-23.682 Y-3.609 E5.30894
G1 X-23.520 Y-4.216 E5.36606
G1 X-23.225 Y-5.124 E5.45289
G1 X-23.000 Y-5.710 E5.51001
G1 X-22.611 Y-6.583 E5.59684
G1 X-22.376 Y-7.044 E5.64395
G1 X-21.849 Y-7.970 E5.74078
G1 X-21.507 Y-8.496 E5.79788
G1 X-20.945 Y-9.269 E5.88473
G1 X-20.550 Y-9.757 E5.94184
G1 X-19.911 Y-10.467 E6.02868
G1 X-19.467 Y-10.911 E6.08579
G1 X-18.757 Y-11.550 E6.17263
G1 X-18.269 Y-11.945 E6.22974
G1 X-17.496 Y-12.507 E6.31658
G1 X-16.970 Y-12.849 E6.37369
G1 X-16.044 Y-13.376 E6.47052
G1 X-15.583 Y-13.611 E6.51763
G1 X-14.710 Y-14.000 E6.60446
G1 X-14.124 Y-14.225 E6.66158
G1 X-13.216 Y-14.520 E6.74842
G1 X-12.609 Y-14.682 E6.80553
G1 X-11.675 Y-14.881 E6.89238
G1 X-11.054 Y-14.979 E6.94949
G1 X-10.105 Y-15.079 E7.03632
G1 X-9.478 Y-15.112 E7.09343
G1 X-9.000 Y-15.124 E7.13687
G1 X9.477 Y-15.112 E8.81702
G1 X10.105 Y-15.079 E8.87413 F1610.607
G1 X11.054 Y-14.979 E8.96096
G1 X11.675 Y-14.881 E9.01808
G1 X12.609 Y-14.682 E9.10493
G1 X13.216 Y-14.520 E9.16204
G1 X14.124 Y-14.225 E9.24887
G1 X14.710 Y-14.000 E9.30599
G1 X15.583 Y-13.611 E9.39283
G1 X16.142 Y-13.326 E9.44994
G1 X16.969 Y-12.849 E9.53677
G1 X17.496 Y-12.507 E9.59389
G1 X18.269 Y-11.945 E9.68073
G1 X18.757 Y-11.550 E9.73784
G1 X19.467 Y-10.911 E9.82468
G1 X19.911 Y-10.467 E9.88179
G1 X20.550 Y-9.757 E9.96863
G1 X20.945 Y-9.269 E10.02575
G1 X21.507 Y-8.496 E10.11258
G1 X21.849 Y-7.970 E10.16969
G1 X22.326 Y-7.142 E10.25653
G1 X22.611 Y-6.583 E10.31364
G1 X23.000 Y-5.710 E10.40048
G1 X23.225 Y-5.124 E10.45759
G1 X23.520 Y-4.216 E10.54443
G1 X23.682 Y-3.609 E10.60154
G1 X23.881 Y-2.675 E10.68839
G1 X23.979 Y-2.054 E10.74550
G1 X24.079 Y-1.105 E10.83234
G1 X24.112 Y-0.478 E10.88945
G1 X24.112 Y0.478 E10.97629
G1 X24.079 Y1.105 E11.03340
G1 X23.979 Y2.054 E11.12024
G1 X23.881 Y2.675 E11.17734
G1 X23.682 Y3.609 E11.26420
G1 X23.520 Y4.216 E11.32130
G1 X23.225 Y5.124 E11.40815
G1 X23.000 Y5.710 E11.46525
G1 X22.611 Y6.583 E11.55210
G1 X22.326 Y7.142 E11.60921
G1 X21.849 Y7.970 E11.69604
G1 X21.507 Y8.496 E11.75315
G1 X20.945 Y9.269 E11.84000
G1 X20.550 Y9.757 E11.89710
G1 X19.911 Y10.467 E11.98395
G1 X19.467 Y10.911 E12.04105
G1 X18.757 Y11.550 E12.12790
G1 X18.269 Y11.945 E12.18501
G1 X17.496 Y12.507 E12.27185
G1 X16.970 Y12.849 E12.32896
G1 X16.142 Y13.326 E12.41580
G1 X15.583 Y13.611 E12.47291
G1 X14.710 Y14.000 E12.55975
G1 X14.124 Y14.225 E12.61686
G1 X13.216 Y14.520 E12.70370
G1 X12.609 Y14.682 E12.76081
G1 X11.675 Y14.881 E12.84766
G1 X11.054 Y14.979 E12.90477
G1 X10.105 Y15.079 E12.99160
G1 X9.000 Y15.124 E13.09214
G1 X0.060 Y15.124 E13.90505
G1 X0.000 Y14.500 F7800.000
G1 X-9.000 Y14.500 E14.72342 F1610.607
G1 X-10.072 Y14.455 E14.82098
G1 X-10.957 Y14.362 E14.90187
G1 X-11.577 Y14.264 E14.95898
G1 X-12.447 Y14.079 E15.03988
G1 X-13.054 Y13.916 E15.09699
G1 X-14.003 Y13.602 E15.18786
G1 X-14.486 Y13.416 E15.23498
G1 X-15.299 Y13.054 E15.31587
G1 X-15.859 Y12.769 E15.37298
G1 X-16.721 Y12.265 E15.46386
G1 X-17.156 Y11.982 E15.51097
G1 X-17.876 Y11.460 E15.59186
G1 X-18.364 Y11.064 E15.64897
G1 X-19.025 Y10.469 E15.72987
G1 X-19.469 Y10.025 E15.78698
G1 X-20.064 Y9.364 E15.86788
G1 X-20.459 Y8.876 E15.92498
G1 X-20.982 Y8.156 E16.00588
G1 X-21.325 Y7.629 E16.06299
G1 X-21.769 Y6.859 E16.14388
G1 X-22.005 Y6.397 E16.19099
G1 X-22.416 Y5.486 E16.28187
G1 X-22.641 Y4.900 E16.33899
G1 X-22.916 Y4.054 E16.41987
G1 X-23.050 Y3.553 E16.46699
G1 X-23.264 Y2.577 E16.55787
G1 X-23.362 Y1.957 E16.61499
G1 X-23.455 Y1.072 E16.69587
G1 X-23.482 Y0.555 E16.74298
G1 X-23.488 Y-0.445 E16.83386
G1 X-23.455 Y-1.072 E16.89097
G1 X-23.362 Y-1.957 E16.97186
G1 X-23.264 Y-2.577 E17.02897
G1 X-23.079 Y-3.447 E17.10987
G1 X-22.916 Y-4.054 E17.16699
G1 X-22.641 Y-4.900 E17.24788
G1 X-22.416 Y-5.487 E17.30499
G1 X-22.054 Y-6.299 E17.38588
G1 X-21.819 Y-6.761 E17.43299
G1 X-21.324 Y-7.629 E17.52387
G1 X-20.982 Y-8.156 E17.58097
G1 X-20.460 Y-8.876 E17.66187
G1 X-20.064 Y-9.364 E17.71898
G1 X-19.469 Y-10.025 E17.79987
G1 X-19.025 Y-10.469 E17.85699
G1 X-18.364 Y-11.064 E17.93788
G1 X-17.876 Y-11.460 E17.99499
G1 X-17.156 Y-11.982 E18.07588
G1 X-16.629 Y-12.324 E18.13299
G1 X-15.859 Y-12.769 E18.21388
G1 X-15.299 Y-13.054 E18.27099
G1 X-14.487 Y-13.416 E18.35188
G1 X-13.900 Y-13.641 E18.40899
G1 X-13.054 Y-13.916 E18.48988
G1 X-12.447 Y-14.079 E18.54699
G1 X-11.577 Y-14.264 E18.62790
G1 X-10.957 Y-14.362 E18.68501
G1 X-10.072 Y-14.455 E18.76589
G1 X-9.000 Y-14.500 E18.86346
G1 X9.445 Y-14.488 E20.54063
G1 X10.072 Y-14.455 E20.59775 F1610.607
G1 X10.957 Y-14.362 E20.67863
G1 X11.577 Y-14.264 E20.73575
G1 X12.447 Y-14.079 E20.81665
G1 X13.054 Y-13.916 E20.87376
G1 X13.900 Y-13.641 E20.95465
G1 X14.486 Y-13.416 E21.01176
G1 X15.299 Y-13.054 E21.09265
G1 X15.859 Y-12.769 E21.14976
G1 X16.629 Y-12.325 E21.23065
G1 X17.156 Y-11.982 E21.28776
G1 X17.876 Y-11.460 E21.36866
G1 X18.364 Y-11.064 E21.42577
G1 X19.025 Y-10.469 E21.50667
G1 X19.469 Y-10.025 E21.56377
G1 X20.064 Y-9.364 E21.64467
G1 X20.460 Y-8.876 E21.70178
G1 X20.982 Y-8.156 E21.78267
G1 X21.324 Y-7.629 E21.83978
G1 X21.769 Y-6.859 E21.92068
G1 X22.054 Y-6.299 E21.97778
G1 X22.416 Y-5.486 E22.05868
G1 X22.641 Y-4.900 E22.11579
G1 X22.916 Y-4.054 E22.19668
G1 X23.079 Y-3.447 E22.25379
G1 X23.264 Y-2.577 E22.33469
G1 X23.362 Y-1.957 E22.39180
G1 X23.455 Y-1.072 E22.47269
G1 X23.488 Y-0.445 E22.52980
G1 X23.488 Y0.445 E22.61069
G1 X23.455 Y1.072 E22.66780
G1 X23.362 Y1.957 E22.74869
G1 X23.264 Y2.577 E22.80580
G1 X23.079 Y3.447 E22.88671
G1 X22.916 Y4.054 E22.94381
G1 X22.641 Y4.900 E23.02471
G1 X22.416 Y5.486 E23.08181
G1 X22.054 Y6.299 E23.16271
G1 X21.769 Y6.859 E23.21982
G1 X21.324 Y7.629 E23.30071
G1 X20.982 Y8.156 E23.35782
G1 X20.459 Y8.876 E23.43872
G1 X20.064 Y9.364 E23.49582
G1 X19.469 Y10.025 E23.57672
G1 X19.025 Y10.469 E23.63383
G1 X18.364 Y11.064 E23.71472
G1 X17.876 Y11.459 E23.77183
G1 X17.156 Y11.982 E23.85273
G1 X16.629 Y12.324 E23.90983
G1 X15.859 Y12.769 E23.99072
G1 X15.299 Y13.054 E24.04784
G1 X14.486 Y13.416 E24.12873
G1 X13.900 Y13.641 E24.18584
G1 X13.054 Y13.916 E24.26673
G1 X12.447 Y14.079 E24.32384
G1 X11.577 Y14.264 E24.40474
G1 X10.957 Y14.362 E24.46185
G1 X10.072 Y14.455 E24.54274
G1 X9.000 Y14.500 E24.64030
G1 X0.060 Y14.500 E25.45321
G1 X0.000 Y13.875 F7800.000
G1 X-9.000 Y13.875 E26.27158 F1610.607
G1 X-10.039 Y13.831 E26.36617
G1 X-10.859 Y13.745 E26.44111
G1 X-11.479 Y13.647 E26.49822
G1 X-12.286 Y13.475 E26.57318
G1 X-12.892 Y13.313 E26.63028
G1 X-13.676 Y13.058 E26.70523
G1 X-14.262 Y12.833 E26.76234
G1 X-15.015 Y12.498 E26.83728
G1 X-15.575 Y12.213 E26.89439
G1 X-16.289 Y11.800 E26.96934
G1 X-16.816 Y11.458 E27.02645
G1 X-17.482 Y10.974 E27.10139
G1 X-17.970 Y10.579 E27.15850
G1 X-18.583 Y10.027 E27.23345
G1 X-19.027 Y9.583 E27.29056
G1 X-19.579 Y8.970 E27.36551
G1 X-19.974 Y8.482 E27.42261
G1 X-20.458 Y7.816 E27.49756
G1 X-20.800 Y7.289 E27.55468
G1 X-21.213 Y6.575 E27.62962
G1 X-21.448 Y6.113 E27.67673
G1 X-21.833 Y5.262 E27.76166
G1 X-22.058 Y4.676 E27.81877
G1 X-22.313 Y3.892 E27.89371
G1 X-22.447 Y3.392 E27.94083
G1 X-22.647 Y2.479 E28.02577
G1 X-22.745 Y1.859 E28.08288
G1 X-22.831 Y1.039 E28.15782
G1 X-22.858 Y0.522 E28.20493
G1 X-22.864 Y-0.412 E28.28986
G1 X-22.831 Y-1.039 E28.34697
G1 X-22.745 Y-1.859 E28.42191
G1 X-22.647 Y-2.479 E28.47902
G1 X-22.475 Y-3.286 E28.55398
G1 X-22.313 Y-3.892 E28.61109
G1 X-22.058 Y-4.676 E28.68603
G1 X-21.833 Y-5.263 E28.74315
G1 X-21.498 Y-6.015 E28.81809
G1 X-21.262 Y-6.477 E28.86520
G1 X-20.800 Y-7.289 E28.95013
G1 X-20.458 Y-7.816 E29.00724
G1 X-19.974 Y-8.482 E29.08219
G1 X-19.579 Y-8.970 E29.13930
G1 X-19.027 Y-9.583 E29.21424
G1 X-18.583 Y-10.027 E29.27135
G1 X-17.970 Y-10.579 E29.34630
G1 X-17.482 Y-10.974 E29.40341
G1 X-16.816 Y-11.458 E29.47836
G1 X-16.289 Y-11.800 E29.53546
G1 X-15.575 Y-12.213 E29.61041
G1 X-15.015 Y-12.498 E29.66752
G1 X-14.263 Y-12.833 E29.74245
G1 X-13.676 Y-13.058 E29.79957
G1 X-12.892 Y-13.313 E29.87451
G1 X-12.286 Y-13.475 E29.93162
G1 X-11.479 Y-13.647 E30.00658
G1 X-10.859 Y-13.745 E30.06369
G1 X-10.039 Y-13.831 E30.13863
G1 X-9.000 Y-13.875 E30.23322
G1 X9.412 Y-13.864 E31.90742
G1 X10.039 Y-13.831 E31.96454 F1610.607
G1 X10.859 Y-13.745 E32.03947
G1 X11.479 Y-13.647 E32.09659
G1 X12.286 Y-13.475 E32.17154
G1 X12.892 Y-13.313 E32.22865
G1 X13.779 Y-13.019 E32.31357
G1 X14.262 Y-12.833 E32.36069
G1 X15.015 Y-12.498 E32.43564
G1 X15.575 Y-12.213 E32.49275
G1 X16.289 Y-11.800 E32.56769
G1 X16.816 Y-11.458 E32.62480
G1 X17.482 Y-10.974 E32.69975
G1 X17.970 Y-10.579 E32.75686
G1 X18.583 Y-10.027 E32.83181
G1 X19.027 Y-9.583 E32.88891
G1 X19.579 Y-8.970 E32.96386
G1 X19.905 Y-8.568 E33.01098
G1 X20.458 Y-7.816 E33.09591
G1 X20.800 Y-7.289 E33.15301
G1 X21.213 Y-6.575 E33.22796
G1 X21.498 Y-6.015 E33.28507
G1 X21.833 Y-5.262 E33.36002
G1 X22.058 Y-4.676 E33.41712
G1 X22.313 Y-3.892 E33.49207
G1 X22.475 Y-3.286 E33.54918
G1 X22.647 Y-2.479 E33.62414
G1 X22.745 Y-1.859 E33.68124
G1 X22.831 Y-1.039 E33.75619
G1 X22.864 Y-0.412 E33.81329
G1 X22.864 Y0.412 E33.88824
G1 X22.831 Y1.039 E33.94535
G1 X22.745 Y1.859 E34.02029
G1 X22.647 Y2.479 E34.07740
G1 X22.475 Y3.286 E34.15236
G1 X22.313 Y3.892 E34.20946
G1 X22.058 Y4.676 E34.28441
G1 X21.833 Y5.262 E34.34152
G1 X21.498 Y6.015 E34.41647
G1 X21.213 Y6.575 E34.47358
G1 X20.800 Y7.289 E34.54852
G1 X20.458 Y7.816 E34.60563
G1 X19.974 Y8.482 E34.68058
G1 X19.579 Y8.970 E34.73768
G1 X19.027 Y9.583 E34.81263
G1 X18.583 Y10.027 E34.86974
G1 X17.970 Y10.579 E34.94469
G1 X17.482 Y10.974 E35.00180
G1 X16.816 Y11.458 E35.07675
G1 X16.289 Y11.800 E35.13385
G1 X15.575 Y12.213 E35.20880
G1 X15.015 Y12.498 E35.26591
G1 X14.262 Y12.833 E35.34085
G1 X13.676 Y13.058 E35.39796
G1 X12.892 Y13.313 E35.47291
G1 X12.286 Y13.475 E35.53002
G1 X11.479 Y13.647 E35.60497
G1 X10.859 Y13.745 E35.66208
G1 X10.039 Y13.831 E35.73703
G1 X9.000 Y13.875 E35.83161
G1 X0.060 Y13.875 E36.64452
G1 X0.000 Y13.250 F7800.000
G1 X-9.000 Y13.250 E37.46289 F1610.607
G1 X-10.007 Y13.207 E37.55450
G1 X-10.761 Y13.128 E37.62350
G1 X-11.382 Y13.029 E37.68060
G1 X-12.124 Y12.872 E37.74961
G1 X-12.731 Y12.709 E37.80672
G1 X-13.555 Y12.435 E37.88570
G1 X-14.039 Y12.250 E37.93282
G1 X-14.732 Y11.941 E38.00182
G1 X-15.291 Y11.656 E38.05892
G1 X-16.041 Y11.216 E38.13791
G1 X-16.475 Y10.934 E38.18502
G1 X-17.089 Y10.488 E38.25402
G1 X-17.577 Y10.093 E38.31113
G1 X-18.141 Y9.585 E38.38013
G1 X-18.508 Y9.219 E38.42724
G1 X-19.093 Y8.577 E38.50623
G1 X-19.488 Y8.089 E38.56333
G1 X-19.934 Y7.475 E38.63233
G1 X-20.276 Y6.948 E38.68945
G1 X-20.656 Y6.291 E38.75844
G1 X-20.891 Y5.830 E38.80555
G1 X-21.250 Y5.039 E38.88453
G1 X-21.475 Y4.452 E38.94165
G1 X-21.709 Y3.731 E39.01064
G1 X-21.843 Y3.230 E39.05775
G1 X-22.029 Y2.382 E39.13675
G1 X-22.128 Y1.761 E39.19386
G1 X-22.207 Y1.007 E39.26285
G1 X-22.234 Y0.489 E39.30996
G1 X-22.240 Y-0.379 E39.38895
G1 X-22.207 Y-1.007 E39.44605
G1 X-22.128 Y-1.761 E39.51505
G1 X-22.029 Y-2.382 E39.57216
G1 X-21.872 Y-3.124 E39.64117
G1 X-21.709 Y-3.731 E39.69828
G1 X-21.475 Y-4.452 E39.76727
G1 X-21.249 Y-5.039 E39.82439
G1 X-20.941 Y-5.732 E39.89338
G1 X-20.706 Y-6.193 E39.94049
G1 X-20.276 Y-6.949 E40.01948
G1 X-19.934 Y-7.475 E40.07658
G1 X-19.488 Y-8.089 E40.14559
G1 X-19.093 Y-8.577 E40.20270
G1 X-18.585 Y-9.141 E40.27169
G1 X-18.141 Y-9.585 E40.32881
G1 X-17.577 Y-10.093 E40.39780
G1 X-17.089 Y-10.488 E40.45491
G1 X-16.475 Y-10.934 E40.52391
G1 X-15.949 Y-11.276 E40.58102
G1 X-15.291 Y-11.656 E40.65002
G1 X-14.732 Y-11.941 E40.70713
G1 X-14.039 Y-12.249 E40.77612
G1 X-13.452 Y-12.475 E40.83323
G1 X-12.731 Y-12.709 E40.90223
G1 X-12.124 Y-12.872 E40.95934
G1 X-11.382 Y-13.029 E41.02835
G1 X-10.761 Y-13.128 E41.08546
G1 X-10.007 Y-13.207 E41.15445
G1 X-9.000 Y-13.250 E41.24607
G1 X9.379 Y-13.240 E42.91729
G1 X10.007 Y-13.207 E42.97441 F1610.607
G1 X10.761 Y-13.128 E43.04340
G1 X11.382 Y-13.029 E43.10051
G1 X12.230 Y-12.843 E43.17950
G1 X12.731 Y-12.709 E43.22662
G1 X13.452 Y-12.475 E43.29561
G1 X14.039 Y-12.250 E43.35272
G1 X14.732 Y-11.941 E43.42172
G1 X15.291 Y-11.656 E43.47883
G1 X15.948 Y-11.276 E43.54782
G1 X16.475 Y-10.934 E43.60493
G1 X17.089 Y-10.488 E43.67394
G1 X17.577 Y-10.093 E43.73104
G1 X18.141 Y-9.585 E43.80005
G1 X18.585 Y-9.141 E43.85715
G1 X19.093 Y-8.577 E43.92615
G1 X19.488 Y-8.089 E43.98326
G1 X19.934 Y-7.475 E44.05226
G1 X20.276 Y-6.949 E44.10937
G1 X20.656 Y-6.291 E44.17837
G1 X20.941 Y-5.732 E44.23548
G1 X21.250 Y-5.039 E44.30448
G1 X21.475 Y-4.452 E44.36158
G1 X21.709 Y-3.731 E44.43058
G1 X21.872 Y-3.124 E44.48769
G1 X22.029 Y-2.382 E44.55670
G1 X22.128 Y-1.761 E44.61381
G1 X22.207 Y-1.007 E44.68280
G1 X22.240 Y-0.379 E44.73991
G1 X22.240 Y0.379 E44.80891
G1 X22.207 Y1.007 E44.86602
G1 X22.128 Y1.761 E44.93502
G1 X22.029 Y2.382 E44.99212
G1 X21.872 Y3.124 E45.06113
G1 X21.709 Y3.731 E45.11824
G1 X21.475 Y4.452 E45.18724
G1 X21.250 Y5.039 E45.24435
G1 X20.941 Y5.732 E45.31335
G1 X20.656 Y6.291 E45.37046
G1 X20.276 Y6.949 E45.43945
G1 X19.934 Y7.475 E45.49656
G1 X19.488 Y8.089 E45.56556
G1 X19.093 Y8.577 E45.62267
G1 X18.585 Y9.141 E45.69167
G1 X18.141 Y9.585 E45.74878
G1 X17.577 Y10.093 E45.81778
G1 X17.089 Y10.488 E45.87489
G1 X16.475 Y10.934 E45.94389
G1 X15.949 Y11.276 E46.00100
G1 X15.291 Y11.656 E46.06999
G1 X14.732 Y11.941 E46.12710
G1 X14.039 Y12.250 E46.19610
G1 X13.452 Y12.475 E46.25321
G1 X12.731 Y12.709 E46.32221
G1 X12.124 Y12.872 E46.37932
G1 X11.382 Y13.029 E46.44833
G1 X10.761 Y13.128 E46.50543
G1 X10.007 Y13.207 E46.57443
G1 X9.000 Y13.250 E46.66604
G1 X0.060 Y13.250 E47.47895
G1 X0.000 Y12.625 F7800.000
G1 X-9.000 Y12.625 E48.29732 F1610.607
G1 X-9.974 Y12.583 E48.38596
G1 X-10.663 Y12.510 E48.44901
G1 X-11.284 Y12.412 E48.50611
G1 X-11.962 Y12.268 E48.56917
G1 X-12.569 Y12.105 E48.62628
G1 X-13.228 Y11.891 E48.68933
G1 X-13.815 Y11.666 E48.74644
G1 X-14.448 Y11.384 E48.80949
G1 X-15.008 Y11.099 E48.86660
G1 X-15.608 Y10.752 E48.92965
G1 X-16.135 Y10.410 E48.98676
G1 X-16.696 Y10.003 E49.04981
G1 X-17.184 Y9.607 E49.10692
G1 X-17.699 Y9.143 E49.16997
G1 X-18.143 Y8.699 E49.22708
G1 X-18.607 Y8.184 E49.29014
G1 X-19.003 Y7.696 E49.34724
G1 X-19.410 Y7.135 E49.41030
G1 X-19.752 Y6.608 E49.46741
G1 X-20.099 Y6.008 E49.53046
G1 X-20.384 Y5.448 E49.58757
G1 X-20.666 Y4.815 E49.65061
G1 X-20.852 Y4.331 E49.69773
G1 X-21.105 Y3.569 E49.77076
G1 X-21.268 Y2.962 E49.82788
G1 X-21.412 Y2.284 E49.89093
G1 X-21.510 Y1.663 E49.94804
G1 X-21.583 Y0.974 E50.01109
G1 X-21.610 Y0.456 E50.05821
G1 X-21.616 Y-0.347 E50.13124
G1 X-21.583 Y-0.974 E50.18835
G1 X-21.510 Y-1.663 E50.25139
