; generated by Slic3r 1.2.9 on 2016-09-30 at 18:42:49

; external perimeters extrusion width = 0.40mm
; perimeters extrusion width = 0.48mm
; infill extrusion width = 0.48mm
; solid infill extrusion width = 0.48mm
; top infill extrusion width = 0.48mm

M107
M104 S210 ; set temperature
G28 ; home all axes
G1 Z5 F5000 ; lift nozzle

M109 S210 ; wait for temperature to be reached
G21 ; set units to millimeters
G90 ; use absolute coordinates
M82 ; use absolute distances for extrusion
G92 E0
G1 Z0.350 F7800.000
G1 E-2.00000 F2400.00000
G92 E0
G1 X-1.864 Y-29.281 F7800.000
G1 E2.00000 F2400.00000
G1 X-0.478 Y-29.362 E2.12624 F1800.000
G1 X0.491 Y-29.361 E2.21437
G1 X56.102 Y-25.829 E7.28125 F1800.000
G1 X56.949 Y-25.735 E7.35875
G1 X57.467 Y-25.653 E7.40642
G1 X58.400 Y-25.454 E7.49316
G1 X58.906 Y-25.319 E7.54076
G1 X59.815 Y-25.024 E7.62772
G1 X60.304 Y-24.836 E7.67533
G1 X61.176 Y-24.448 E7.76212
G1 X61.642 Y-24.210 E7.80970
G1 X62.469 Y-23.733 E7.89651
G1 X62.908 Y-23.448 E7.94409
G1 X63.681 Y-22.886 E8.03095
G1 X64.088 Y-22.557 E8.07855
G1 X64.798 Y-21.918 E8.16542
G1 X65.168 Y-21.548 E8.21300
G1 X65.807 Y-20.838 E8.29985
G1 X66.136 Y-20.431 E8.34745
G1 X66.698 Y-19.658 E8.43431
G1 X66.984 Y-19.218 E8.48204
G1 X67.460 Y-18.393 E8.56869
G1 X67.698 Y-17.926 E8.61628
G1 X68.086 Y-17.054 E8.70308
G1 X68.273 Y-16.566 E8.75067
G1 X68.569 Y-15.656 E8.83763
G1 X68.705 Y-15.150 E8.88532
G1 X68.903 Y-14.217 E8.97200
G1 X68.985 Y-13.700 E9.01960
G1 X69.085 Y-12.750 E9.10641
G1 X69.112 Y-12.228 E9.15400
G1 X69.124 Y18.250 E11.92534
G1 X69.101 Y18.939 E11.98798
G1 X68.969 Y20.092 E12.09359
G1 X68.770 Y21.028 E12.18058
G1 X68.346 Y22.332 E12.30527
G1 X67.956 Y23.208 E12.39245
G1 X67.385 Y24.219 E12.49800
G1 X66.578 Y25.329 E12.62281
G1 X65.791 Y26.188 E12.72870
G1 X64.917 Y26.959 E12.83469
G1 X63.969 Y27.635 E12.94059
G1 X62.956 Y28.207 E13.04633
G1 X61.887 Y28.671 E13.15231
G1 X60.778 Y29.020 E13.25806
G1 X59.637 Y29.251 E13.36394
G1 X58.478 Y29.362 E13.46980
G1 X-58.000 Y29.374 E24.06106
G1 X-58.687 Y29.351 E24.12354
G1 X-59.636 Y29.251 E24.21033
G1 X-60.777 Y29.020 E24.31622
G1 X-61.886 Y28.671 E24.42193
G1 X-62.956 Y28.207 E24.52800
G1 X-63.968 Y27.635 E24.63365
G1 X-64.918 Y26.959 E24.73964
G1 X-65.791 Y26.188 E24.84559
G1 X-66.578 Y25.329 E24.95153
G1 X-67.385 Y24.219 E25.07630
G1 X-67.956 Y23.208 E25.18190
G1 X-68.346 Y22.333 E25.26902
G1 X-68.770 Y21.027 E25.39382
G1 X-68.969 Y20.091 E25.48084
G1 X-69.101 Y18.939 E25.58634
G1 X-69.124 Y18.250 E25.64898
G1 X-69.112 Y-12.228 E28.42031
G1 X-69.085 Y-12.751 E28.46794
G1 X-68.985 Y-13.700 E28.55474
G1 X-68.903 Y-14.217 E28.60234
G1 X-68.704 Y-15.150 E28.68909
G1 X-68.569 Y-15.656 E28.73673
G1 X-68.273 Y-16.566 E28.82366
G1 X-68.086 Y-17.054 E28.87125
G1 X-67.698 Y-17.926 E28.95804
G1 X-67.460 Y-18.393 E29.00567
G1 X-66.983 Y-19.219 E29.09243
G1 X-66.698 Y-19.658 E29.14001
G1 X-66.136 Y-20.431 E29.22687
G1 X-65.807 Y-20.838 E29.27447
G1 X-65.168 Y-21.548 E29.36133
G1 X-64.798 Y-21.918 E29.40891
G1 X-64.088 Y-22.557 E29.49576
G1 X-63.681 Y-22.886 E29.54337
G1 X-62.909 Y-23.447 E29.63017
G1 X-62.469 Y-23.733 E29.67781
G1 X-61.643 Y-24.210 E29.76460
G1 X-61.176 Y-24.448 E29.81220
G1 X-60.304 Y-24.836 E29.89899
G1 X-59.816 Y-25.023 E29.94658
G1 X-58.906 Y-25.319 E30.03356
G1 X-58.400 Y-25.454 E30.08115
G1 X-57.467 Y-25.653 E30.16790
G1 X-56.950 Y-25.735 E30.21550
G1 X-56.102 Y-25.829 E30.29307
G1 X-1.924 Y-29.277 E35.22946
G1 X-1.824 Y-28.658 F7800.000
G1 X-0.445 Y-28.738 E35.35507 F1800.000
G1 X0.458 Y-28.737 E35.43725
G1 X56.063 Y-25.205 E40.50349 F1800.000
G1 X56.852 Y-25.118 E40.57568
G1 X57.369 Y-25.036 E40.62335
G1 X58.239 Y-24.851 E40.70415
G1 X58.744 Y-24.715 E40.75175
G1 X59.591 Y-24.440 E40.83275
G1 X60.080 Y-24.252 E40.88037
G1 X60.892 Y-23.891 E40.96121
G1 X61.359 Y-23.653 E41.00879
G1 X62.129 Y-23.209 E41.08965
G1 X62.568 Y-22.924 E41.13724
G1 X63.288 Y-22.401 E41.21815
G1 X63.694 Y-22.071 E41.26574
G1 X64.356 Y-21.476 E41.34666
G1 X64.726 Y-21.106 E41.39424
G1 X65.321 Y-20.445 E41.47515
G1 X65.651 Y-20.038 E41.52275
G1 X66.174 Y-19.318 E41.60366
G1 X66.459 Y-18.878 E41.65138
G1 X66.903 Y-18.109 E41.73210
G1 X67.141 Y-17.643 E41.77969
G1 X67.503 Y-16.830 E41.86054
G1 X67.690 Y-16.342 E41.90813
G1 X67.965 Y-15.494 E41.98914
G1 X68.101 Y-14.988 E42.03681
G1 X68.286 Y-14.119 E42.11756
G1 X68.367 Y-13.602 E42.16516
G1 X68.460 Y-12.718 E42.24603
G1 X68.488 Y-12.195 E42.29361
G1 X68.500 Y18.250 E45.06198
G1 X68.477 Y18.906 E45.12164
G1 X68.351 Y19.995 E45.22131
G1 X68.166 Y20.866 E45.30234
G1 X67.763 Y22.108 E45.42110
G1 X67.399 Y22.924 E45.50231
G1 X66.861 Y23.879 E45.60193
G1 X66.093 Y24.936 E45.72080
G1 X65.349 Y25.746 E45.82074
G1 X64.524 Y26.474 E45.92077
G1 X63.629 Y27.111 E46.02072
G1 X62.673 Y27.650 E46.12053
G1 X61.663 Y28.087 E46.22055
G1 X60.616 Y28.416 E46.32036
G1 X59.539 Y28.634 E46.42029
G1 X58.445 Y28.738 E46.52020
G1 X-58.000 Y28.750 E57.10849
G1 X-58.654 Y28.727 E57.16800
G1 X-59.538 Y28.634 E57.24884
G1 X-60.616 Y28.416 E57.34878
G1 X-61.662 Y28.088 E57.44855
G1 X-62.673 Y27.650 E57.54866
G1 X-63.628 Y27.111 E57.64838
G1 X-64.524 Y26.474 E57.74842
G1 X-65.349 Y25.746 E57.84841
G1 X-66.093 Y24.936 E57.94839
G1 X-66.861 Y23.879 E58.06722
G1 X-67.399 Y22.924 E58.16690
G1 X-67.762 Y22.109 E58.24805
G1 X-68.166 Y20.866 E58.36691
G1 X-68.352 Y19.994 E58.44797
G1 X-68.477 Y18.906 E58.54754
G1 X-68.500 Y18.250 E58.60720
G1 X-68.488 Y-12.195 E61.37555
G1 X-68.460 Y-12.718 E61.42318
G1 X-68.367 Y-13.602 E61.50404
G1 X-68.286 Y-14.119 E61.55163
G1 X-68.101 Y-14.989 E61.63245
G1 X-67.965 Y-15.495 E61.68008
G1 X-67.690 Y-16.342 E61.76105
G1 X-67.502 Y-16.830 E61.80864
G1 X-67.141 Y-17.643 E61.88949
G1 X-66.903 Y-18.109 E61.93712
G1 X-66.459 Y-18.879 E62.01793
G1 X-66.174 Y-19.318 E62.06552
G1 X-65.651 Y-20.038 E62.14643
G1 X-65.321 Y-20.445 E62.19403
G1 X-64.726 Y-21.106 E62.27494
G1 X-64.356 Y-21.476 E62.32252
G1 X-63.695 Y-22.071 E62.40342
G1 X-63.288 Y-22.401 E62.45103
G1 X-62.568 Y-22.923 E62.53189
G1 X-62.129 Y-23.209 E62.57953
G1 X-61.359 Y-23.653 E62.66037
G1 X-60.893 Y-23.891 E62.70797
G1 X-60.080 Y-24.252 E62.78882
G1 X-59.592 Y-24.440 E62.83641
G1 X-58.744 Y-24.715 E62.91743
G1 X-58.239 Y-24.851 E62.96501
G1 X-57.369 Y-25.036 E63.04583
G1 X-56.852 Y-25.117 E63.09342
G1 X-56.063 Y-25.205 E63.16568
G1 X-1.884 Y-28.654 E68.10208
G1 X-1.785 Y-28.034 F7800.000
G1 X-0.413 Y-28.114 E68.22705 F1800.000
G1 X0.426 Y-28.113 E68.30328
G1 X56.023 Y-24.581 E73.36888 F1800.000
G1 X56.754 Y-24.500 E73.43577
G1 X57.272 Y-24.418 E73.48343
G1 X58.077 Y-24.247 E73.55829
G1 X58.583 Y-24.112 E73.60589
G1 X59.368 Y-23.857 E73.68093
G1 X59.856 Y-23.669 E73.72855
G1 X60.609 Y-23.334 E73.80344
G1 X61.075 Y-23.096 E73.85103
G1 X61.789 Y-22.685 E73.92594
G1 X62.227 Y-22.400 E73.97353
G1 X62.894 Y-21.915 E74.04849
G1 X63.301 Y-21.586 E74.09608
G1 X63.914 Y-21.034 E74.17106
G1 X64.284 Y-20.664 E74.21864
G1 X64.836 Y-20.051 E74.29359
G1 X65.165 Y-19.644 E74.34119
G1 X65.650 Y-18.978 E74.41615
G1 X65.935 Y-18.537 E74.46387
G1 X66.346 Y-17.825 E74.53865
G1 X66.584 Y-17.359 E74.58624
G1 X66.919 Y-16.606 E74.66115
G1 X67.107 Y-16.118 E74.70874
G1 X67.362 Y-15.333 E74.78379
G1 X67.497 Y-14.826 E74.83146
G1 X67.668 Y-14.022 E74.90627
G1 X67.750 Y-13.505 E74.95387
G1 X67.836 Y-12.685 E75.02879
G1 X67.875 Y-11.750 E75.11388
G1 X67.875 Y18.250 E77.84177
G1 X67.853 Y18.873 E77.89844
G1 X67.734 Y19.897 E77.99219
G1 X67.562 Y20.705 E78.06726
G1 X67.179 Y21.885 E78.18008
G1 X66.747 Y22.828 E78.27447
G1 X66.222 Y23.714 E78.36808
G1 X65.739 Y24.380 E78.44294
G1 X65.056 Y25.155 E78.53680
G1 X64.294 Y25.856 E78.63096
G1 X63.465 Y26.472 E78.72491
G1 X62.389 Y27.093 E78.83787
G1 X61.439 Y27.504 E78.93194
G1 X60.454 Y27.813 E79.02581
G1 X59.441 Y28.017 E79.11979
G1 X58.622 Y28.103 E79.19471
G1 X58.000 Y28.125 E79.25127
G1 X-58.412 Y28.114 E89.83658
G1 X-59.440 Y28.017 E89.93050
G1 X-60.454 Y27.813 E90.02449
G1 X-61.439 Y27.504 E90.11833
G1 X-62.389 Y27.093 E90.21248
G1 X-63.288 Y26.587 E90.30626
G1 X-64.131 Y25.988 E90.40034
G1 X-64.907 Y25.304 E90.49438
G1 X-65.607 Y24.543 E90.58841
G1 X-66.337 Y23.538 E90.70130
G1 X-66.843 Y22.640 E90.79505
G1 X-67.179 Y21.885 E90.87023
G1 X-67.563 Y20.704 E90.98314
G1 X-67.734 Y19.896 E91.05824
G1 X-67.853 Y18.873 E91.15190
G1 X-67.875 Y18.250 E91.20857
G1 X-67.864 Y-12.162 E93.97395
G1 X-67.836 Y-12.685 E94.02157
G1 X-67.750 Y-13.505 E94.09648
G1 X-67.668 Y-14.022 E94.14408
G1 X-67.497 Y-14.827 E94.21895
G1 X-67.362 Y-15.333 E94.26658
G1 X-67.107 Y-16.118 E94.34160
G1 X-66.919 Y-16.606 E94.38919
G1 X-66.584 Y-17.359 E94.46409
G1 X-66.346 Y-17.825 E94.51172
G1 X-65.935 Y-18.539 E94.58659
G1 X-65.650 Y-18.977 E94.63418
G1 X-65.165 Y-19.644 E94.70914
G1 X-64.836 Y-20.051 E94.75674
G1 X-64.284 Y-20.664 E94.83170
G1 X-63.914 Y-21.034 E94.87928
G1 X-63.301 Y-21.585 E94.95424
G1 X-62.894 Y-21.915 E95.00185
G1 X-62.228 Y-22.399 E95.07676
G1 X-61.789 Y-22.685 E95.12439
G1 X-61.065 Y-23.102 E95.20034
G1 X-60.609 Y-23.334 E95.24689
G1 X-59.856 Y-23.669 E95.32179
G1 X-59.368 Y-23.857 E95.36938
G1 X-58.583 Y-24.112 E95.44445
G1 X-58.077 Y-24.247 E95.49203
G1 X-57.272 Y-24.418 E95.56691
G1 X-56.755 Y-24.500 E95.61450
G1 X-56.023 Y-24.581 E95.68145
G1 X-1.844 Y-28.030 E100.61784
G1 X-1.745 Y-27.410 F7800.000
G1 X-0.380 Y-27.490 E100.74218 F1800.000
G1 X0.393 Y-27.489 E100.81246
G1 X55.983 Y-23.958 E105.87743 F1800.000
G1 X56.656 Y-23.883 E105.93900
G1 X57.174 Y-23.801 E105.98666
G1 X57.915 Y-23.644 E106.05558
G1 X58.421 Y-23.508 E106.10318
G1 X59.144 Y-23.273 E106.17227
G1 X59.632 Y-23.086 E106.21988
G1 X60.325 Y-22.777 E106.28883
G1 X60.791 Y-22.540 E106.33642
G1 X61.448 Y-22.160 E106.40539
G1 X61.887 Y-21.875 E106.45297
G1 X62.501 Y-21.429 E106.52198
G1 X62.908 Y-21.100 E106.56958
G1 X63.472 Y-20.592 E106.63860
G1 X63.842 Y-20.222 E106.68618
G1 X64.350 Y-19.658 E106.75519
G1 X64.679 Y-19.251 E106.80279
G1 X65.125 Y-18.637 E106.87180
G1 X65.411 Y-18.197 E106.91951
G1 X65.790 Y-17.541 E106.98836
G1 X66.027 Y-17.075 E107.03594
G1 X66.336 Y-16.382 E107.10491
G1 X66.523 Y-15.894 E107.15250
G1 X66.758 Y-15.171 E107.22159
G1 X66.894 Y-14.665 E107.26926
G1 X67.051 Y-13.924 E107.33813
G1 X67.133 Y-13.407 E107.38573
G1 X67.212 Y-12.652 E107.45471
G1 X67.250 Y-11.750 E107.53682
G1 X67.250 Y18.250 E110.26471
G1 X67.229 Y18.840 E110.31840
G1 X67.117 Y19.799 E110.40621
G1 X66.959 Y20.543 E110.47533
G1 X66.596 Y21.661 E110.58221
G1 X66.190 Y22.544 E110.67062
G1 X65.698 Y23.374 E110.75831
G1 X65.253 Y23.987 E110.82723
G1 X64.614 Y24.713 E110.91515
G1 X63.901 Y25.370 E111.00334
G1 X63.124 Y25.948 E111.09135
G1 X62.105 Y26.537 E111.19837
G1 X61.215 Y26.921 E111.28648
G1 X60.292 Y27.209 E111.37441
G1 X59.343 Y27.400 E111.46244
G1 X58.589 Y27.479 E111.53142
G1 X58.000 Y27.500 E111.58500
G1 X-58.380 Y27.490 E122.16734
G1 X-59.343 Y27.400 E122.25531
G1 X-60.292 Y27.209 E122.34335
G1 X-61.215 Y26.921 E122.43125
G1 X-62.105 Y26.536 E122.51944
G1 X-62.947 Y26.063 E122.60729
G1 X-63.738 Y25.502 E122.69541
G1 X-64.465 Y24.862 E122.78350
G1 X-65.121 Y24.150 E122.87158
G1 X-65.812 Y23.198 E122.97853
G1 X-66.286 Y22.356 E123.06634
G1 X-66.596 Y21.661 E123.13556
G1 X-66.959 Y20.542 E123.24253
G1 X-67.117 Y19.798 E123.31167
G1 X-67.229 Y18.840 E123.39940
G1 X-67.250 Y18.250 E123.45309
G1 X-67.240 Y-12.130 E126.21549
G1 X-67.212 Y-12.653 E126.26311
G1 X-67.133 Y-13.407 E126.33208
G1 X-67.051 Y-13.924 E126.37967
G1 X-66.894 Y-14.665 E126.44860
G1 X-66.758 Y-15.171 E126.49623
G1 X-66.523 Y-15.894 E126.56530
G1 X-66.336 Y-16.382 E126.61289
G1 X-66.027 Y-17.075 E126.68185
G1 X-65.789 Y-17.542 E126.72947
G1 X-65.410 Y-18.198 E126.79840
G1 X-65.125 Y-18.637 E126.84599
G1 X-64.679 Y-19.251 E126.91500
G1 X-64.350 Y-19.658 E126.96260
G1 X-63.842 Y-20.222 E127.03161
G1 X-63.472 Y-20.592 E127.07919
G1 X-62.908 Y-21.100 E127.14820
G1 X-62.501 Y-21.429 E127.19581
G1 X-61.888 Y-21.875 E127.26477
G1 X-61.448 Y-22.160 E127.31240
G1 X-60.781 Y-22.545 E127.38240
G1 X-60.325 Y-22.777 E127.42896
G1 X-59.632 Y-23.086 E127.49792
G1 X-59.144 Y-23.273 E127.54551
G1 X-58.421 Y-23.508 E127.61462
G1 X-57.915 Y-23.644 E127.66220
G1 X-57.174 Y-23.801 E127.73113
G1 X-56.657 Y-23.883 E127.77873
G1 X-55.983 Y-23.958 E127.84036
G1 X-1.805 Y-27.407 E132.77675
G1 X-1.705 Y-26.787 F7800.000
G1 X-0.347 Y-26.866 E132.90046 F1800.000
G1 X0.360 Y-26.865 E132.96479
G1 X55.943 Y-23.334 E138.02912 F1800.000
G1 X56.559 Y-23.266 E138.08539
G1 X57.076 Y-23.184 E138.13304
G1 X57.754 Y-23.040 E138.19602
G1 X58.259 Y-22.905 E138.24361
G1 X58.920 Y-22.690 E138.30675
G1 X59.408 Y-22.502 E138.35436
G1 X60.041 Y-22.220 E138.41737
G1 X60.508 Y-21.983 E138.46495
G1 X61.108 Y-21.636 E138.52798
G1 X61.547 Y-21.351 E138.57556
G1 X62.108 Y-20.944 E138.63863
G1 X62.515 Y-20.614 E138.68622
G1 X63.030 Y-20.150 E138.74930
G1 X63.400 Y-19.780 E138.79688
G1 X63.864 Y-19.265 E138.85994
G1 X64.194 Y-18.858 E138.90753
G1 X64.601 Y-18.297 E138.97060
G1 X64.887 Y-17.857 E139.01829
G1 X65.233 Y-17.258 E139.08121
G1 X65.470 Y-16.791 E139.12880
G1 X65.752 Y-16.158 E139.19182
G1 X65.940 Y-15.670 E139.23941
G1 X66.155 Y-15.009 E139.30255
G1 X66.290 Y-14.503 E139.35020
G1 X66.434 Y-13.826 E139.41314
G1 X66.516 Y-13.309 E139.46074
G1 X66.588 Y-12.620 E139.52377
G1 X66.625 Y-11.750 E139.60291
G1 X66.616 Y18.598 E142.36245
G1 X66.500 Y19.702 E142.46334
G1 X66.355 Y20.381 E142.52650
G1 X66.087 Y21.241 E142.60845
G1 X65.633 Y22.260 E142.70988
G1 X65.174 Y23.034 E142.79165
G1 X64.767 Y23.594 E142.85463
G1 X64.172 Y24.271 E142.93661
G1 X63.508 Y24.885 E143.01884
G1 X62.784 Y25.424 E143.10090
G1 X62.008 Y25.885 E143.18294
G1 X61.187 Y26.262 E143.26511
G1 X60.333 Y26.551 E143.34712
G1 X59.452 Y26.750 E143.42920
G1 X58.347 Y26.866 E143.53028
G1 X-58.000 Y26.875 E154.10964
G1 X-58.556 Y26.855 E154.16022
G1 X-59.245 Y26.782 E154.22323
G1 X-60.130 Y26.605 E154.30532
G1 X-60.991 Y26.337 E154.38728
G1 X-61.821 Y25.980 E154.46951
G1 X-62.783 Y25.424 E154.57050
G1 X-63.507 Y24.885 E154.65260
G1 X-64.171 Y24.272 E154.73474
G1 X-64.767 Y23.594 E154.81686
G1 X-65.174 Y23.033 E154.87985
G1 X-65.634 Y22.259 E154.96173
G1 X-66.087 Y21.241 E155.06303
G1 X-66.355 Y20.380 E155.14503
G1 X-66.500 Y19.701 E155.20821
G1 X-66.616 Y18.597 E155.30910
G1 X-66.625 Y-11.750 E158.06856
G1 X-66.588 Y-12.620 E158.14772
G1 X-66.516 Y-13.309 E158.21075
G1 X-66.434 Y-13.826 E158.25834
G1 X-66.290 Y-14.504 E158.32133
G1 X-66.154 Y-15.010 E158.36896
G1 X-65.940 Y-15.670 E158.43207
G1 X-65.752 Y-16.158 E158.47966
G1 X-65.470 Y-16.791 E158.54267
G1 X-65.233 Y-17.258 E158.59029
G1 X-64.886 Y-17.858 E158.65328
G1 X-64.601 Y-18.297 E158.70087
G1 X-64.194 Y-18.858 E158.76393
G1 X-63.864 Y-19.265 E158.81153
G1 X-63.400 Y-19.780 E158.87460
G1 X-63.030 Y-20.150 E158.92218
G1 X-62.515 Y-20.614 E158.98524
G1 X-62.108 Y-20.944 E159.03284
G1 X-61.547 Y-21.351 E159.09587
G1 X-61.108 Y-21.636 E159.14349
G1 X-60.508 Y-21.983 E159.20651
G1 X-60.041 Y-22.220 E159.25410
G1 X-59.408 Y-22.502 E159.31712
G1 X-58.920 Y-22.690 E159.36471
G1 X-58.259 Y-22.905 E159.42786
G1 X-57.754 Y-23.040 E159.47544
G1 X-57.076 Y-23.184 E159.53843
G1 X-56.559 Y-23.266 E159.58603
G1 X-55.943 Y-23.334 E159.64235
G1 X-1.765 Y-26.783 E164.57874
G1 E162.57874 F2400.00000
G92 E0
G1 X-4.281 Y-14.538 F7800.000
G1 E2.00000 F2400.00000
G1 X-2.390 Y-17.813 E2.34389 F1800.000
G1 X-1.891 Y-18.102 E2.39629
G1 X1.891 Y-18.102 E2.74027 F1800.000
G1 X2.390 Y-17.813 E2.79266
G1 X4.281 Y-14.538 E3.13655
G1 X4.281 Y-13.962 E3.18895
G1 X2.390 Y-10.687 E3.53284
G1 X1.891 Y-10.398 E3.58524
G1 X-1.891 Y-10.398 E3.92922
G1 X-2.390 Y-10.687 E3.98161
G1 X-4.281 Y-13.962 E4.32550
G1 X-4.281 Y-14.478 E4.37245
G1 X-3.656 Y-14.129 F7800.000
G1 X-3.656 Y-14.371 E4.39439 F1800.000
G1 X-1.933 Y-17.356 E4.70786
G1 X-1.724 Y-17.477 E4.72980
G1 X1.724 Y-17.477 E5.04329
G1 X1.933 Y-17.356 E5.06523
G1 X3.656 Y-14.371 E5.37870
G1 X3.656 Y-14.129 E5.40064
G1 X1.933 Y-11.144 E5.71410
G1 X1.724 Y-11.023 E5.73605
G1 X-1.724 Y-11.023 E6.04954
G1 X-1.933 Y-11.144 E6.07148
G1 X-3.626 Y-14.077 E6.37949
G1 X-3.883 Y-14.212 F7800.000
G1 E4.37949 F2400.00000
G92 E0
G1 X48.672 Y-10.205 F7800.000
