; generated by Slic3r 1.2.9 on 2016-09-29 at 14:26:31

; external perimeters extrusion width = 0.40mm
; perimeters extrusion width = 0.48mm
; infill extrusion width = 0.48mm
; solid infill extrusion width = 0.48mm
; top infill extrusion width = 0.48mm

M107
M190 S70 ; set bed temperature
M104 S210 ; set temperature
G28 ; home all axes
G29 ; Auto-level
G1 Z5 F5000 ; lift nozzle

M109 S210 ; wait for temperature to be reached
G21 ; set units to millimeters
G90 ; use absolute coordinates
M82 ; use absolute distances for extrusion
G92 E0
G1 Z0.350 F7800.000
G1 E-2.00000 F2400.00000
G92 E0
G1 X21.116 Y18.860 F7800.000
G1 E2.00000 F2400.00000
G1 X21.815 Y18.083 E2.09505 F1800.000
G1 X22.728 Y17.261 E2.20675
G1 X23.574 Y16.647 E2.30180
G1 X24.637 Y16.033 E2.41343
G1 X25.584 Y15.611 E2.50765
G1 X26.761 Y15.228 E2.62019
G1 X60.324 Y8.380 E5.73497
G1 X61.497 Y8.261 E5.84217
G1 X142.020 Y8.261 E13.16406
G1 X143.241 Y8.390 E13.27573
G1 X143.748 Y8.497 E13.32283
G1 X144.920 Y8.878 E13.43492
G1 X145.399 Y9.091 E13.48259
G1 X146.461 Y9.704 E13.59409
G1 X146.886 Y10.013 E13.64190
G1 X147.797 Y10.834 E13.75332
G1 X148.146 Y11.222 E13.80085
G1 X148.868 Y12.214 E13.91241
G1 X149.130 Y12.669 E13.96009
G1 X149.628 Y13.786 E14.07133
G1 X149.791 Y14.287 E14.11921
G1 X150.046 Y15.485 E14.23059
G1 X150.132 Y16.511 E14.32424
G1 X151.347 Y80.697 E20.16164
G1 X151.316 Y81.422 E20.22764
G1 X151.261 Y81.942 E20.27517
G1 X151.005 Y83.143 E20.38688
G1 X150.719 Y83.987 E20.46788
G1 X132.503 Y130.004 E24.96810
G1 X132.129 Y130.778 E25.04633
G1 X131.606 Y131.684 E25.14142
G1 X130.884 Y132.678 E25.25308
G1 X130.185 Y133.454 E25.34813
G1 X129.272 Y134.276 E25.45983
G1 X128.426 Y134.891 E25.55489
G1 X127.363 Y135.505 E25.66652
G1 X126.408 Y135.930 E25.76158
G1 X125.271 Y136.303 E25.87034
G1 X92.295 Y143.502 E28.93946
G1 X91.784 Y143.610 E28.98698
G1 X90.562 Y143.739 E29.09866
G1 X10.040 Y143.739 E36.42055
G1 X8.818 Y143.610 E36.53222
G1 X8.312 Y143.503 E36.57933
G1 X7.139 Y143.122 E36.69142
G1 X6.661 Y142.909 E36.73903
G1 X5.598 Y142.296 E36.85058
G1 X5.175 Y141.988 E36.89819
G1 X4.263 Y141.166 E37.00981
G1 X3.913 Y140.778 E37.05733
G1 X3.191 Y139.784 E37.16905
G1 X2.929 Y139.331 E37.21658
G1 X2.431 Y138.211 E37.32808
G1 X2.269 Y137.713 E37.37571
G1 X2.013 Y136.513 E37.48731
G1 X1.928 Y135.493 E37.58031
G1 X0.653 Y70.845 E43.45987
G1 X0.684 Y70.116 E43.52628
G1 X0.739 Y69.596 E43.57382
G1 X0.994 Y68.395 E43.68541
G1 X1.281 Y67.551 E43.76653
G1 X19.497 Y21.534 E48.26675
G1 X19.871 Y20.759 E48.34493
G1 X20.394 Y19.853 E48.44006
G1 X21.081 Y18.908 E48.54627
G1 X21.580 Y19.278 F7800.000
G1 X22.280 Y18.501 E48.64132 F1800.000
G1 X23.096 Y17.767 E48.74114
G1 X23.941 Y17.152 E48.83619
G1 X24.891 Y16.604 E48.93595
G1 X25.838 Y16.182 E49.03017
G1 X26.891 Y15.839 E49.13083
G1 X60.449 Y8.992 E52.24513
G1 X61.497 Y8.886 E52.34092
G1 X142.020 Y8.886 E59.66281
G1 X143.111 Y9.001 E59.76260
G1 X143.618 Y9.109 E59.80971
G1 X144.666 Y9.449 E59.90992
G1 X145.145 Y9.662 E59.95757
G1 X146.094 Y10.210 E60.05721
G1 X146.519 Y10.519 E60.10499
G1 X147.332 Y11.252 E60.20456
G1 X147.682 Y11.640 E60.25209
G1 X148.327 Y12.527 E60.35178
G1 X148.589 Y12.981 E60.39945
G1 X149.034 Y13.980 E60.49885
G1 X149.196 Y14.480 E60.54670
G1 X149.424 Y15.551 E60.64622
G1 X149.507 Y16.523 E60.73497
G1 X150.722 Y80.708 E66.57237
G1 X150.694 Y81.357 E66.63135
G1 X150.639 Y81.876 E66.67887
G1 X150.411 Y82.950 E66.77871
G1 X150.138 Y83.757 E66.85615
G1 X131.922 Y129.774 E71.35636
G1 X131.587 Y130.466 E71.42627
G1 X131.065 Y131.372 E71.52135
G1 X130.420 Y132.259 E71.62114
G1 X129.720 Y133.036 E71.71619
G1 X128.904 Y133.771 E71.81601
G1 X128.059 Y134.385 E71.91106
G1 X127.109 Y134.934 E72.01082
G1 X126.153 Y135.359 E72.10588
G1 X125.138 Y135.692 E72.20307
G1 X92.165 Y142.890 E75.27188
G1 X91.654 Y142.999 E75.31940
G1 X90.562 Y143.114 E75.41920
G1 X10.040 Y143.114 E82.74109
G1 X8.948 Y142.999 E82.84088
G1 X8.442 Y142.891 E82.88799
G1 X7.393 Y142.551 E82.98820
G1 X6.915 Y142.338 E83.03580
G1 X5.966 Y141.790 E83.13549
G1 X5.542 Y141.482 E83.18309
G1 X4.727 Y140.748 E83.28283
G1 X4.377 Y140.360 E83.33036
G1 X3.732 Y139.472 E83.43019
G1 X3.471 Y139.019 E83.47772
G1 X3.025 Y138.018 E83.57736
G1 X2.863 Y137.520 E83.62498
G1 X2.635 Y136.447 E83.72470
G1 X2.552 Y135.481 E83.81287
G1 X1.278 Y70.833 E89.69243
G1 X1.306 Y70.181 E89.75178
G1 X1.361 Y69.661 E89.79931
G1 X1.588 Y68.588 E89.89904
G1 X1.862 Y67.781 E89.97658
G1 X20.078 Y21.764 E94.47680
G1 X20.412 Y21.072 E94.54667
G1 X20.935 Y20.166 E94.64178
G1 X21.545 Y19.327 E94.73612
G1 X22.045 Y19.696 F7800.000
G1 X22.744 Y18.919 E94.83116 F1800.000
G1 X23.463 Y18.272 E94.91910
G1 X24.309 Y17.658 E95.01415
G1 X25.146 Y17.175 E95.10204
G1 X26.093 Y16.753 E95.19631
G1 X27.020 Y16.450 E95.28503
G1 X60.573 Y9.604 E98.39886
G1 X61.497 Y9.511 E98.48325
G1 X142.020 Y9.511 E105.80514
G1 X142.981 Y9.612 E105.89305
G1 X143.488 Y9.720 E105.94020
G1 X144.412 Y10.020 E106.02849
G1 X144.890 Y10.233 E106.07612
G1 X145.726 Y10.716 E106.16391
G1 X146.151 Y11.024 E106.21166
G1 X146.868 Y11.670 E106.29937
G1 X147.218 Y12.058 E106.34690
G1 X147.786 Y12.840 E106.43472
G1 X148.048 Y13.293 E106.48238
G1 X148.440 Y14.173 E106.56995
G1 X148.602 Y14.673 E106.61776
G1 X148.803 Y15.616 E106.70543
G1 X148.882 Y16.535 E106.78927
G1 X150.097 Y80.720 E112.62668
G1 X150.073 Y81.291 E112.67863
G1 X150.018 Y81.811 E112.72616
G1 X149.817 Y82.757 E112.81411
G1 X149.557 Y83.527 E112.88799
G1 X131.341 Y129.544 E117.38820
G1 X131.046 Y130.154 E117.44979
G1 X130.523 Y131.059 E117.54487
G1 X129.955 Y131.841 E117.63278
G1 X129.256 Y132.618 E117.72782
G1 X128.537 Y133.265 E117.81576
G1 X127.691 Y133.880 E117.91082
G1 X126.854 Y134.363 E117.99870
G1 X125.899 Y134.788 E118.09376
G1 X125.005 Y135.082 E118.17938
G1 X92.035 Y142.279 E121.24788
G1 X91.524 Y142.388 E121.29540
G1 X90.562 Y142.489 E121.38332
G1 X10.040 Y142.489 E128.70520
G1 X9.078 Y142.388 E128.79312
G1 X8.572 Y142.280 E128.84023
G1 X7.647 Y141.980 E128.92856
G1 X7.169 Y141.767 E128.97615
G1 X6.333 Y141.284 E129.06397
G1 X5.910 Y140.977 E129.11156
G1 X5.191 Y140.330 E129.19944
G1 X4.842 Y139.942 E129.24696
G1 X4.273 Y139.159 E129.33491
G1 X4.012 Y138.707 E129.38244
G1 X3.619 Y137.825 E129.47022
G1 X3.457 Y137.327 E129.51783
G1 X3.256 Y136.382 E129.60568
G1 X3.177 Y135.469 E129.68901
G1 X1.903 Y70.821 E135.56857
G1 X1.927 Y70.246 E135.62085
G1 X1.982 Y69.726 E135.66838
G1 X2.183 Y68.781 E135.75624
G1 X2.443 Y68.011 E135.83021
G1 X20.659 Y21.994 E140.33042
G1 X20.954 Y21.384 E140.39198
G1 X21.477 Y20.478 E140.48709
G1 X22.010 Y19.745 E140.56954
G1 E138.56954 F2400.00000
G92 E0
G1 X57.811 Y76.653 F7800.000
G1 E2.00000 F2400.00000
G1 X8.586 Y76.653 E6.47605 F1800.000
G1 X8.227 Y76.615 E6.50880
G1 X7.363 Y76.431 E6.58918
G1 X7.021 Y76.320 E6.62187
G1 X6.383 Y76.036 E6.68534
G1 X6.214 Y75.961 E6.70215
G1 X5.903 Y75.781 E6.73487
G1 X5.188 Y75.262 E6.81519
G1 X4.920 Y75.021 E6.84797
G1 X4.330 Y74.365 E6.92820
G1 X4.118 Y74.073 E6.96098
G1 X3.677 Y73.309 E7.04123
G1 X3.530 Y72.980 E7.07393
G1 X3.257 Y72.140 E7.15424
G1 X3.182 Y71.788 E7.18697
G1 X3.090 Y70.910 E7.26730
G1 X3.090 Y70.550 E7.30005
G1 X3.182 Y69.672 E7.38033
G1 X3.257 Y69.319 E7.41306
G1 X3.314 Y69.143 E7.42989
G1 X3.530 Y68.479 E7.49338
G1 X3.677 Y68.150 E7.52612
G1 X4.118 Y67.386 E7.60639
G1 X4.330 Y67.094 E7.63915
G1 X4.921 Y66.438 E7.71945
G1 X5.188 Y66.197 E7.75221
G1 X5.903 Y65.678 E7.83252
G1 X6.215 Y65.498 E7.86528
G1 X7.021 Y65.139 E7.94554
G1 X7.364 Y65.028 E7.97827
G1 X8.227 Y64.844 E8.05856
G1 X8.586 Y64.806 E8.09131
G1 X20.724 Y64.806 E9.19506
G1 X21.090 Y64.440 E9.24213
G1 X21.099 Y25.460 E12.78659
G1 X21.237 Y24.152 E12.90623
G1 X21.312 Y23.799 E12.93898
G1 X21.746 Y22.463 E13.06677
G1 X21.893 Y22.134 E13.09950
G1 X22.595 Y20.916 E13.22734
G1 X22.807 Y20.625 E13.26010
G1 X23.748 Y19.580 E13.38790
G1 X24.015 Y19.339 E13.42066
G1 X25.153 Y18.513 E13.54846
G1 X25.464 Y18.333 E13.58121
G1 X26.749 Y17.761 E13.70904
G1 X27.091 Y17.650 E13.74179
G1 X28.281 Y17.397 E13.85241
G1 X28.466 Y17.358 E13.86962
G1 X28.824 Y17.320 E13.90236
G1 X55.455 Y17.320 E16.32389
G1 X55.821 Y16.954 E16.37097
G1 X55.821 Y16.443 E16.41746
G1 X55.914 Y15.564 E16.49777
G1 X55.988 Y15.212 E16.53053
G1 X56.261 Y14.372 E16.61083
G1 X56.408 Y14.043 E16.64360
G1 X56.849 Y13.278 E16.72388
G1 X57.061 Y12.987 E16.75664
G1 X57.652 Y12.331 E16.83690
G1 X57.920 Y12.090 E16.86966
G1 X58.634 Y11.571 E16.94994
G1 X58.946 Y11.391 E16.98270
G1 X59.753 Y11.032 E17.06300
G1 X60.095 Y10.920 E17.09573
G1 X60.958 Y10.737 E17.17599
G1 X61.317 Y10.699 E17.20876
G1 X142.200 Y10.699 E24.56341
G1 X142.558 Y10.737 E24.59616
G1 X143.422 Y10.920 E24.67646
G1 X143.764 Y11.032 E24.70920
G1 X144.571 Y11.391 E24.78953
G1 X144.883 Y11.571 E24.82224
G1 X145.598 Y12.091 E24.90268
G1 X145.866 Y12.333 E24.93548
G1 X146.455 Y12.987 E25.01553
G1 X146.667 Y13.278 E25.04826
G1 X147.108 Y14.043 E25.12855
G1 X147.254 Y14.370 E25.16118
G1 X147.528 Y15.211 E25.24156
G1 X147.603 Y15.563 E25.27423
G1 X147.695 Y16.443 E25.35470
G1 X147.695 Y16.804 E25.38753
G1 X147.603 Y17.681 E25.46775
G1 X147.527 Y18.035 E25.50063
G1 X147.255 Y18.873 E25.58078
G1 X147.108 Y19.203 E25.61359
G1 X146.667 Y19.966 E25.69371
G1 X146.456 Y20.257 E25.72639
G1 X145.865 Y20.914 E25.80681
G1 X145.597 Y21.155 E25.83957
G1 X144.883 Y21.673 E25.91976
G1 X144.571 Y21.854 E25.95260
G1 X143.764 Y22.213 E26.03284
G1 X143.422 Y22.324 E26.06561
G1 X142.559 Y22.508 E26.14584
G1 X142.200 Y22.546 E26.17865
G1 X130.061 Y22.546 E27.28242
G1 X129.695 Y22.912 E27.32949
G1 X129.695 Y61.712 E30.85763
G1 X129.548 Y63.200 E30.99360
G1 X129.473 Y63.553 E31.02636
G1 X129.039 Y64.889 E31.15414
G1 X128.892 Y65.218 E31.18688
G1 X128.190 Y66.436 E31.31471
G1 X127.978 Y66.727 E31.34748
G1 X127.038 Y67.772 E31.47526
G1 X126.770 Y68.013 E31.50802
G1 X125.633 Y68.839 E31.63583
G1 X125.321 Y69.019 E31.66858
G1 X124.037 Y69.591 E31.79639
G1 X123.694 Y69.702 E31.82915
G1 X122.319 Y69.994 E31.95698
G1 X121.961 Y70.032 E31.98972
G1 X95.330 Y70.032 E34.41125
G1 X94.964 Y70.398 E34.45831
G1 X94.964 Y70.911 E34.50497
G1 X94.872 Y71.788 E34.58518
G1 X94.796 Y72.142 E34.61805
G1 X94.524 Y72.980 E34.69821
G1 X94.377 Y73.310 E34.73103
G1 X93.828 Y74.260 E34.83077
G1 X94.189 Y74.885 E34.89638
G1 X143.414 Y74.885 E39.37243
G1 X143.773 Y74.922 E39.40519
G1 X144.637 Y75.106 E39.48549
G1 X144.979 Y75.217 E39.51823
G1 X145.617 Y75.501 E39.58173
G1 X145.786 Y75.577 E39.59856
G1 X146.098 Y75.756 E39.63127
G1 X146.813 Y76.276 E39.71171
G1 X147.081 Y76.518 E39.74450
G1 X147.670 Y77.172 E39.82456
G1 X147.882 Y77.463 E39.85728
G1 X148.323 Y78.228 E39.93758
G1 X148.469 Y78.556 E39.97020
G1 X148.743 Y79.397 E40.05059
G1 X148.817 Y79.748 E40.08325
G1 X148.910 Y80.628 E40.16373
G1 X148.910 Y80.989 E40.19655
G1 X148.818 Y81.867 E40.27678
G1 X148.742 Y82.220 E40.30966
G1 X148.470 Y83.058 E40.38980
G1 X148.323 Y83.388 E40.42261
G1 X147.882 Y84.151 E40.50274
G1 X147.671 Y84.442 E40.53542
G1 X147.079 Y85.099 E40.61584
G1 X146.812 Y85.340 E40.64859
G1 X146.098 Y85.859 E40.72878
G1 X145.786 Y86.039 E40.76163
G1 X144.979 Y86.398 E40.84187
G1 X144.637 Y86.510 E40.87464
G1 X143.774 Y86.693 E40.95487
G1 X143.415 Y86.731 E40.98768
G1 X131.276 Y86.731 E42.09145
G1 X130.910 Y87.097 E42.13852
G1 X130.901 Y126.078 E45.68300
G1 X130.763 Y127.386 E45.80263
G1 X130.688 Y127.738 E45.83539
G1 X130.254 Y129.075 E45.96316
G1 X130.107 Y129.404 E45.99591
G1 X129.405 Y130.621 E46.12373
G1 X129.193 Y130.913 E46.15650
G1 X128.252 Y131.957 E46.28428
G1 X127.985 Y132.198 E46.31705
G1 X126.847 Y133.024 E46.44485
G1 X126.536 Y133.204 E46.47760
G1 X125.252 Y133.776 E46.60541
G1 X124.909 Y133.887 E46.63817
G1 X123.534 Y134.180 E46.76600
G1 X123.176 Y134.217 E46.79874
G1 X96.551 Y134.217 E49.21973
G1 X96.178 Y134.631 E49.27032
G1 X96.238 Y135.198 E49.32218
G1 X96.238 Y135.559 E49.35500
G1 X96.146 Y136.436 E49.43521
G1 X96.070 Y136.790 E49.46808
G1 X95.798 Y137.628 E49.54825
G1 X95.651 Y137.958 E49.58106
G1 X95.210 Y138.721 E49.66119
G1 X95.000 Y139.011 E49.69380
G1 X94.408 Y139.669 E49.77428
G1 X94.140 Y139.910 E49.80705
G1 X93.427 Y140.428 E49.88720
G1 X93.114 Y140.609 E49.92004
G1 X92.308 Y140.968 E50.00030
G1 X91.965 Y141.080 E50.03310
G1 X91.102 Y141.263 E50.11331
G1 X90.743 Y141.301 E50.14612
G1 X9.860 Y141.301 E57.50079
G1 X9.501 Y141.263 E57.53355
G1 X8.818 Y141.118 E57.59707
G1 X8.637 Y141.079 E57.61393
G1 X8.295 Y140.968 E57.64662
G1 X7.488 Y140.609 E57.72690
G1 X7.177 Y140.429 E57.75962
G1 X6.462 Y139.910 E57.83994
G1 X6.194 Y139.669 E57.87272
G1 X5.604 Y139.013 E57.95295
G1 X5.392 Y138.721 E57.98573
G1 X4.951 Y137.957 E58.06598
G1 X4.804 Y137.628 E58.09868
G1 X4.531 Y136.788 E58.17899
G1 X4.457 Y136.436 E58.21172
G1 X4.364 Y135.558 E58.29205
G1 X4.364 Y135.198 E58.32480
G1 X4.457 Y134.320 E58.40507
G1 X4.531 Y133.967 E58.43781
G1 X4.588 Y133.791 E58.45464
G1 X4.804 Y133.127 E58.51812
G1 X4.951 Y132.798 E58.55086
G1 X5.392 Y132.034 E58.63114
G1 X5.604 Y131.742 E58.66390
G1 X6.195 Y131.086 E58.74420
G1 X6.462 Y130.845 E58.77696
G1 X7.177 Y130.326 E58.85727
G1 X7.489 Y130.146 E58.89003
G1 X8.295 Y129.787 E58.97029
G1 X8.638 Y129.676 E59.00302
G1 X9.501 Y129.492 E59.08330
G1 X9.860 Y129.454 E59.11606
G1 X21.998 Y129.454 E60.21981
G1 X22.364 Y129.088 E60.26688
G1 X22.364 Y90.288 E63.79501
G1 X22.511 Y88.800 E63.93098
G1 X22.586 Y88.447 E63.96373
G1 X23.020 Y87.111 E64.09152
G1 X23.167 Y86.782 E64.12425
G1 X23.261 Y86.618 E64.14146
G1 X23.870 Y85.564 E64.25209
G1 X24.081 Y85.273 E64.28485
G1 X25.022 Y84.228 E64.41265
G1 X25.290 Y83.987 E64.44541
G1 X26.427 Y83.161 E64.57321
G1 X26.739 Y82.981 E64.60596
G1 X28.023 Y82.409 E64.73379
G1 X28.365 Y82.298 E64.76654
G1 X29.741 Y82.006 E64.89437
G1 X30.099 Y81.968 E64.92711
G1 X56.723 Y81.968 E67.34809
G1 X57.096 Y81.555 E67.39869
G1 X57.036 Y80.988 E67.45050
G1 X57.036 Y80.628 E67.48321
G1 X57.128 Y79.750 E67.56352
G1 X57.203 Y79.397 E67.59629
G1 X57.476 Y78.558 E67.67658
G1 X57.623 Y78.228 E67.70935
G1 X58.172 Y77.278 E67.80916
G1 X57.841 Y76.705 E67.86932
G1 X59.150 Y76.028 F7800.000
G1 X8.618 Y76.028 E72.46412 F1800.000
G1 X8.325 Y75.997 E72.49092
G1 X7.525 Y75.827 E72.56533
G1 X7.245 Y75.736 E72.59207
G1 X6.498 Y75.403 E72.66640
G1 X6.243 Y75.256 E72.69317
G1 X5.582 Y74.776 E72.76752
G1 X5.363 Y74.578 E72.79434
G1 X4.816 Y73.971 E72.86862
G1 X4.643 Y73.732 E72.89544
G1 X4.234 Y73.025 E72.96974
G1 X4.114 Y72.756 E72.99650
G1 X3.862 Y71.978 E73.07085
G1 X3.800 Y71.690 E73.09763
G1 X3.715 Y70.877 E73.17199
G1 X3.715 Y70.582 E73.19879
G1 X3.800 Y69.769 E73.27311
G1 X3.862 Y69.481 E73.29989
G1 X4.114 Y68.704 E73.37424
G1 X4.234 Y68.435 E73.40103
G1 X4.643 Y67.727 E73.47535
G1 X4.816 Y67.488 E73.50216
G1 X5.363 Y66.881 E73.57650
G1 X5.582 Y66.683 E73.60330
G1 X6.244 Y66.203 E73.67765
G1 X6.499 Y66.055 E73.70445
G1 X7.245 Y65.723 E73.77876
G1 X7.526 Y65.632 E73.80554
G1 X8.325 Y65.462 E73.87987
G1 X8.618 Y65.431 E73.90667
G1 X21.349 Y65.431 E75.06426
G1 X21.715 Y65.065 E75.11133
G1 X21.723 Y25.509 E78.70815
G1 X21.855 Y24.249 E78.82333
G1 X21.916 Y23.961 E78.85012
G1 X22.330 Y22.687 E78.97196
G1 X22.450 Y22.418 E78.99874
G1 X23.120 Y21.257 E79.12061
G1 X23.294 Y21.019 E79.14741
G1 X24.190 Y20.023 E79.26926
G1 X24.409 Y19.826 E79.29606
G1 X25.493 Y19.038 E79.41791
G1 X25.749 Y18.891 E79.44470
G1 X26.973 Y18.345 E79.56658
G1 X27.253 Y18.254 E79.59337
G1 X28.411 Y18.008 E79.70101
G1 X28.857 Y17.945 E79.74197
G1 X56.154 Y17.945 E82.22406
G1 X56.526 Y17.532 E82.27465
G1 X56.446 Y16.770 E82.34430
G1 X56.446 Y16.475 E82.37107
G1 X56.532 Y15.662 E82.44542
G1 X56.593 Y15.374 E82.47222
G1 X56.845 Y14.596 E82.54656
G1 X56.965 Y14.327 E82.57337
G1 X57.374 Y13.619 E82.64770
G1 X57.547 Y13.381 E82.67450
G1 X58.094 Y12.773 E82.74881
G1 X58.313 Y12.576 E82.77561
G1 X58.975 Y12.096 E82.84994
G1 X59.230 Y11.948 E82.87674
G1 X59.977 Y11.616 E82.95108
G1 X60.257 Y11.525 E82.97787
G1 X61.056 Y11.355 E83.05217
G1 X61.349 Y11.324 E83.07898
G1 X142.167 Y11.324 E90.42767
G1 X142.460 Y11.355 E90.45447
G1 X143.260 Y11.525 E90.52881
G1 X143.540 Y11.616 E90.55560
G1 X144.287 Y11.949 E90.62997
G1 X144.542 Y12.096 E90.65673
