; generated by Slic3r 1.2.9 on 2016-10-04 at 20:37:42

; external perimeters extrusion width = 0.40mm
; perimeters extrusion width = 0.48mm
; infill extrusion width = 0.48mm
; solid infill extrusion width = 0.48mm
; top infill extrusion width = 0.48mm

M107
M104 S210 ; set temperature
G28 ; home all axes
G1 Z5 F5000 ; lift nozzle

M109 S210 ; wait for temperature to be reached
G21 ; set units to millimeters
G90 ; use absolute coordinates
M82 ; use absolute distances for extrusion
G92 E0
G1 Z0.350 F7800.000
G1 E-2.00000 F2400.00000
G92 E0
G1 X-17.649 Y-30.569 F7800.000
G1 E2.00000 F2400.00000
G1 X12.026 Y-47.702 E5.11579 F1800.000
G1 X14.533 Y-48.690 E5.36078
G1 X17.219 Y-48.903 E5.60578
G1 X19.850 Y-48.322 E5.85078
G1 X21.151 Y-47.702 E5.98179 F1800.000
G1 X38.125 Y-37.902 E7.76400
G1 X40.233 Y-36.225 E8.00899
G1 X41.761 Y-34.005 E8.25399
G1 X42.573 Y-31.436 E8.49899
G1 X42.687 Y-30.000 E8.63001
G1 X42.687 Y30.000 E14.08578
G1 X42.289 Y32.665 E14.33078
G1 X41.130 Y35.097 E14.57577
G1 X39.312 Y37.085 E14.82077
G1 X38.125 Y37.902 E14.95179
G1 X21.151 Y47.702 E16.73399
G1 X18.644 Y48.690 E16.97899
G1 X15.958 Y48.903 E17.22398
G1 X13.327 Y48.322 E17.46898
G1 X12.026 Y47.702 E17.60000
G1 X-39.935 Y17.702 E23.05577
G1 X-42.044 Y16.025 E23.30077
G1 X-43.571 Y13.805 E23.54577
G1 X-44.384 Y11.236 E23.79076
G1 X-44.498 Y9.800 E23.92178
G1 X-44.498 Y-9.800 E25.70398
G1 X-44.100 Y-12.465 E25.94897
G1 X-42.941 Y-14.897 E26.19397
G1 X-41.122 Y-16.885 E26.43897
G1 X-39.935 Y-17.702 E26.56998
G1 X-17.701 Y-30.539 E28.90452
G1 X-17.337 Y-30.028 F7800.000
G1 X12.339 Y-47.161 E32.02030 F1800.000
G1 X14.763 Y-48.101 E32.25671
G1 X17.357 Y-48.265 E32.49313
G1 X20.838 Y-47.161 E32.82517
G1 X37.812 Y-37.361 E34.60737 F1800.000
G1 X39.838 Y-35.732 E34.84378
G1 X41.277 Y-33.566 E35.08020
G1 X42.062 Y-30.000 E35.41224
G1 X42.062 Y30.000 E40.86802
G1 X41.664 Y32.569 E41.10443
G1 X40.508 Y34.898 E41.34084
G1 X37.812 Y37.361 E41.67288
G1 X20.838 Y47.161 E43.45508
G1 X18.414 Y48.101 E43.69150
G1 X15.819 Y48.265 E43.92791
G1 X12.339 Y47.161 E44.25995
G1 X-39.623 Y17.161 E49.71573
G1 X-41.649 Y15.532 E49.95214
G1 X-43.088 Y13.366 E50.18855
G1 X-43.873 Y9.800 E50.52059
G1 X-43.873 Y-9.800 E52.30279
G1 X-43.475 Y-12.369 E52.53920
G1 X-42.319 Y-14.698 E52.77561
G1 X-39.623 Y-17.161 E53.10766
G1 X-17.389 Y-29.998 E55.44219
G1 X-17.024 Y-29.487 F7800.000
G1 X12.651 Y-46.620 E58.55798 F1800.000
G1 X14.989 Y-47.510 E58.78548
G1 X17.488 Y-47.623 E59.01298
G1 X20.526 Y-46.620 E59.30384
G1 X37.500 Y-36.820 E61.08604 F1800.000
G1 X39.440 Y-35.240 E61.31354
G1 X40.787 Y-33.132 E61.54104
G1 X41.437 Y-30.000 E61.83190
G1 X41.437 Y30.000 E67.28768
G1 X41.040 Y32.470 E67.51518
G1 X39.887 Y34.691 E67.74268
G1 X37.500 Y36.820 E68.03354
G1 X20.526 Y46.620 E69.81574
G1 X18.188 Y47.510 E70.04324
G1 X15.688 Y47.623 E70.27074
G1 X12.651 Y46.620 E70.56161
G1 X-39.310 Y16.620 E76.01738
G1 X-41.251 Y15.040 E76.24488
G1 X-42.598 Y12.932 E76.47238
G1 X-43.248 Y9.800 E76.76324
G1 X-43.248 Y-9.800 E78.54544
G1 X-42.850 Y-12.270 E78.77294
G1 X-41.698 Y-14.491 E79.00044
G1 X-39.310 Y-16.620 E79.29130
G1 X-17.076 Y-29.457 E81.62583
G1 X-16.712 Y-28.945 F7800.000
G1 X12.963 Y-46.078 E84.74162 F1800.000
G1 X15.212 Y-46.918 E84.95985
G1 X17.611 Y-46.977 E85.17807
G1 X20.213 Y-46.078 E85.42840
G1 X37.187 Y-36.278 E87.21061 F1800.000
G1 X39.038 Y-34.751 E87.42884
G1 X40.289 Y-32.703 E87.64706
G1 X40.812 Y-30.000 E87.89739
G1 X40.812 Y30.000 E93.35317
G1 X40.415 Y32.367 E93.57140
G1 X39.267 Y34.474 E93.78962
G1 X37.187 Y36.278 E94.03995
G1 X20.213 Y46.078 E95.82216
G1 X17.965 Y46.918 E96.04038
G1 X15.566 Y46.977 E96.25861
G1 X12.963 Y46.078 E96.50894
G1 X-38.998 Y16.078 E101.96472
G1 X-40.849 Y14.551 E102.18295
G1 X-42.100 Y12.503 E102.40117
G1 X-42.623 Y9.800 E102.65150
G1 X-42.623 Y-9.800 E104.43370
G1 X-42.226 Y-12.167 E104.65193
G1 X-41.077 Y-14.274 E104.87016
G1 X-38.998 Y-16.078 E105.12049
G1 X-16.764 Y-28.915 E107.45502
G1 X-16.399 Y-28.404 F7800.000
G1 X13.276 Y-45.537 E110.57081 F1800.000
G1 X15.431 Y-46.323 E110.77935
G1 X17.724 Y-46.327 E110.98789
G1 X19.901 Y-45.537 E111.19844
G1 X36.875 Y-35.737 E112.98064 F1800.000
G1 X38.632 Y-34.264 E113.18918
G1 X39.783 Y-32.280 E113.39773
G1 X40.187 Y-30.000 E113.60827
G1 X40.187 Y30.000 E119.06405
G1 X39.790 Y32.259 E119.27259
G1 X38.647 Y34.247 E119.48113
G1 X36.875 Y35.737 E119.69168
G1 X19.901 Y45.537 E121.47388
G1 X17.746 Y46.323 E121.68242
G1 X15.453 Y46.327 E121.89097
G1 X13.276 Y45.537 E122.10151
G1 X-38.686 Y15.537 E127.55729
G1 X-40.443 Y14.064 E127.76583
G1 X-41.593 Y12.080 E127.97437
G1 X-41.998 Y9.800 E128.18492
G1 X-41.998 Y-9.800 E129.96712
G1 X-41.601 Y-12.059 E130.17566
G1 X-40.458 Y-14.047 E130.38420
G1 X-38.686 Y-15.537 E130.59475
G1 X-16.451 Y-28.374 E132.92928
G1 E130.92928 F2400.00000
G92 E0
G1 X-25.827 Y-11.296 F7800.000
G1 E2.00000 F2400.00000
G1 X-25.427 Y-11.090 E2.04099 F1800.000
G1 X-24.841 Y-10.717 E2.10412
G1 X-24.558 Y-10.501 E2.13651
G1 X-24.328 Y-10.650 E2.16149
G1 X10.329 Y-30.659 E5.80034
G1 X10.574 Y-30.784 E5.82533
G1 X10.529 Y-31.137 E5.85772
G1 X10.498 Y-31.831 E5.92084
G1 X10.520 Y-32.281 E5.96183
G1 X16.608 Y-35.796 E6.60106
G1 X17.009 Y-35.590 E6.64205
G1 X17.594 Y-35.217 E6.70517
G1 X18.164 Y-34.782 E6.77034
G1 X18.713 Y-34.290 E6.83734
G1 X19.235 Y-33.747 E6.90587
G1 X19.448 Y-33.490 E6.93622
G1 X19.869 Y-33.831 E6.98541
G1 X20.251 Y-34.079 E7.02682
G1 X20.656 Y-34.285 E7.06823
G1 X21.081 Y-34.448 E7.10963
G1 X21.521 Y-34.566 E7.15104
G1 X21.971 Y-34.638 E7.19244
G1 X22.426 Y-34.661 E7.23385
G1 X22.881 Y-34.638 E7.27526
G1 X23.363 Y-34.561 E7.31967
G1 X23.772 Y-34.448 E7.35823
G1 X24.195 Y-34.285 E7.39949
G1 X24.601 Y-34.079 E7.44090
G1 X24.983 Y-33.831 E7.48230
G1 X25.337 Y-33.544 E7.52376
G1 X25.666 Y-33.213 E7.56616
G1 X25.945 Y-32.868 E7.60653
G1 X26.193 Y-32.486 E7.64793
G1 X26.400 Y-32.080 E7.68934
G1 X26.563 Y-31.655 E7.73074
G1 X26.681 Y-31.215 E7.77215
G1 X26.753 Y-30.766 E7.81356
G1 X26.776 Y-30.311 E7.85496
G1 X26.753 Y-29.856 E7.89637
G1 X26.668 Y-29.322 E7.94556
G1 X26.997 Y-29.265 E7.97591
G1 X27.729 Y-29.085 E8.04444
G1 X28.429 Y-28.855 E8.11143
G1 X29.090 Y-28.579 E8.17661
G1 X29.706 Y-28.259 E8.23973
G1 X30.085 Y-28.015 E8.28072
G1 X30.085 Y-20.985 E8.91995
G1 X29.706 Y-20.741 E8.96094
G1 X29.090 Y-20.421 E9.02406
G1 X28.761 Y-20.284 E9.05645
G1 X28.776 Y-20.009 E9.08144
G1 X28.776 Y20.009 E12.72029
G1 X28.761 Y20.284 E12.74527
G1 X29.090 Y20.421 E12.77766
G1 X29.706 Y20.741 E12.84079
G1 X30.085 Y20.985 E12.88177
G1 X30.085 Y28.015 E13.52100
G1 X29.706 Y28.259 E13.56199
G1 X29.090 Y28.579 E13.62511
G1 X28.429 Y28.855 E13.69029
G1 X27.729 Y29.085 E13.75728
G1 X26.997 Y29.265 E13.82581
G1 X26.668 Y29.322 E13.85616
G1 X26.753 Y29.856 E13.90535
G1 X26.776 Y30.311 E13.94676
G1 X26.753 Y30.766 E13.98816
G1 X26.681 Y31.215 E14.02957
G1 X26.563 Y31.655 E14.07098
G1 X26.400 Y32.080 E14.11238
G1 X26.193 Y32.486 E14.15379
G1 X25.945 Y32.868 E14.19519
G1 X25.659 Y33.222 E14.23660
G1 X25.337 Y33.544 E14.27802
G1 X24.983 Y33.831 E14.31942
G1 X24.601 Y34.079 E14.36083
G1 X24.195 Y34.285 E14.40224
G1 X23.770 Y34.448 E14.44364
G1 X23.330 Y34.566 E14.48505
G1 X22.892 Y34.636 E14.52541
G1 X22.426 Y34.661 E14.56781
G1 X21.971 Y34.638 E14.60926
G1 X21.521 Y34.566 E14.65067
G1 X21.081 Y34.448 E14.69208
G1 X20.667 Y34.289 E14.73244
G1 X20.251 Y34.079 E14.77484
G1 X19.869 Y33.831 E14.81629
G1 X19.448 Y33.490 E14.86548
G1 X19.235 Y33.747 E14.89583
G1 X18.713 Y34.290 E14.96436
G1 X18.164 Y34.782 E15.03136
G1 X17.594 Y35.217 E15.09653
G1 X17.009 Y35.590 E15.15966
G1 X16.608 Y35.796 E15.20065
G1 X10.520 Y32.281 E15.83987
G1 X10.498 Y31.831 E15.88087
G1 X10.529 Y31.137 E15.94398
G1 X10.574 Y30.784 E15.97638
G1 X10.329 Y30.659 E16.00136
G1 X-23.914 Y10.889 E19.59675
G1 X-24.558 Y10.501 E19.66518
G1 X-24.841 Y10.717 E19.69754
G1 X-25.427 Y11.090 E19.76067
G1 X-25.827 Y11.296 E19.80166
G1 X-31.915 Y7.781 E20.44088
G1 X-31.937 Y7.331 E20.48187
G1 X-31.907 Y6.637 E20.54499
G1 X-31.815 Y5.926 E20.61017
G1 X-31.664 Y5.205 E20.67717
G1 X-31.454 Y4.481 E20.74570
G1 X-31.339 Y4.168 E20.77604
G1 X-31.844 Y3.974 E20.82523
G1 X-32.249 Y3.768 E20.86664
G1 X-32.631 Y3.520 E20.90804
G1 X-32.976 Y3.240 E20.94840
G1 X-33.307 Y2.911 E20.99085
G1 X-33.600 Y2.548 E21.03330
G1 X-33.842 Y2.175 E21.07366
G1 X-34.049 Y1.769 E21.11507
G1 X-34.212 Y1.344 E21.15647
G1 X-34.330 Y0.905 E21.19788
G1 X-34.401 Y0.455 E21.23929
G1 X-34.425 Y0.000 E21.28070
G1 X-34.401 Y-0.455 E21.32210
G1 X-34.330 Y-0.905 E21.36351
G1 X-34.212 Y-1.344 E21.40492
G1 X-34.049 Y-1.769 E21.44632
G1 X-33.842 Y-2.175 E21.48773
G1 X-33.594 Y-2.557 E21.52913
G1 X-33.307 Y-2.911 E21.57054
G1 X-32.985 Y-3.233 E21.61195
G1 X-32.631 Y-3.520 E21.65336
G1 X-32.249 Y-3.768 E21.69476
G1 X-31.844 Y-3.974 E21.73617
G1 X-31.339 Y-4.168 E21.78536
G1 X-31.454 Y-4.481 E21.81570
G1 X-31.664 Y-5.205 E21.88423
G1 X-31.815 Y-5.926 E21.95123
G1 X-31.907 Y-6.637 E22.01641
G1 X-31.937 Y-7.331 E22.07953
G1 X-31.915 Y-7.781 E22.12053
G1 X-25.879 Y-11.266 E22.75429
G1 X-25.580 Y-11.611 F7800.000
G1 X-33.131 Y-8.522 F7800.000
G1 X-33.188 Y-7.333 E22.86252 F1800.000
G1 X-33.153 Y-6.530 E22.93565
G1 X-33.048 Y-5.718 E23.01011
G1 X-32.867 Y-4.857 E23.09014
G1 X-33.367 Y-4.532 E23.14430
G1 X-33.773 Y-4.203 E23.19185
G1 X-33.773 Y-8.876 E23.61680
G1 X16.588 Y-37.953 E28.90460
G1 X20.636 Y-35.616 E29.32954
G1 X20.147 Y-35.429 E29.37709
G1 X19.617 Y-35.158 E29.43127
G1 X18.961 Y-35.745 E29.51129
G1 X18.310 Y-36.242 E29.58575
G1 X17.632 Y-36.674 E29.65887
G1 X16.574 Y-37.220 E29.76709
G1 X9.304 Y-33.022 E30.53042
G1 X9.247 Y-31.833 E30.63865
G1 X9.262 Y-31.486 E30.67023
G1 X-24.510 Y-11.988 E34.21625
G1 X-24.803 Y-12.174 E34.24784
G1 X-25.861 Y-12.720 E34.35607
G1 X-33.079 Y-8.552 E35.11391
G1 X-32.523 Y-8.152 F7800.000
G1 X-32.563 Y-7.332 E35.18852 F1800.000
G1 X-32.530 Y-6.584 E35.25665
G1 X-32.432 Y-5.822 E35.32647
G1 X-32.270 Y-5.054 E35.39783
G1 X-32.120 Y-4.535 E35.44698
G1 X-32.562 Y-4.310 E35.49211
G1 X-32.999 Y-4.026 E35.53947
G1 X-33.404 Y-3.698 E35.58683
G1 X-33.772 Y-3.330 E35.63419
G1 X-34.398 Y-2.557 E35.72465
G1 X-34.398 Y-9.237 E36.33208
G1 X16.588 Y-38.674 E41.68550
G1 X22.374 Y-35.334 E42.29294
G1 X21.391 Y-35.178 E42.38339
G1 X20.888 Y-35.044 E42.43076
G1 X20.402 Y-34.857 E42.47811
G1 X19.938 Y-34.620 E42.52548
G1 X19.521 Y-34.350 E42.57061
G1 X19.147 Y-34.740 E42.61976
G1 X18.563 Y-35.264 E42.69112
G1 X17.952 Y-35.729 E42.76094
G1 X17.320 Y-36.132 E42.82906
G1 X16.591 Y-36.508 E42.90367
G1 X9.912 Y-32.652 E43.60495
G1 X9.873 Y-31.832 E43.67956
G1 X9.903 Y-31.135 E43.74302
G1 X-24.526 Y-11.257 E47.35800
G1 X-25.115 Y-11.632 E47.42147
G1 X-25.844 Y-12.008 E47.49608
G1 X-32.471 Y-8.182 E48.19188
G1 E46.19188 F2400.00000
G92 E0
G1 X31.335 Y-28.697 F7800.000
G1 E2.00000 F2400.00000
G1 X30.334 Y-29.341 E2.10823 F1800.000
G1 X29.620 Y-29.712 E2.18135
G1 X28.865 Y-30.028 E2.25582
G1 X28.028 Y-30.302 E2.33584
G1 X27.997 Y-30.896 E2.39000
G1 X27.915 Y-31.413 E2.43756
G1 X31.963 Y-29.076 E2.86250
G1 X31.963 Y29.076 E8.15030
G1 X27.915 Y31.413 E8.57525
G1 X27.997 Y30.896 E8.62281
G1 X28.028 Y30.302 E8.67697
G1 X28.865 Y30.028 E8.75699
G1 X29.620 Y29.712 E8.83146
G1 X30.334 Y29.341 E8.90458
G1 X31.335 Y28.697 E9.01281
G1 X31.335 Y20.303 E9.77613
G1 X30.334 Y19.659 E9.88436
G1 X30.026 Y19.499 E9.91593
G1 X30.026 Y-19.499 E13.46197
G1 X30.334 Y-19.659 E13.49354
G1 X31.335 Y-20.303 E13.60177
G1 X31.335 Y-28.637 E14.35964
G1 X30.710 Y-28.356 F7800.000
G1 X30.020 Y-28.800 E14.43425 F1800.000
G1 X29.355 Y-29.146 E14.50237
G1 X28.647 Y-29.441 E14.57219
G1 X27.901 Y-29.686 E14.64355
G1 X27.376 Y-29.815 E14.69270
G1 X27.402 Y-30.311 E14.73783
G1 X27.375 Y-30.831 E14.78519
G1 X27.293 Y-31.345 E14.83255
G1 X27.158 Y-31.849 E14.87992
G1 X26.802 Y-32.777 E14.97037
G1 X32.587 Y-29.437 E15.57781
G1 X32.587 Y29.437 E20.93123
G1 X26.802 Y32.777 E21.53867
G1 X27.158 Y31.849 E21.62912
G1 X27.293 Y31.346 E21.67649
G1 X27.375 Y30.831 E21.72385
G1 X27.402 Y30.311 E21.77121
G1 X27.376 Y29.815 E21.81634
G1 X27.901 Y29.686 E21.86549
G1 X28.647 Y29.441 E21.93685
G1 X29.355 Y29.146 E22.00667
G1 X30.020 Y28.800 E22.07479
G1 X30.710 Y28.356 E22.14940
G1 X30.710 Y20.644 E22.85068
G1 X30.020 Y20.200 E22.92529
G1 X29.401 Y19.878 E22.98875
G1 X29.401 Y-19.878 E26.60374
G1 X30.020 Y-20.200 E26.66720
G1 X30.710 Y-20.644 E26.74181
G1 X30.710 Y-28.296 E27.43763
G1 E25.43763 F2400.00000
G92 E0
G1 X16.574 Y37.220 F7800.000
G1 E2.00000 F2400.00000
G1 X17.632 Y36.674 E2.10823 F1800.000
G1 X18.310 Y36.242 E2.18136
G1 X18.961 Y35.745 E2.25582
G1 X19.616 Y35.158 E2.33582
G1 X20.160 Y35.433 E2.39119
G1 X20.636 Y35.616 E2.43754
G1 X16.588 Y37.953 E2.86249
G1 X-33.773 Y8.876 E8.15029
G1 X-33.773 Y4.203 E8.57523
G1 X-33.367 Y4.532 E8.62279
G1 X-32.867 Y4.857 E8.67695
G1 X-33.048 Y5.718 E8.75697
G1 X-33.153 Y6.530 E8.83143
G1 X-33.188 Y7.333 E8.90457
G1 X-33.131 Y8.522 E9.01280
G1 X-25.861 Y12.720 E9.77610
G1 X-24.803 Y12.174 E9.88433
G1 X-24.510 Y11.988 E9.91592
G1 X9.262 Y31.486 E13.46194
G1 X9.247 Y31.833 E13.49351
G1 X9.304 Y33.022 E13.60175
G1 X16.522 Y37.190 E14.35961
G1 X16.591 Y36.508 F7800.000
G1 X17.320 Y36.132 E14.43422 F1800.000
G1 X17.952 Y35.729 E14.50234
G1 X18.563 Y35.264 E14.57216
G1 X19.147 Y34.740 E14.64353
G1 X19.521 Y34.350 E14.69267
G1 X19.939 Y34.621 E14.73792
G1 X20.413 Y34.861 E14.78629
G1 X20.888 Y35.044 E14.83252
G1 X21.391 Y35.178 E14.87989
G1 X22.374 Y35.334 E14.97034
G1 X16.588 Y38.674 E15.57778
G1 X-34.398 Y9.237 E20.93120
G1 X-34.398 Y2.952 E21.50272
G1 X-34.148 Y2.863 E21.52685
G1 X-33.772 Y3.330 E21.58131
G1 X-33.394 Y3.706 E21.62979
G1 X-32.999 Y4.026 E21.67603
G1 X-32.562 Y4.310 E21.72339
G1 X-32.120 Y4.535 E21.76852
G1 X-32.270 Y5.054 E21.81767
G1 X-32.432 Y5.822 E21.88903
G1 X-32.530 Y6.584 E21.95885
G1 X-32.563 Y7.332 E22.02698
G1 X-32.523 Y8.152 E22.10159
G1 X-25.844 Y12.008 E22.80285
G1 X-25.115 Y11.632 E22.87746
G1 X-24.520 Y11.253 E22.94158
G1 X9.903 Y31.135 E26.55626
G1 X9.873 Y31.832 E26.61972
G1 X9.912 Y32.652 E26.69433
G1 X16.539 Y36.478 E27.39015
G1 X16.588 Y39.396 F7800.000
G1 X-35.023 Y9.598 E32.80918 F1800.000
G1 X-35.023 Y-9.598 E34.55462
G1 X16.588 Y-39.396 E39.97365
G1 X33.212 Y-29.798 E41.71910
G1 X33.212 Y29.798 E47.13813
G1 X16.640 Y39.366 E48.87813
G1 X16.452 Y39.020 F7800.000
G1 X8.869 Y31.937 F7800.000
G1 X8.530 Y31.598 E48.92291 F1800.000
G1 X8.912 Y32.888 E49.04857
G1 X6.382 Y30.358 E49.38286
G1 X4.849 Y30.641 F7800.000
G1 X2.085 Y27.877 E49.74807 F1800.000
G1 X0.552 Y28.160 F7800.000
G1 X-2.212 Y25.396 E50.11327 F1800.000
G1 X-3.745 Y25.679 F7800.000
G1 X-6.509 Y22.915 E50.47847 F1800.000
G1 X-8.042 Y23.198 F7800.000
G1 X-10.806 Y20.434 E50.84367 F1800.000
G1 X-12.339 Y20.717 F7800.000
G1 X-15.102 Y17.954 E51.20887 F1800.000
G1 X-16.635 Y18.237 F7800.000
G1 X-19.399 Y15.473 E51.57407 F1800.000
G1 X-20.932 Y15.756 F7800.000
G1 X-23.696 Y12.992 E51.93927 F1800.000
G1 X-24.965 Y12.632 E52.06246
G1 X-23.081 Y14.515 E52.31137
G1 X-21.548 Y14.232 F7800.000
G1 X-18.784 Y16.996 E52.67657 F1800.000
G1 X-17.251 Y16.713 F7800.000
G1 X-14.487 Y19.477 E53.04177 F1800.000
G1 X-12.954 Y19.194 F7800.000
G1 X-10.190 Y21.958 E53.40697 F1800.000
G1 X-8.657 Y21.675 F7800.000
G1 X-5.893 Y24.439 E53.77217 F1800.000
G1 X-4.360 Y24.156 F7800.000
G1 X-1.596 Y26.920 E54.13737 F1800.000
G1 X-0.063 Y26.636 F7800.000
G1 X2.701 Y29.400 E54.50258 F1800.000
G1 X4.234 Y29.117 F7800.000
G1 X6.998 Y31.881 E54.86778 F1800.000
G1 X-25.229 Y13.275 F7800.000
G1 X-25.549 Y12.955 E54.91003 F1800.000
G1 E52.91003 F2400.00000
G92 E0
G1 X-34.363 Y2.608 F7800.000
G1 E2.00000 F2400.00000
G1 X-34.512 Y1.987 E2.05804 F1800.000
G1 X-34.607 Y1.478 E2.10510
G1 X-34.691 Y0.741 E2.17255
G1 E0.17255 F2400.00000
G92 E0
G1 X-25.238 Y-12.909 F7800.000
G1 E2.00000 F2400.00000
G1 X-25.549 Y-13.220 E2.04006 F1800.000
G1 X-25.003 Y-13.558 E2.09844
G1 X-24.069 Y-12.624 E2.21864
G1 X-23.508 Y-12.947 E2.27748
G1 X-24.443 Y-13.882 E2.39768
G1 X-23.883 Y-14.205 E2.45651
G1 X-22.948 Y-13.271 E2.57672
G1 X-22.388 Y-13.594 E2.63555
G1 X-23.322 Y-14.529 E2.75576
G1 X-22.762 Y-14.852 E2.81459
