; generated by Slic3r 1.2.9 on 2016-10-01 at 11:13:11

; external perimeters extrusion width = 0.40mm
; perimeters extrusion width = 0.48mm
; infill extrusion width = 0.48mm
; solid infill extrusion width = 0.48mm
; top infill extrusion width = 0.48mm

M107
M104 S210 ; set temperature
G28 ; home all axes
G1 Z5 F5000 ; lift nozzle

M109 S210 ; wait for temperature to be reached
G21 ; set units to millimeters
G90 ; use absolute coordinates
M82 ; use absolute distances for extrusion
G92 E0
G1 Z0.350 F7800.000
G1 E-2.00000 F2400.00000
G92 E0
G1 X28.027 Y-0.025 F7800.000
G1 E2.00000 F2400.00000
G1 X28.049 Y25.065 E4.28140 F1800.000
G1 X27.999 Y32.065 E4.91793
G1 X27.965 Y32.898 E4.99371
G1 X27.865 Y33.846 E5.08036
G1 X27.800 Y34.259 E5.11843
G1 X27.601 Y35.194 E5.20529
G1 X27.493 Y35.598 E5.24337
G1 X27.198 Y36.506 E5.33016
G1 X27.047 Y36.899 E5.36850
G1 X26.659 Y37.769 E5.45508
G1 X26.469 Y38.142 E5.49316
G1 X25.992 Y38.969 E5.58000
G1 X25.763 Y39.321 E5.61808
G1 X25.202 Y40.093 E5.70493
G1 X24.939 Y40.419 E5.74300
G1 X24.300 Y41.128 E5.82984
G1 X24.003 Y41.425 E5.86792
G1 X23.294 Y42.064 E5.95476
G1 X22.968 Y42.327 E5.99283
G1 X22.196 Y42.889 E6.07969
G1 X21.844 Y43.117 E6.11776
G1 X21.018 Y43.594 E6.20458
G1 X20.644 Y43.784 E6.24265
G1 X19.767 Y44.175 E6.33000
G1 X19.381 Y44.323 E6.36762
G1 X18.473 Y44.618 E6.45439
G1 X18.068 Y44.726 E6.49247
G1 X17.143 Y44.923 E6.57854
G1 X16.721 Y44.990 E6.61739
G1 X15.770 Y45.090 E6.70428
G1 X14.875 Y45.124 E6.78575
G1 X-13.602 Y45.112 E9.37517
G1 X-14.020 Y45.090 E9.41324
G1 X-14.971 Y44.990 E9.50014
G1 X-15.384 Y44.925 E9.53821
G1 X-16.318 Y44.726 E9.62506
G1 X-16.723 Y44.618 E9.66314
G1 X-17.631 Y44.323 E9.74991
G1 X-18.021 Y44.173 E9.78798
G1 X-18.896 Y43.783 E9.87508
G1 X-19.268 Y43.594 E9.91295
G1 X-20.089 Y43.120 E9.99921
G1 X-20.446 Y42.889 E10.03784
G1 X-21.216 Y42.329 E10.12446
G1 X-21.544 Y42.064 E10.16277
G1 X-22.253 Y41.425 E10.24960
G1 X-22.551 Y41.127 E10.28793
G1 X-23.189 Y40.419 E10.37453
G1 X-23.452 Y40.093 E10.41260
G1 X-24.014 Y39.321 E10.49946
G1 X-24.242 Y38.969 E10.53756
G1 X-24.719 Y38.142 E10.62437
G1 X-24.909 Y37.769 E10.66245
G1 X-25.298 Y36.897 E10.74931
G1 X-25.448 Y36.505 E10.78747
G1 X-25.743 Y35.598 E10.87415
G1 X-25.850 Y35.198 E10.91178
G1 X-26.050 Y34.259 E10.99910
G1 X-26.155 Y33.570 E11.06249
G1 X-27.976 Y19.252 E12.37493
G1 X-28.049 Y18.100 E12.47987
G1 X-28.049 Y-28.100 E16.68081
G1 X-27.431 Y-31.402 E16.98632
G1 X-25.285 Y-36.929 E17.52543
G1 X-24.909 Y-37.769 E17.60910
G1 X-24.719 Y-38.143 E17.64727
G1 X-24.242 Y-38.968 E17.73389
G1 X-24.014 Y-39.321 E17.77209
G1 X-23.452 Y-40.093 E17.85894
G1 X-23.191 Y-40.415 E17.89660
G1 X-22.550 Y-41.128 E17.98386
G1 X-22.253 Y-41.425 E18.02206
G1 X-21.545 Y-42.063 E18.10867
G1 X-21.218 Y-42.327 E18.14686
G1 X-20.446 Y-42.888 E18.23369
G1 X-20.094 Y-43.117 E18.27177
G1 X-19.267 Y-43.594 E18.35860
G1 X-18.894 Y-43.784 E18.39669
G1 X-18.022 Y-44.173 E18.48353
G1 X-17.631 Y-44.323 E18.52162
G1 X-16.723 Y-44.618 E18.60840
G1 X-16.319 Y-44.726 E18.64648
G1 X-15.384 Y-44.925 E18.73335
G1 X-14.971 Y-44.990 E18.77142
G1 X-14.023 Y-45.090 E18.85805
G1 X-13.125 Y-45.124 E18.93977
G1 X15.351 Y-45.112 E21.52912
G1 X15.770 Y-45.090 E21.56727 F1800.000
G1 X16.720 Y-44.990 E21.65413
G1 X17.134 Y-44.925 E21.69222
G1 X18.067 Y-44.726 E21.77898
G1 X18.473 Y-44.618 E21.81716
G1 X19.380 Y-44.323 E21.90391
G1 X19.772 Y-44.173 E21.94201
G1 X20.644 Y-43.784 E22.02887
G1 X21.017 Y-43.594 E22.06695
G1 X21.844 Y-43.117 E22.15379
G1 X22.196 Y-42.889 E22.19186
G1 X22.968 Y-42.327 E22.27871
G1 X23.294 Y-42.064 E22.31678
G1 X24.003 Y-41.425 E22.40363
G1 X24.300 Y-41.128 E22.44171
G1 X24.939 Y-40.419 E22.52855
G1 X25.202 Y-40.093 E22.56662
G1 X25.764 Y-39.321 E22.65348
G1 X25.992 Y-38.969 E22.69157
G1 X26.469 Y-38.142 E22.77838
G1 X26.661 Y-37.766 E22.81682
G1 X27.048 Y-36.897 E22.90332
G1 X27.198 Y-36.506 E22.94139
G1 X27.493 Y-35.598 E23.02818
G1 X27.601 Y-35.193 E23.06626
G1 X27.800 Y-34.259 E23.15311
G1 X27.865 Y-33.846 E23.19118
G1 X27.965 Y-32.895 E23.27806
G1 X27.999 Y-32.008 E23.35881
G1 X28.027 Y-0.085 E26.26160
G1 X27.403 Y-0.024 F7800.000
G1 X27.424 Y25.061 E28.54254 F1800.000
G1 X27.374 Y32.061 E29.17907
G1 X27.341 Y32.865 E29.25227
G1 X27.248 Y33.748 E29.33298
G1 X27.182 Y34.161 E29.37105
G1 X26.997 Y35.032 E29.45197
G1 X26.889 Y35.436 E29.49005
G1 X26.614 Y36.282 E29.57089
G1 X26.463 Y36.675 E29.60921
G1 X26.102 Y37.486 E29.68986
G1 X25.912 Y37.859 E29.72794
G1 X25.468 Y38.629 E29.80883
G1 X25.239 Y38.980 E29.84692
G1 X24.716 Y39.700 E29.92781
G1 X24.453 Y40.025 E29.96589
G1 X23.858 Y40.687 E30.04679
G1 X23.562 Y40.983 E30.08486
G1 X22.900 Y41.578 E30.16575
G1 X22.575 Y41.841 E30.20383
G1 X21.855 Y42.364 E30.28474
G1 X21.504 Y42.592 E30.32280
G1 X20.734 Y43.037 E30.40367
G1 X20.361 Y43.227 E30.44175
G1 X19.543 Y43.591 E30.52314
G1 X19.157 Y43.739 E30.56076
G1 X18.311 Y44.014 E30.64159
G1 X17.907 Y44.122 E30.67967
G1 X17.044 Y44.306 E30.75985
G1 X16.623 Y44.373 E30.79865
G1 X15.738 Y44.466 E30.87959
G1 X14.875 Y44.500 E30.95809
G1 X-13.570 Y44.488 E33.54453
G1 X-13.988 Y44.466 E33.58260
G1 X-14.873 Y44.373 E33.66355
G1 X-15.286 Y44.307 E33.70162
G1 X-16.157 Y44.122 E33.78252
G1 X-16.561 Y44.014 E33.82060
G1 X-17.407 Y43.739 E33.90143
G1 X-17.797 Y43.589 E33.93949
G1 X-18.613 Y43.226 E34.02067
G1 X-18.984 Y43.037 E34.05852
G1 X-19.749 Y42.596 E34.13888
G1 X-20.105 Y42.364 E34.17746
G1 X-20.823 Y41.843 E34.25815
G1 X-21.150 Y41.578 E34.29644
G1 X-21.812 Y40.983 E34.37733
G1 X-22.109 Y40.685 E34.41564
G1 X-22.703 Y40.025 E34.49631
G1 X-22.966 Y39.700 E34.53438
G1 X-23.490 Y38.980 E34.61529
G1 X-23.718 Y38.629 E34.65339
G1 X-24.162 Y37.859 E34.73425
G1 X-24.352 Y37.486 E34.77233
G1 X-24.714 Y36.673 E34.85324
G1 X-24.865 Y36.281 E34.89140
G1 X-25.139 Y35.436 E34.97214
G1 X-25.246 Y35.037 E35.00977
G1 X-25.432 Y34.161 E35.09114
G1 X-25.535 Y33.491 E35.15280
G1 X-27.357 Y19.173 E36.46524
G1 X-27.425 Y18.100 E36.56299
G1 X-27.425 Y-28.100 E40.76393
G1 X-26.848 Y-31.176 E41.04852
G1 X-24.703 Y-36.703 E41.58762
G1 X-24.352 Y-37.486 E41.66557
G1 X-24.162 Y-37.859 E41.70373
G1 X-23.718 Y-38.628 E41.78442
G1 X-23.489 Y-38.980 E41.82261
G1 X-22.967 Y-39.700 E41.90351
G1 X-22.706 Y-40.022 E41.94114
G1 X-22.108 Y-40.687 E42.02248
G1 X-21.811 Y-40.984 E42.06067
G1 X-21.151 Y-41.577 E42.14135
G1 X-20.825 Y-41.842 E42.17953
G1 X-20.105 Y-42.364 E42.26042
G1 X-19.754 Y-42.592 E42.29850
G1 X-18.984 Y-43.037 E42.37938
G1 X-18.611 Y-43.227 E42.41747
G1 X-17.798 Y-43.589 E42.49837
G1 X-17.407 Y-43.739 E42.53645
G1 X-16.561 Y-44.014 E42.61729
G1 X-16.157 Y-44.122 E42.65537
G1 X-15.286 Y-44.307 E42.73629
G1 X-14.873 Y-44.373 E42.77436
G1 X-13.990 Y-44.466 E42.85506
G1 X-13.125 Y-44.500 E42.93379
G1 X15.319 Y-44.488 E45.52017
G1 X15.738 Y-44.466 E45.55831 F1800.000
G1 X16.623 Y-44.373 E45.63922
G1 X17.036 Y-44.307 E45.67731
G1 X17.906 Y-44.123 E45.75813
G1 X18.311 Y-44.014 E45.79631
G1 X19.156 Y-43.739 E45.87711
G1 X19.548 Y-43.589 E45.91521
G1 X20.361 Y-43.227 E45.99613
G1 X20.734 Y-43.037 E46.03420
G1 X21.504 Y-42.592 E46.11509
G1 X21.855 Y-42.364 E46.15316
G1 X22.575 Y-41.842 E46.23406
G1 X22.900 Y-41.578 E46.27214
G1 X23.562 Y-40.983 E46.35304
G1 X23.858 Y-40.687 E46.39111
G1 X24.453 Y-40.025 E46.47201
G1 X24.717 Y-39.700 E46.51009
G1 X25.240 Y-38.980 E46.59099
G1 X25.468 Y-38.629 E46.62908
G1 X25.912 Y-37.859 E46.70995
G1 X26.104 Y-37.482 E46.74837
G1 X26.464 Y-36.673 E46.82894
G1 X26.614 Y-36.282 E46.86700
G1 X26.889 Y-35.436 E46.94785
G1 X26.997 Y-35.032 E46.98593
G1 X27.182 Y-34.161 E47.06684
G1 X27.248 Y-33.748 E47.10491
G1 X27.341 Y-32.863 E47.18584
G1 X27.375 Y-32.007 E47.26367
G1 X27.403 Y-0.084 E50.16645
G1 X26.778 Y-0.023 F7800.000
G1 X26.799 Y25.056 E52.44694 F1800.000
G1 X26.749 Y32.056 E53.08346
G1 X26.717 Y32.832 E53.15408
G1 X26.631 Y33.650 E53.22886
G1 X26.565 Y34.064 E53.26693
G1 X26.394 Y34.870 E53.34190
G1 X26.285 Y35.275 E53.37998
G1 X26.031 Y36.058 E53.45488
G1 X25.880 Y36.451 E53.49318
G1 X25.546 Y37.202 E53.56790
G1 X25.356 Y37.575 E53.60598
G1 X24.943 Y38.289 E53.68092
G1 X24.715 Y38.640 E53.71901
G1 X24.231 Y39.307 E53.79396
G1 X23.967 Y39.632 E53.83203
G1 X23.416 Y40.245 E53.90698
G1 X23.120 Y40.541 E53.94506
G1 X22.507 Y41.092 E54.02000
G1 X22.182 Y41.356 E54.05807
G1 X21.515 Y41.840 E54.13303
G1 X21.164 Y42.068 E54.17110
G1 X20.450 Y42.480 E54.24603
G1 X20.077 Y42.671 E54.28410
G1 X19.319 Y43.008 E54.35955
G1 X18.933 Y43.156 E54.39716
G1 X18.149 Y43.410 E54.47205
G1 X17.745 Y43.519 E54.51013
G1 X16.946 Y43.689 E54.58441
G1 X16.525 Y43.756 E54.62316
G1 X15.705 Y43.842 E54.69815
G1 X14.875 Y43.875 E54.77367
G1 X-13.537 Y43.864 E57.35715
G1 X-13.955 Y43.842 E57.39522
G1 X-14.775 Y43.756 E57.47022
G1 X-15.189 Y43.690 E57.50828
G1 X-15.995 Y43.519 E57.58324
G1 X-16.399 Y43.410 E57.62132
G1 X-17.183 Y43.156 E57.69621
G1 X-17.574 Y43.006 E57.73427
G1 X-18.329 Y42.669 E57.80950
G1 X-18.700 Y42.480 E57.84734
G1 X-19.409 Y42.071 E57.92179
G1 X-19.765 Y41.840 E57.96034
G1 X-20.430 Y41.357 E58.03509
G1 X-20.757 Y41.092 E58.07337
G1 X-21.370 Y40.541 E58.14831
G1 X-21.667 Y40.243 E58.18660
G1 X-22.217 Y39.632 E58.26134
G1 X-22.481 Y39.307 E58.29941
G1 X-22.965 Y38.640 E58.37438
G1 X-23.194 Y38.288 E58.41247
G1 X-23.606 Y37.575 E58.48739
G1 X-23.796 Y37.202 E58.52547
G1 X-24.131 Y36.449 E58.60043
G1 X-24.281 Y36.057 E58.63858
G1 X-24.535 Y35.275 E58.71339
G1 X-24.643 Y34.875 E58.75102
G1 X-24.815 Y34.064 E58.82643
G1 X-24.915 Y33.412 E58.88636
G1 X-26.737 Y19.094 E60.19880
G1 X-26.800 Y18.100 E60.28936
G1 X-26.800 Y-28.100 E64.49031
G1 X-26.266 Y-30.950 E64.75397
G1 X-24.120 Y-36.477 E65.29308
G1 X-23.796 Y-37.202 E65.36529
G1 X-23.605 Y-37.576 E65.40345
G1 X-23.194 Y-38.288 E65.47820
G1 X-22.965 Y-38.640 E65.51638
G1 X-22.481 Y-39.307 E65.59133
G1 X-22.220 Y-39.628 E65.62896
G1 X-21.666 Y-40.245 E65.70436
G1 X-21.369 Y-40.542 E65.74254
G1 X-20.758 Y-41.092 E65.81729
G1 X-20.432 Y-41.356 E65.85547
G1 X-19.765 Y-41.840 E65.93041
G1 X-19.414 Y-42.068 E65.96849
G1 X-18.700 Y-42.480 E66.04342
G1 X-18.327 Y-42.671 E66.08150
G1 X-17.574 Y-43.006 E66.15645
G1 X-17.183 Y-43.156 E66.19454
G1 X-16.400 Y-43.410 E66.26944
G1 X-15.995 Y-43.519 E66.30751
G1 X-15.189 Y-43.690 E66.38248
G1 X-14.775 Y-43.756 E66.42055
G1 X-13.957 Y-43.842 E66.49532
G1 X-13.125 Y-43.875 E66.57106
G1 X15.286 Y-43.864 E69.15448
G1 X15.705 Y-43.842 E69.19261 F1800.000
G1 X16.525 Y-43.756 E69.26757
G1 X16.939 Y-43.690 E69.30566
G1 X17.749 Y-43.518 E69.38098
G1 X18.150 Y-43.410 E69.41871
G1 X18.933 Y-43.156 E69.49357
G1 X19.324 Y-43.006 E69.53166
G1 X20.077 Y-42.671 E69.60663
G1 X20.450 Y-42.481 E69.64471
G1 X21.164 Y-42.068 E69.71965
G1 X21.515 Y-41.840 E69.75772
G1 X22.182 Y-41.356 E69.83268
G1 X22.507 Y-41.092 E69.87075
G1 X23.120 Y-40.541 E69.94570
G1 X23.416 Y-40.245 E69.98378
G1 X23.967 Y-39.632 E70.05873
G1 X24.231 Y-39.307 E70.09680
G1 X24.715 Y-38.640 E70.17176
G1 X24.944 Y-38.289 E70.20985
G1 X25.355 Y-37.575 E70.28477
G1 X25.547 Y-37.199 E70.32316
G1 X25.881 Y-36.449 E70.39781
G1 X26.031 Y-36.058 E70.43588
G1 X26.285 Y-35.274 E70.51078
G1 X26.394 Y-34.870 E70.54886
G1 X26.565 Y-34.064 E70.62382
G1 X26.631 Y-33.650 E70.66189
G1 X26.717 Y-32.830 E70.73687
G1 X26.750 Y-32.007 E70.81177
G1 X26.778 Y-0.083 E73.71456
G1 X26.153 Y-0.023 F7800.000
G1 X26.175 Y24.994 E75.98930 F1800.000
G1 X26.125 Y32.052 E76.63111
G1 X26.093 Y32.799 E76.69915
G1 X26.014 Y33.552 E76.76800
G1 X25.948 Y33.966 E76.80606
G1 X25.790 Y34.708 E76.87508
G1 X25.682 Y35.113 E76.91316
G1 X25.448 Y35.834 E76.98212
G1 X25.297 Y36.227 E77.02040
G1 X24.989 Y36.918 E77.08919
G1 X24.799 Y37.291 E77.12727
G1 X24.419 Y37.948 E77.19627
G1 X24.194 Y38.295 E77.23389
G1 X23.745 Y38.914 E77.30335
G1 X23.482 Y39.239 E77.34142
G1 X22.974 Y39.803 E77.41043
G1 X22.678 Y40.099 E77.44850
G1 X22.114 Y40.607 E77.51750
G1 X21.789 Y40.870 E77.55557
G1 X21.175 Y41.316 E77.62459
G1 X20.823 Y41.544 E77.66265
G1 X20.166 Y41.924 E77.73163
G1 X19.793 Y42.114 E77.76971
G1 X19.103 Y42.421 E77.83845
G1 X18.709 Y42.573 E77.87682
G1 X17.988 Y42.807 E77.94577
G1 X17.583 Y42.915 E77.98384
G1 X16.848 Y43.072 E78.05223
G1 X16.427 Y43.139 E78.09092
G1 X15.672 Y43.218 E78.15996
G1 X14.875 Y43.250 E78.23251
G1 X-13.504 Y43.240 E80.81302
G1 X-13.922 Y43.218 E80.85109
G1 X-14.677 Y43.139 E80.92013
G1 X-15.091 Y43.073 E80.95820
G1 X-15.833 Y42.915 E81.02721
G1 X-16.238 Y42.807 E81.06529
G1 X-16.959 Y42.573 E81.13423
G1 X-17.350 Y42.423 E81.17230
G1 X-18.041 Y42.115 E81.24115
G1 X-18.416 Y41.924 E81.27942
G1 X-19.069 Y41.547 E81.34796
G1 X-19.425 Y41.316 E81.38647
G1 X-20.037 Y40.872 E81.45529
G1 X-20.364 Y40.607 E81.49355
G1 X-20.928 Y40.099 E81.56254
G1 X-21.225 Y39.801 E81.60082
G1 X-21.732 Y39.239 E81.66963
G1 X-21.995 Y38.914 E81.70770
G1 X-22.441 Y38.300 E81.77672
G1 X-22.669 Y37.948 E81.81481
G1 X-23.049 Y37.291 E81.88378
G1 X-23.239 Y36.918 E81.92186
G1 X-23.548 Y36.225 E81.99087
G1 X-23.698 Y35.833 E82.02901
G1 X-23.932 Y35.113 E82.09789
G1 X-24.039 Y34.713 E82.13552
G1 X-24.198 Y33.966 E82.20498
G1 X-24.295 Y33.333 E82.26318
G1 X-26.117 Y19.015 E83.57561
G1 X-26.175 Y18.100 E83.65899
G1 X-26.175 Y-28.100 E87.85994
G1 X-25.683 Y-30.724 E88.10268
G1 X-23.537 Y-36.251 E88.64178
G1 X-23.239 Y-36.918 E88.70827
G1 X-23.048 Y-37.292 E88.74641
G1 X-22.670 Y-37.947 E88.81524
G1 X-22.441 Y-38.300 E88.85341
G1 X-21.995 Y-38.913 E88.92241
G1 X-21.735 Y-39.235 E88.96004
G1 X-21.224 Y-39.803 E89.02949
G1 X-20.927 Y-40.100 E89.06767
G1 X-20.365 Y-40.606 E89.13648
G1 X-20.038 Y-40.870 E89.17465
G1 X-19.425 Y-41.316 E89.24364
G1 X-19.073 Y-41.544 E89.28172
G1 X-18.416 Y-41.924 E89.35071
G1 X-18.043 Y-42.114 E89.38879
G1 X-17.345 Y-42.424 E89.45826
G1 X-16.959 Y-42.573 E89.49588
G1 X-16.238 Y-42.807 E89.56483
G1 X-15.833 Y-42.915 E89.60291
G1 X-15.091 Y-43.073 E89.67193
G1 X-14.677 Y-43.139 E89.71000
G1 X-13.924 Y-43.218 E89.77883
G1 X-13.125 Y-43.250 E89.85158
G1 X15.254 Y-43.240 E92.43203
G1 X15.672 Y-43.218 E92.47016 F1800.000
G1 X16.427 Y-43.139 E92.53918
G1 X16.841 Y-43.073 E92.57726
G1 X17.582 Y-42.916 E92.64620
G1 X17.988 Y-42.807 E92.68436
G1 X18.709 Y-42.573 E92.75328
G1 X19.100 Y-42.423 E92.79138
G1 X19.793 Y-42.114 E92.86040
G1 X20.166 Y-41.924 E92.89847
G1 X20.823 Y-41.544 E92.96747
G1 X21.175 Y-41.316 E93.00553
G1 X21.789 Y-40.870 E93.07454
G1 X22.114 Y-40.607 E93.11262
G1 X22.678 Y-40.099 E93.18162
G1 X22.974 Y-39.803 E93.21970
G1 X23.482 Y-39.239 E93.28870
G1 X23.745 Y-38.914 E93.32677
G1 X24.191 Y-38.300 E93.39578
G1 X24.419 Y-37.948 E93.43387
G1 X24.799 Y-37.291 E93.50284
G1 X24.990 Y-36.915 E93.54121
G1 X25.298 Y-36.225 E93.60994
G1 X25.448 Y-35.834 E93.64800
G1 X25.682 Y-35.113 E93.71696
G1 X25.790 Y-34.708 E93.75504
G1 X25.948 Y-33.966 E93.82405
G1 X26.014 Y-33.552 E93.86212
G1 X26.093 Y-32.797 E93.93115
G1 X26.125 Y-32.006 E94.00313
G1 X26.153 Y-0.083 E96.90592
G1 X25.528 Y-0.022 F7800.000
G1 X25.550 Y24.994 E99.18067 F1800.000
G1 X25.500 Y32.047 E99.82202
G1 X25.469 Y32.766 E99.88747
G1 X25.396 Y33.455 E99.95038
G1 X25.331 Y33.868 E99.98845
G1 X25.187 Y34.547 E100.05152
G1 X25.078 Y34.951 E100.08960
G1 X24.864 Y35.610 E100.15261
G1 X24.713 Y36.003 E100.19088
G1 X24.432 Y36.634 E100.25374
G1 X24.242 Y37.008 E100.29182
G1 X23.895 Y37.608 E100.35487
G1 X23.670 Y37.955 E100.39249
G1 X23.260 Y38.520 E100.45600
G1 X22.996 Y38.846 E100.49407
G1 X22.532 Y39.361 E100.55713
G1 X22.236 Y39.657 E100.59521
G1 X21.721 Y40.121 E100.65826
G1 X21.395 Y40.385 E100.69633
G1 X20.834 Y40.792 E100.75939
G1 X20.483 Y41.020 E100.79746
G1 X19.883 Y41.367 E100.86049
G1 X19.510 Y41.557 E100.89857
G1 X18.879 Y41.838 E100.96138
G1 X18.485 Y41.989 E100.99973
G1 X17.826 Y42.203 E101.06273
G1 X17.421 Y42.312 E101.10081
G1 X16.749 Y42.455 E101.16330
G1 X16.330 Y42.521 E101.20194
G1 X15.640 Y42.594 E101.26503
G1 X14.875 Y42.625 E101.33461
G1 X-13.471 Y42.616 E103.91214
G1 X-13.890 Y42.594 E103.95021
G1 X-14.580 Y42.521 E104.01331
G1 X-14.993 Y42.456 E104.05137
G1 X-15.671 Y42.312 E104.11443
G1 X-16.076 Y42.203 E104.15251
G1 X-16.735 Y41.989 E104.21552
G1 X-17.126 Y41.839 E104.25358
G1 X-17.758 Y41.558 E104.31650
