; generated by Slic3r 1.2.9 on 2016-05-20 at 21:49:33

; external perimeters extrusion width = 0.50mm
; perimeters extrusion width = 0.72mm
; infill extrusion width = 0.72mm
; solid infill extrusion width = 0.72mm
; top infill extrusion width = 0.72mm

M107
M190 S45 ; set bed temperature
M104 S210 ; set temperature
G28 ; home all axes
G29 ; Auto-level
G1 Z5 F5000 ; lift nozzle

M109 S210 ; wait for temperature to be reached
G21 ; set units to millimeters
G90 ; use absolute coordinates
M82 ; use absolute distances for extrusion
G92 E0
G1 Z0.350 F7800.000
G1 E-2.00000 F2400.00000
G92 E0
G1 X50.007 Y50.026 F7800.000
G1 E2.00000 F2400.00000
G1 X57.953 Y42.083 E3.02161 F1800.000
G1 X58.789 Y41.304 E3.12555
G1 X59.841 Y40.482 E3.24690
G1 X60.374 Y40.123 E3.30539
G1 X61.216 Y39.623 E3.39437
G1 X62.096 Y39.180 E3.48402
G1 X63.334 Y38.680 E3.60543
G1 X64.275 Y38.387 E3.69504
G1 X65.235 Y38.160 E3.78468
G1 X66.208 Y38.001 E3.87432
G1 X67.189 Y37.910 E3.96396
G1 X67.826 Y37.888 E4.02186
G1 X84.174 Y37.888 E5.50847
G1 X84.809 Y37.910 E5.56622
G1 X85.792 Y38.001 E5.65596 F1800.000
G1 X86.765 Y38.160 E5.74564
G1 X87.725 Y38.387 E5.83529
G1 X88.994 Y38.799 E5.95661
G1 X89.903 Y39.180 E6.04624
G1 X90.784 Y39.623 E6.13588
G1 X91.631 Y40.126 E6.22552
G1 X92.159 Y40.482 E6.28343
G1 X92.943 Y41.079 E6.37298
G1 X93.684 Y41.730 E6.46264
G1 X94.047 Y42.083 E6.50874
G1 X110.047 Y58.077 E8.56585
G1 X110.611 Y58.684 E8.64118
G1 X111.020 Y59.172 E8.69909
G1 X111.805 Y60.251 E8.82042
G1 X112.317 Y61.093 E8.91006
G1 X112.769 Y61.970 E8.99970
G1 X113.028 Y62.551 E9.05761
G1 X113.484 Y63.805 E9.17893
G1 X113.744 Y64.756 E9.26858
G1 X113.937 Y65.723 E9.35821
G1 X114.062 Y66.700 E9.44784
G1 X114.107 Y67.336 E9.50575
G1 X114.124 Y68.003 E9.56644
G1 X114.124 Y83.997 E11.02076
G1 X114.107 Y84.664 E11.08146
G1 X114.062 Y85.299 E11.13936
G1 X113.876 Y86.622 E11.26081
G1 X113.660 Y87.583 E11.35033
G1 X113.484 Y88.195 E11.40826
G1 X113.028 Y89.449 E11.52964
G1 X112.619 Y90.337 E11.61852
G1 X112.317 Y90.907 E11.67713
G1 X111.805 Y91.749 E11.76677
G1 X111.235 Y92.553 E11.85639
G1 X110.611 Y93.316 E11.94603
G1 X110.047 Y93.923 E12.02135
G1 X93.684 Y110.270 E14.12452
G1 X92.943 Y110.921 E14.21413
G1 X92.442 Y111.313 E14.27205
G1 X91.335 Y112.059 E14.39339
G1 X90.784 Y112.377 E14.45131
G1 X89.903 Y112.820 E14.54093
G1 X88.666 Y113.320 E14.66229
G1 X87.725 Y113.613 E14.75190
G1 X86.765 Y113.840 E14.84155
G1 X85.793 Y113.999 E14.93117
G1 X84.811 Y114.090 E15.02082
G1 X84.174 Y114.112 E15.07872
G1 X67.826 Y114.112 E16.56533
G1 X67.190 Y114.090 E16.62318
G1 X66.209 Y113.999 E16.71272
G1 X64.893 Y113.767 E16.83421
G1 X64.276 Y113.613 E16.89211
G1 X63.334 Y113.320 E16.98174
G1 X62.097 Y112.820 E17.10309
G1 X61.216 Y112.377 E17.19272
G1 X60.665 Y112.059 E17.25065
G1 X59.841 Y111.518 E17.34022
G1 X59.057 Y110.921 E17.42991
G1 X58.065 Y110.028 E17.55123
G1 X41.953 Y93.923 E19.62267
G1 X41.389 Y93.316 E19.69800
G1 X40.765 Y92.553 E19.78767
G1 X40.200 Y91.755 E19.87656
G1 X39.858 Y91.209 E19.93517
G1 X39.231 Y90.030 E20.05654
G1 X38.841 Y89.125 E20.14615
G1 X38.516 Y88.195 E20.23576
G1 X38.340 Y87.583 E20.29369
G1 X38.123 Y86.621 E20.38332
G1 X37.974 Y85.647 E20.47295
G1 X37.893 Y84.664 E20.56258
G1 X37.876 Y83.997 E20.62328
G1 X37.881 Y67.685 E22.10655
G1 X37.974 Y66.353 E22.22789
G1 X38.123 Y65.379 E22.31752
G1 X38.256 Y64.756 E22.37543
G1 X38.624 Y63.473 E22.49679
G1 X38.972 Y62.551 E22.58644
G1 X39.384 Y61.656 E22.67603
G1 X39.683 Y61.093 E22.73395
G1 X40.195 Y60.251 E22.82359
G1 X40.980 Y59.171 E22.94499
G1 X41.389 Y58.684 E23.00283
G1 X41.953 Y58.077 E23.07816
G1 X49.954 Y50.079 E24.10683
G1 X50.448 Y50.468 F7800.000
G1 X58.394 Y42.525 E25.12845 F1800.000
G1 X59.191 Y41.782 E25.22744
G1 X60.208 Y40.988 E25.34483
G1 X60.706 Y40.652 E25.39946
G1 X61.509 Y40.175 E25.48437
G1 X62.351 Y39.751 E25.57005
G1 X63.548 Y39.267 E25.68749
G1 X64.448 Y38.987 E25.77313
G1 X65.365 Y38.771 E25.85881
G1 X65.949 Y38.668 E25.91276
G1 X66.884 Y38.558 E25.99837
G1 X67.826 Y38.513 E26.08409
G1 X84.174 Y38.513 E27.57069
G1 X84.766 Y38.533 E27.62450
G1 X85.705 Y38.620 E27.71026 F1800.000
G1 X86.635 Y38.771 E27.79597
G1 X87.553 Y38.987 E27.88165
G1 X88.780 Y39.386 E27.99901
G1 X89.649 Y39.750 E28.08468
G1 X90.490 Y40.174 E28.17035
G1 X91.300 Y40.656 E28.25602
G1 X91.792 Y40.988 E28.30996
G1 X92.541 Y41.558 E28.39556
G1 X93.250 Y42.179 E28.48125
G1 X93.606 Y42.525 E28.52637
G1 X109.606 Y58.519 E30.58348
G1 X110.147 Y59.102 E30.65582
G1 X110.528 Y59.556 E30.70976
G1 X111.287 Y60.600 E30.82713
G1 X111.776 Y61.406 E30.91280
G1 X112.207 Y62.243 E30.99847
G1 X112.448 Y62.785 E31.05242
G1 X112.890 Y63.998 E31.16977
G1 X113.138 Y64.907 E31.25546
G1 X113.261 Y65.488 E31.30940
G1 X113.404 Y66.419 E31.39506
G1 X113.482 Y67.358 E31.48073
G1 X113.500 Y68.003 E31.53944
G1 X113.500 Y83.997 E32.99376
G1 X113.482 Y84.642 E33.05247
G1 X113.441 Y85.234 E33.10641
G1 X113.261 Y86.514 E33.22389
G1 X113.055 Y87.424 E33.30876
G1 X112.890 Y88.002 E33.36341
G1 X112.448 Y89.215 E33.48082
G1 X112.057 Y90.064 E33.56581
G1 X111.776 Y90.594 E33.62039
G1 X111.287 Y91.400 E33.70606
G1 X110.743 Y92.169 E33.79171
G1 X110.147 Y92.898 E33.87738
G1 X109.606 Y93.481 E33.94972
G1 X93.250 Y109.821 E36.05191
G1 X92.542 Y110.442 E36.13756
G1 X92.074 Y110.807 E36.19151
G1 X91.004 Y111.529 E36.30888
G1 X90.490 Y111.826 E36.36283
G1 X89.649 Y112.250 E36.44849
G1 X88.452 Y112.733 E36.56588
G1 X87.553 Y113.013 E36.65152
G1 X86.635 Y113.229 E36.73721
G1 X85.706 Y113.380 E36.82287
G1 X84.767 Y113.467 E36.90855
G1 X84.174 Y113.487 E36.96248
G1 X67.826 Y113.487 E38.44909
G1 X67.225 Y113.466 E38.50372
G1 X66.296 Y113.381 E38.58857
G1 X65.023 Y113.156 E38.70607
G1 X64.448 Y113.013 E38.76001
G1 X63.548 Y112.733 E38.84568
G1 X62.351 Y112.250 E38.96306
G1 X61.510 Y111.826 E39.04873
G1 X60.996 Y111.529 E39.10268
G1 X60.209 Y111.013 E39.18829
G1 X59.458 Y110.442 E39.27402
G1 X58.499 Y109.578 E39.39137
G1 X42.394 Y93.481 E41.46183
G1 X41.853 Y92.898 E41.53417
G1 X41.257 Y92.168 E41.61987
G1 X40.718 Y91.406 E41.70480
G1 X40.399 Y90.896 E41.75944
G1 X39.793 Y89.756 E41.87685
G1 X39.421 Y88.891 E41.96250
G1 X39.110 Y88.002 E42.04814
G1 X38.947 Y87.431 E42.10210
G1 X38.739 Y86.512 E42.18777
G1 X38.596 Y85.581 E42.27343
G1 X38.518 Y84.642 E42.35910
G1 X38.500 Y83.997 E42.41781
G1 X38.500 Y68.003 E43.87213
G1 X38.518 Y67.358 E43.93083
G1 X38.596 Y66.419 E44.01650
G1 X38.739 Y65.488 E44.10216
G1 X38.862 Y64.907 E44.15611
G1 X39.218 Y63.666 E44.27350
G1 X39.552 Y62.785 E44.35918
G1 X39.946 Y61.930 E44.44482
G1 X40.396 Y61.109 E44.52989
G1 X40.713 Y60.601 E44.58444
G1 X41.472 Y59.556 E44.70187
G1 X41.853 Y59.102 E44.75575
G1 X42.394 Y58.519 E44.82809
G1 X50.395 Y50.521 E45.85677
G1 X50.890 Y50.910 F7800.000
G1 X58.836 Y42.967 E46.87838 F1800.000
G1 X59.593 Y42.261 E46.97243
G1 X60.575 Y41.493 E47.08585
G1 X61.030 Y41.186 E47.13573
G1 X61.802 Y40.726 E47.21746
G1 X62.612 Y40.318 E47.29987
G1 X63.762 Y39.854 E47.41264
G1 X64.290 Y39.683 E47.46314
G1 X65.152 Y39.455 E47.54423
G1 X66.036 Y39.287 E47.62602
G1 X66.928 Y39.181 E47.70767
G1 X67.826 Y39.138 E47.78941
G1 X84.174 Y39.138 E49.27602
G1 X84.722 Y39.157 E49.32587
G1 X85.618 Y39.238 E49.40766 F1800.000
G1 X86.505 Y39.383 E49.48940
G1 X87.380 Y39.588 E49.57111
G1 X88.566 Y39.973 E49.68451
G1 X89.395 Y40.321 E49.76621
G1 X90.197 Y40.726 E49.84791
G1 X90.969 Y41.186 E49.92962
G1 X91.425 Y41.493 E49.97960
G1 X92.140 Y42.036 E50.06123
G1 X92.816 Y42.629 E50.14296
G1 X93.164 Y42.967 E50.18709
G1 X109.164 Y58.960 E52.24420
G1 X109.682 Y59.520 E52.31355
G1 X110.036 Y59.941 E52.36353
G1 X110.769 Y60.950 E52.47693
G1 X111.234 Y61.718 E52.55864
G1 X111.645 Y62.517 E52.64034
G1 X111.869 Y63.020 E52.69033
G1 X112.296 Y64.191 E52.80371
G1 X112.532 Y65.058 E52.88543
G1 X112.706 Y65.940 E52.96713
G1 X112.819 Y66.831 E53.04883
G1 X112.858 Y67.379 E53.09881
G1 X112.875 Y68.003 E53.15553
G1 X112.875 Y83.997 E54.60985
G1 X112.819 Y85.169 E54.71653
G1 X112.646 Y86.405 E54.83004
G1 X112.447 Y87.280 E54.91164
G1 X112.296 Y87.809 E54.96163
G1 X111.869 Y88.981 E55.07507
G1 X111.496 Y89.789 E55.15603
G1 X111.234 Y90.282 E55.20671
G1 X110.769 Y91.050 E55.28842
G1 X110.250 Y91.784 E55.37011
G1 X109.682 Y92.480 E55.45181
G1 X109.164 Y93.040 E55.52116
G1 X92.816 Y109.371 E57.62237
G1 X92.140 Y109.963 E57.70405
G1 X91.707 Y110.302 E57.75404
G1 X90.673 Y110.999 E57.86744
G1 X90.197 Y111.274 E57.91743
G1 X89.395 Y111.679 E57.99912
G1 X88.238 Y112.146 E58.11255
G1 X87.380 Y112.412 E58.19423
G1 X86.505 Y112.617 E58.27594
G1 X85.619 Y112.761 E58.35764
G1 X84.724 Y112.843 E58.43935
G1 X84.174 Y112.862 E58.48932
G1 X67.826 Y112.862 E59.97593
G1 X67.277 Y112.843 E60.02586
G1 X66.383 Y112.762 E60.10748
G1 X65.153 Y112.545 E60.22101
G1 X64.613 Y112.410 E60.27168
G1 X63.762 Y112.146 E60.35269
G1 X62.605 Y111.679 E60.46610
G1 X61.803 Y111.274 E60.54780
G1 X61.327 Y110.999 E60.59779
G1 X60.576 Y110.507 E60.67944
G1 X59.860 Y109.963 E60.76119
G1 X58.933 Y109.129 E60.87459
G1 X42.836 Y93.040 E62.94406
G1 X42.318 Y92.480 E63.01342
G1 X41.749 Y91.784 E63.09515
G1 X41.231 Y91.050 E63.17682
G1 X40.940 Y90.584 E63.22679
G1 X40.354 Y89.482 E63.34023
G1 X40.000 Y88.657 E63.42192
G1 X39.704 Y87.809 E63.50360
G1 X39.553 Y87.280 E63.55359
G1 X39.354 Y86.404 E63.63529
G1 X39.217 Y85.516 E63.71699
G1 X39.142 Y84.621 E63.79869
G1 X39.125 Y83.997 E63.85541
G1 X39.130 Y67.728 E65.33472
G1 X39.181 Y66.831 E65.41642
G1 X39.294 Y65.940 E65.49812
G1 X39.553 Y64.719 E65.61158
G1 X39.812 Y63.859 E65.69324
G1 X40.000 Y63.343 E65.74320
G1 X40.508 Y62.204 E65.85662
G1 X40.766 Y61.718 E65.90660
G1 X41.231 Y60.950 E65.98831
G1 X41.965 Y59.940 E66.10177
G1 X42.318 Y59.520 E66.15169
G1 X42.836 Y58.960 E66.22104
G1 X50.837 Y50.963 E67.24972
G1 X51.332 Y51.351 F7800.000
G1 X59.278 Y43.409 E68.27133 F1800.000
G1 X59.994 Y42.740 E68.36043
G1 X60.943 Y41.999 E68.46988
G1 X61.368 Y41.712 E68.51650
G1 X62.096 Y41.278 E68.59357
G1 X62.866 Y40.889 E68.67206
G1 X63.975 Y40.441 E68.78082
G1 X64.792 Y40.189 E68.85853
G1 X65.624 Y39.994 E68.93628
G1 X66.123 Y39.906 E68.98229
G1 X66.971 Y39.804 E69.05998
G1 X67.826 Y39.762 E69.13776
G1 X84.174 Y39.762 E70.62437
G1 X84.679 Y39.780 E70.67026
G1 X85.531 Y39.857 E70.74807 F1800.000
G1 X86.376 Y39.994 E70.82585
G1 X87.208 Y40.189 E70.90360
G1 X88.353 Y40.561 E71.01302
G1 X89.141 Y40.892 E71.09076
G1 X89.904 Y41.278 E71.16850
G1 X90.638 Y41.716 E71.24624
G1 X91.057 Y41.999 E71.29225
G1 X91.738 Y42.515 E71.36993
G1 X92.381 Y43.078 E71.44768
G1 X92.722 Y43.409 E71.49083
G1 X108.722 Y59.402 E73.54794
G1 X109.218 Y59.938 E73.61431
G1 X109.543 Y60.326 E73.66032
G1 X110.251 Y61.299 E73.76976
G1 X110.693 Y62.031 E73.84750
G1 X110.931 Y62.478 E73.89351
G1 X111.290 Y63.254 E73.97126
G1 X111.701 Y64.384 E74.08068
G1 X111.925 Y65.210 E74.15843
G1 X112.091 Y66.048 E74.23616
G1 X112.198 Y66.896 E74.31389
G1 X112.233 Y67.401 E74.35991
G1 X112.250 Y68.003 E74.41465
G1 X112.250 Y83.997 E75.86897
G1 X112.233 Y84.599 E75.92371
G1 X112.198 Y85.104 E75.96972
G1 X112.091 Y85.952 E76.04745
G1 X111.841 Y87.129 E76.15690
G1 X111.593 Y87.948 E76.23470
G1 X111.293 Y88.739 E76.31167
G1 X111.084 Y89.209 E76.35838
G1 X110.693 Y89.969 E76.43612
G1 X110.251 Y90.701 E76.51386
G1 X109.758 Y91.399 E76.59159
G1 X109.218 Y92.062 E76.66933
G1 X108.722 Y92.598 E76.73569
G1 X92.382 Y108.922 E78.83592
G1 X91.738 Y109.484 E78.91364
G1 X91.340 Y109.796 E78.95966
G1 X90.342 Y110.469 E79.06909
G1 X89.904 Y110.722 E79.11512
G1 X89.141 Y111.108 E79.19284
G1 X88.025 Y111.559 E79.30230
G1 X87.208 Y111.811 E79.38001
G1 X86.717 Y111.934 E79.42604
G1 X85.877 Y112.094 E79.50377
G1 X85.028 Y112.196 E79.58152
G1 X84.174 Y112.238 E79.65924
G1 X67.826 Y112.238 E81.14585
G1 X67.320 Y112.220 E81.19182
G1 X66.470 Y112.143 E81.26948
G1 X65.283 Y111.934 E81.37904
G1 X64.792 Y111.811 E81.42504
G1 X63.975 Y111.559 E81.50278
G1 X62.859 Y111.108 E81.61223
G1 X62.096 Y110.722 E81.68997
G1 X61.658 Y110.469 E81.73599
G1 X60.943 Y110.001 E81.81368
G1 X60.262 Y109.484 E81.89146
G1 X59.367 Y108.679 E82.00089
G1 X43.278 Y92.598 E84.06938
G1 X42.782 Y92.062 E84.13575
G1 X42.242 Y91.399 E84.21351
G1 X41.754 Y90.707 E84.29052
G1 X41.481 Y90.271 E84.33723
G1 X40.916 Y89.208 E84.44670
G1 X40.580 Y88.423 E84.52442
G1 X40.299 Y87.616 E84.60214
G1 X40.159 Y87.129 E84.64816
G1 X39.970 Y86.295 E84.72590
G1 X39.839 Y85.451 E84.80363
G1 X39.767 Y84.599 E84.88136
G1 X39.750 Y83.997 E84.93611
G1 X39.755 Y67.750 E86.41343
G1 X39.802 Y66.896 E86.49116
G1 X39.909 Y66.048 E86.56890
G1 X40.159 Y64.871 E86.67838
G1 X40.407 Y64.053 E86.75609
G1 X40.580 Y63.577 E86.80208
G1 X41.069 Y62.478 E86.91153
G1 X41.307 Y62.031 E86.95755
G1 X41.749 Y61.299 E87.03529
G1 X42.457 Y60.325 E87.14478
G1 X42.782 Y59.938 E87.19074
G1 X43.278 Y59.402 E87.25710
G1 X51.279 Y51.405 E88.28578
G1 X51.774 Y51.793 F7800.000
G1 X59.720 Y43.850 E89.30739 F1800.000
G1 X60.396 Y43.219 E89.39155
G1 X61.310 Y42.504 E89.49704
G1 X61.699 Y42.242 E89.53969
G1 X62.389 Y41.830 E89.61280
G1 X63.113 Y41.463 E89.68658
G1 X64.189 Y41.028 E89.79210
G1 X64.964 Y40.789 E89.86586
G1 X65.754 Y40.605 E89.93964
G1 X66.210 Y40.525 E89.98168
G1 X67.015 Y40.428 E90.05541
G1 X67.826 Y40.387 E90.12922
G1 X84.174 Y40.387 E91.61583
G1 X84.635 Y40.403 E91.65776
G1 X85.444 Y40.476 E91.73161 F1800.000
G1 X86.246 Y40.605 E91.80541
G1 X87.036 Y40.789 E91.87919
G1 X88.139 Y41.148 E91.98466
G1 X88.886 Y41.463 E92.05843
G1 X89.610 Y41.830 E92.13220
G1 X90.307 Y42.246 E92.20598
G1 X90.690 Y42.504 E92.24802
G1 X91.336 Y42.994 E92.32173
G1 X91.947 Y43.528 E92.39552
G1 X92.280 Y43.850 E92.43769
G1 X108.280 Y59.844 E94.49480
G1 X108.753 Y60.356 E94.55818
G1 X109.051 Y60.710 E94.60023
G1 X109.732 Y61.649 E94.70570
G1 X110.152 Y62.343 E94.77947
G1 X110.522 Y63.065 E94.85325
G1 X110.710 Y63.488 E94.89530
G1 X111.107 Y64.578 E95.00075
G1 X111.319 Y65.361 E95.07454
G1 X111.476 Y66.157 E95.14831
G1 X111.576 Y66.962 E95.22207
G1 X111.609 Y67.423 E95.26412
G1 X111.625 Y68.003 E95.31688
G1 X111.625 Y83.997 E96.77120
G1 X111.609 Y84.577 E96.82396
G1 X111.576 Y85.038 E96.86600
G1 X111.476 Y85.843 E96.93977
G1 X111.234 Y86.978 E97.04525
G1 X110.999 Y87.755 E97.11908
G1 X110.713 Y88.505 E97.19209
G1 X110.522 Y88.935 E97.23483
G1 X110.152 Y89.657 E97.30861
G1 X109.732 Y90.351 E97.38238
G1 X109.266 Y91.015 E97.45614
G1 X108.753 Y91.644 E97.52991
G1 X108.280 Y92.156 E97.59330
G1 X91.948 Y108.472 E99.69254
G1 X91.337 Y109.006 E99.76629
G1 X90.972 Y109.291 E99.80835
G1 X90.011 Y109.939 E99.91382
G1 X89.610 Y110.170 E99.95587
G1 X88.887 Y110.537 E100.02963
G1 X87.811 Y110.972 E100.13512
G1 X87.036 Y111.211 E100.20888
G1 X86.587 Y111.322 E100.25094
G1 X85.790 Y111.475 E100.32470
G1 X84.985 Y111.572 E100.39848
G1 X84.174 Y111.613 E100.47224
G1 X67.826 Y111.613 E101.95885
G1 X67.364 Y111.597 E102.00085
G1 X66.556 Y111.524 E102.07456
G1 X65.413 Y111.322 E102.18014
G1 X64.964 Y111.211 E102.22218
G1 X64.189 Y110.972 E102.29595
G1 X63.114 Y110.537 E102.40143
G1 X62.390 Y110.170 E102.47520
G1 X61.989 Y109.939 E102.51726
G1 X61.310 Y109.496 E102.59098
G1 X60.663 Y109.006 E102.66480
G1 X59.801 Y108.230 E102.77026
G1 X43.720 Y92.156 E104.83778
G1 X43.247 Y91.644 E104.90116
G1 X42.734 Y91.014 E104.97495
G1 X42.272 Y90.358 E105.04800
G1 X42.022 Y89.959 E105.09074
G1 X41.478 Y88.935 E105.19624
G1 X41.159 Y88.189 E105.27000
G1 X40.893 Y87.422 E105.34375
G1 X40.766 Y86.978 E105.38581
G1 X40.585 Y86.187 E105.45958
G1 X40.460 Y85.385 E105.53334
G1 X40.391 Y84.577 E105.60711
G1 X40.375 Y83.997 E105.65987
G1 X40.379 Y67.772 E107.13521
G1 X40.424 Y66.962 E107.20898
G1 X40.524 Y66.157 E107.28275
G1 X40.766 Y65.022 E107.38827
G1 X41.001 Y64.246 E107.46201
G1 X41.159 Y63.811 E107.50404
G1 X41.631 Y62.752 E107.60952
G1 X41.848 Y62.343 E107.65157
G1 X42.268 Y61.649 E107.72534
G1 X42.950 Y60.710 E107.83086
G1 X43.247 Y60.356 E107.87286
G1 X43.720 Y59.844 E107.93624
G1 X51.721 Y51.846 E108.96492
G1 E106.96492 F2400.00000
G92 E0
G1 X86.302 Y70.227 F7800.000
G1 E2.00000 F2400.00000
G1 X85.975 Y70.521 E2.04004 F1800.000
G1 X85.785 Y70.660 E2.06147
G1 X85.403 Y70.880 E2.10151
G1 X84.995 Y71.045 E2.14156
G1 X84.768 Y71.110 E2.16299
