; generated by Slic3r 1.2.9 on 2016-10-04 at 18:27:27

; external perimeters extrusion width = 0.40mm
; perimeters extrusion width = 0.48mm
; infill extrusion width = 0.48mm
; solid infill extrusion width = 0.48mm
; top infill extrusion width = 0.48mm

M107
M104 S210 ; set temperature
G28 ; home all axes
G1 Z5 F5000 ; lift nozzle

M109 S210 ; wait for temperature to be reached
G21 ; set units to millimeters
G90 ; use absolute coordinates
M82 ; use absolute distances for extrusion
G92 E0
G1 Z0.350 F7800.000
G1 E-2.00000 F2400.00000
G92 E0
G1 X-15.664 Y27.130 F7800.000
G1 E2.00000 F2400.00000
G1 X-36.843 Y14.902 E4.22380 F1800.000
G1 X-38.952 Y13.225 E4.46879
G1 X-40.479 Y11.005 E4.71379
G1 X-41.292 Y8.436 E4.95879
G1 X-41.406 Y7.000 E5.08980
G1 X-41.406 Y-7.000 E6.36282
G1 X-41.008 Y-9.665 E6.60781
G1 X-39.849 Y-12.097 E6.85281
G1 X-38.030 Y-14.085 E7.09781
G1 X-36.843 Y-14.902 E7.22882
G1 X15.594 Y-45.177 E12.73461
G1 X18.101 Y-46.165 E12.97960
G1 X20.787 Y-46.378 E13.22460
G1 X23.418 Y-45.797 E13.46960
G1 X24.719 Y-45.177 E13.60061 F1800.000
G1 X36.843 Y-38.177 E14.87363
G1 X38.952 Y-36.500 E15.11863
G1 X40.479 Y-34.280 E15.36363
G1 X41.292 Y-31.711 E15.60862
G1 X41.406 Y-30.275 E15.73964
G1 X41.406 Y30.275 E21.24543
G1 X41.008 Y32.940 E21.49042
G1 X39.849 Y35.372 E21.73542
G1 X38.030 Y37.360 E21.98042
G1 X36.843 Y38.177 E22.11144
G1 X24.719 Y45.177 E23.38446
G1 X22.212 Y46.165 E23.62945
G1 X19.526 Y46.378 E23.87445
G1 X16.895 Y45.797 E24.11945
G1 X15.594 Y45.177 E24.25046
G1 X-15.612 Y27.160 E27.52699
G1 X-15.351 Y26.589 F7800.000
G1 X-36.531 Y14.361 E29.75079 F1800.000
G1 X-38.557 Y12.732 E29.98720
G1 X-39.996 Y10.566 E30.22361
G1 X-40.781 Y7.000 E30.55565
G1 X-40.781 Y-7.000 E31.82867
G1 X-40.383 Y-9.569 E32.06508
G1 X-39.227 Y-11.898 E32.30149
G1 X-36.531 Y-14.361 E32.63354
G1 X15.907 Y-44.636 E38.13932
G1 X18.331 Y-45.576 E38.37573
G1 X20.926 Y-45.740 E38.61214
G1 X24.406 Y-44.636 E38.94418
G1 X36.531 Y-37.636 E40.21720 F1800.000
G1 X38.557 Y-36.007 E40.45361
G1 X39.996 Y-33.841 E40.69002
G1 X40.781 Y-30.275 E41.02207
G1 X40.781 Y30.275 E46.52786
G1 X40.383 Y32.844 E46.76427
G1 X39.227 Y35.173 E47.00068
G1 X36.531 Y37.636 E47.33272
G1 X24.406 Y44.636 E48.60574
G1 X21.983 Y45.576 E48.84215
G1 X19.388 Y45.740 E49.07857
G1 X15.907 Y44.636 E49.41061
G1 X-15.299 Y26.619 E52.68714
G1 X-15.039 Y26.048 F7800.000
G1 X-36.218 Y13.820 E54.91094 F1800.000
G1 X-38.159 Y12.240 E55.13844
G1 X-39.506 Y10.132 E55.36594
G1 X-40.156 Y7.000 E55.65680
G1 X-40.156 Y-7.000 E56.92981
G1 X-39.758 Y-9.470 E57.15731
G1 X-38.606 Y-11.691 E57.38481
G1 X-36.218 Y-13.820 E57.67567
G1 X16.219 Y-44.095 E63.18146
G1 X18.557 Y-44.986 E63.40896
G1 X21.057 Y-45.098 E63.63646
G1 X24.094 Y-44.095 E63.92731
G1 X36.218 Y-37.095 E65.20034 F1800.000
G1 X38.159 Y-35.515 E65.42784
G1 X39.506 Y-33.407 E65.65534
G1 X40.156 Y-30.275 E65.94620
G1 X40.156 Y30.275 E71.45198
G1 X39.758 Y32.745 E71.67948
G1 X38.606 Y34.966 E71.90699
G1 X36.218 Y37.095 E72.19785
G1 X24.094 Y44.095 E73.47087
G1 X21.756 Y44.986 E73.69837
G1 X19.257 Y45.098 E73.92587
G1 X16.219 Y44.095 E74.21673
G1 X-14.987 Y26.078 E77.49326
G1 X-14.726 Y25.507 F7800.000
G1 X-35.906 Y13.278 E79.71705 F1800.000
G1 X-37.757 Y11.751 E79.93528
G1 X-39.008 Y9.703 E80.15351
G1 X-39.531 Y7.000 E80.40384
G1 X-39.531 Y-7.000 E81.67685
G1 X-39.134 Y-9.367 E81.89508
G1 X-37.985 Y-11.474 E82.11331
G1 X-35.906 Y-13.278 E82.36364
G1 X16.532 Y-43.553 E87.86942
G1 X18.780 Y-44.393 E88.08765
G1 X21.179 Y-44.452 E88.30588
G1 X23.782 Y-43.554 E88.55620
G1 X35.906 Y-36.553 E89.82923 F1800.000
G1 X37.757 Y-35.026 E90.04745
G1 X39.008 Y-32.978 E90.26568
G1 X39.531 Y-30.275 E90.51601
G1 X39.531 Y30.275 E96.02180
G1 X39.134 Y32.642 E96.24002
G1 X37.985 Y34.749 E96.45825
G1 X35.906 Y36.553 E96.70858
G1 X23.782 Y43.554 E97.98160
G1 X21.533 Y44.393 E98.19983
G1 X19.134 Y44.452 E98.41806
G1 X16.532 Y43.553 E98.66839
G1 X-14.674 Y25.537 E101.94492
G1 X-14.414 Y24.965 F7800.000
G1 X-35.594 Y12.737 E104.16871 F1800.000
G1 X-37.351 Y11.264 E104.37726
G1 X-38.501 Y9.280 E104.58580
G1 X-38.906 Y7.000 E104.79635
G1 X-38.906 Y-7.000 E106.06936
G1 X-38.509 Y-9.259 E106.27790
G1 X-37.366 Y-11.247 E106.48644
G1 X-35.594 Y-12.737 E106.69699
G1 X16.844 Y-43.012 E112.20278
G1 X18.999 Y-43.798 E112.41132
G1 X21.292 Y-43.802 E112.61986
G1 X23.469 Y-43.012 E112.83040
G1 X35.594 Y-36.012 E114.10342 F1800.000
G1 X37.351 Y-34.539 E114.31197
G1 X38.501 Y-32.555 E114.52051
G1 X38.906 Y-30.275 E114.73106
G1 X38.906 Y30.275 E120.23684
G1 X38.509 Y32.534 E120.44539
G1 X37.366 Y34.522 E120.65393
G1 X35.594 Y36.012 E120.86448
G1 X23.469 Y43.012 E122.13750
G1 X21.314 Y43.798 E122.34604
G1 X19.021 Y43.802 E122.55458
G1 X16.844 Y43.012 E122.76513
G1 X-14.362 Y24.995 E126.04166
G1 E124.04166 F2400.00000
G92 E0
G1 X-23.952 Y4.088 F7800.000
G1 E2.00000 F2400.00000
G1 X-13.366 Y4.645 E2.96385 F1800.000
G1 X-12.487 Y4.138 E3.05614
G1 X-11.969 Y6.072 E3.23825
G1 X-11.232 Y7.992 E3.42527
G1 X-10.298 Y9.825 E3.61229
G1 X-9.178 Y11.549 E3.79922
G1 X-7.798 Y13.234 E3.99728
G1 X-6.429 Y14.602 E4.17329
G1 X-4.831 Y15.897 E4.36031
G1 X-3.106 Y17.017 E4.54733
G1 X-1.273 Y17.951 E4.73435
G1 X0.647 Y18.688 E4.92137
G1 X2.634 Y19.220 E5.10839
G1 X4.665 Y19.542 E5.29541
G1 X6.719 Y19.650 E5.48243
G1 X8.773 Y19.542 E5.66945
G1 X10.804 Y19.220 E5.85647
G1 X12.739 Y18.702 E6.03858
G1 X12.739 Y19.717 E6.13087
G1 X18.514 Y28.605 E7.09472
G1 X14.956 Y30.659 E7.46824
G1 X14.699 Y30.791 E7.49453
G1 X14.420 Y30.898 E7.52167
G1 X14.132 Y30.975 E7.54880
G1 X13.837 Y31.021 E7.57593
G1 X13.539 Y31.037 E7.60305
G1 X13.241 Y31.021 E7.63018
G1 X12.947 Y30.975 E7.65731
G1 X12.659 Y30.898 E7.68444
G1 X12.380 Y30.791 E7.71158
G1 X12.122 Y30.659 E7.73787
G1 X-22.535 Y10.650 E11.37672
G1 X-22.777 Y10.493 E11.40302
G1 X-23.009 Y10.305 E11.43015
G1 X-23.220 Y10.094 E11.45728
G1 X-23.408 Y9.862 E11.48440
G1 X-23.570 Y9.612 E11.51154
G1 X-23.706 Y9.346 E11.53867
G1 X-23.813 Y9.067 E11.56580
G1 X-23.890 Y8.779 E11.59293
G1 X-23.936 Y8.484 E11.62006
G1 X-23.952 Y8.196 E11.64635
G1 X-23.952 Y4.148 E12.01442
G1 X-23.938 Y3.688 F7800.000
G1 E10.01442 F2400.00000
G92 E0
G1 X-9.190 Y7.594 F7800.000
G1 E2.00000 F2400.00000
G1 X-9.064 Y7.206 E2.03710 F1800.000
G1 X-8.865 Y6.861 E2.07337
G1 X-8.725 Y6.688 E2.09361
G1 X-8.428 Y6.421 E2.12987
G1 X-8.075 Y6.217 E2.16698
G1 X-7.687 Y6.091 E2.20405
G1 X-7.301 Y6.050 E2.23934 F1800.000
G1 X-7.069 Y6.060 E2.26049
G1 X-6.678 Y6.144 E2.29684
G1 X-6.305 Y6.310 E2.33395
G1 X-5.975 Y6.549 E2.37106
G1 X-5.702 Y6.853 E2.40816
G1 X-5.498 Y7.206 E2.44527
G1 X-5.372 Y7.594 E2.48237
G1 X-5.329 Y8.000 E2.51948
G1 X-5.372 Y8.406 E2.55658
G1 X-5.498 Y8.794 E2.59369
G1 X-5.702 Y9.147 E2.63079
G1 X-5.969 Y9.444 E2.66705
G1 X-6.142 Y9.584 E2.68729
G1 X-6.487 Y9.783 E2.72356
G1 X-6.875 Y9.909 E2.76066
G1 X-7.281 Y9.952 E2.79777
G1 X-7.687 Y9.909 E2.83488
G1 X-8.075 Y9.783 E2.87198
G1 X-8.420 Y9.584 E2.90825
G1 X-8.593 Y9.444 E2.92849
G1 X-8.860 Y9.147 E2.96474
G1 X-9.064 Y8.794 E3.00186
G1 X-9.190 Y8.406 E3.03896
G1 X-9.233 Y8.000 E3.07606
G1 X-9.197 Y7.654 E3.10771
G1 X-9.478 Y7.316 F7800.000
G1 X-7.894 Y11.144 F7800.000
G1 X-7.281 Y11.209 E3.16377 F1800.000
G1 X-6.614 Y11.138 E3.22477
G1 X-5.976 Y10.931 E3.28576
G1 X-5.432 Y10.617 E3.34293
G1 X-5.106 Y10.353 E3.38106
G1 X-4.685 Y9.886 E3.43818
G1 X-4.416 Y9.420 E3.48711
G1 X-4.132 Y9.771 E3.52812
G1 X-3.111 Y10.792 E3.65946
G1 X-1.868 Y11.811 E3.80562
G1 X-0.582 Y12.646 E3.94501
G1 X0.780 Y13.340 E4.08399
G1 X2.207 Y13.887 E4.22297
G1 X3.683 Y14.283 E4.36195
G1 X4.089 Y14.347 E4.39933
G1 X3.739 Y15.133 E4.47752
G1 X3.608 Y15.748 E4.53469
G1 X3.589 Y16.124 E4.56899
G1 X3.608 Y16.501 E4.60328
G1 X3.739 Y17.116 E4.66044
G1 X4.012 Y17.729 E4.72143
G1 X4.377 Y18.231 E4.77788
G1 X2.894 Y17.996 E4.91441
G1 X1.034 Y17.498 E5.08952
G1 X-0.764 Y16.807 E5.26463
G1 X-2.480 Y15.933 E5.43974
G1 X-4.095 Y14.884 E5.61485
G1 X-5.592 Y13.672 E5.78996
G1 X-6.870 Y12.394 E5.95438
G1 X-7.856 Y11.191 E6.09582
G1 X-9.270 Y9.626 F7800.000
G1 X-9.025 Y9.898 E6.12913 F1800.000
G1 X-8.776 Y10.100 E6.15831
G1 X-8.331 Y10.357 E6.20503
G1 X-7.818 Y10.524 E6.25407
G1 X-7.281 Y10.580 E6.30313
G1 X-6.745 Y10.524 E6.35218
G1 X-6.232 Y10.357 E6.40123
G1 X-5.787 Y10.100 E6.44795
G1 X-5.537 Y9.898 E6.47713
G1 X-5.194 Y9.517 E6.52382
G1 X-4.924 Y9.049 E6.57288
G1 X-4.757 Y8.536 E6.62193
G1 X-4.708 Y8.067 E6.66484
G1 X-3.667 Y9.352 E6.81517
G1 X-2.691 Y10.328 E6.94072
G1 X-1.498 Y11.305 E7.08092
G1 X-0.269 Y12.104 E7.21420
G1 X1.034 Y12.768 E7.34722
G1 X2.400 Y13.292 E7.48025
G1 X3.813 Y13.671 E7.61327
G1 X5.401 Y13.922 E7.75948
G1 X4.873 Y14.398 E7.82409
G1 X4.556 Y14.834 E7.87314
G1 X4.337 Y15.327 E7.92218
G1 X4.230 Y15.829 E7.96890
G1 X4.214 Y16.124 E7.99575
G1 X4.230 Y16.419 E8.02259
G1 X4.337 Y16.922 E8.06931
G1 X4.556 Y17.415 E8.11836
G1 X4.873 Y17.851 E8.16741
G1 X5.274 Y18.212 E8.21646
G1 X5.741 Y18.482 E8.26550
G1 X6.345 Y18.678 E8.32323
G1 X6.285 Y19.001 E8.35313
G1 X4.730 Y18.920 E8.49469
G1 X2.764 Y18.608 E8.67575
G1 X0.840 Y18.093 E8.85681
G1 X-1.019 Y17.379 E9.03788
G1 X-2.793 Y16.475 E9.21894
G1 X-4.463 Y15.391 E9.40001
G1 X-6.010 Y14.137 E9.58107
G1 X-7.334 Y12.814 E9.75128
G1 X-8.673 Y11.180 E9.94339
G1 X-9.545 Y9.837 E10.08894
G1 X-9.318 Y9.663 E10.11500
G1 X4.934 Y15.521 F7800.000
G1 X5.100 Y15.148 E10.15210 F1800.000
G1 X5.340 Y14.818 E10.18921
G1 X5.643 Y14.545 E10.22632
G1 X5.997 Y14.341 E10.26342
G1 X6.385 Y14.215 E10.30050
G1 X6.770 Y14.174 E10.33578 F1800.000
G1 X7.003 Y14.185 E10.35693
G1 X7.394 Y14.268 E10.39329
G1 X7.767 Y14.434 E10.43039
G1 X8.097 Y14.674 E10.46750
G1 X8.370 Y14.977 E10.50461
G1 X8.574 Y15.330 E10.54171
G1 X8.700 Y15.719 E10.57881
G1 X8.743 Y16.124 E10.61592
G1 X8.700 Y16.530 E10.65302
G1 X8.574 Y16.918 E10.69013
G1 X8.374 Y17.265 E10.72648
G1 X8.227 Y17.444 E10.74763
G1 X7.938 Y17.704 E10.78292
G1 X7.585 Y17.907 E10.82000
G1 X7.197 Y18.034 E10.85710
G1 X6.791 Y18.076 E10.89421
G1 X6.385 Y18.034 E10.93132
G1 X5.997 Y17.907 E10.96842
G1 X5.643 Y17.704 E11.00552
G1 X5.340 Y17.430 E11.04263
G1 X5.100 Y17.100 E11.07973
G1 X4.934 Y16.728 E11.11684
G1 X4.851 Y16.337 E11.15311
G1 X4.851 Y15.911 E11.19185
G1 X4.922 Y15.580 E11.22267
G1 X4.677 Y15.215 F7800.000
G1 E9.22267 F2400.00000
G92 E0
G1 X22.119 Y28.816 F7800.000
G1 E2.00000 F2400.00000
G1 X22.321 Y28.567 E2.02917 F1800.000
G1 X22.702 Y28.224 E2.07586
G1 X23.169 Y27.954 E2.12492
G1 X23.682 Y27.787 E2.17393
G1 X24.185 Y27.734 E2.21995 F1800.000
G1 X24.512 Y27.750 E2.24970
G1 X25.016 Y27.857 E2.29655
G1 X25.509 Y28.076 E2.34562
G1 X25.945 Y28.393 E2.39467
G1 X26.306 Y28.794 E2.44370
G1 X26.576 Y29.261 E2.49277
G1 X26.743 Y29.774 E2.54181
G1 X26.799 Y30.311 E2.59086
G1 X26.743 Y30.847 E2.63990
G1 X26.576 Y31.360 E2.68896
G1 X26.306 Y31.828 E2.73801
G1 X25.963 Y32.209 E2.78470
G1 X25.713 Y32.411 E2.81388
G1 X25.268 Y32.668 E2.86061
G1 X24.755 Y32.835 E2.90966
G1 X24.219 Y32.891 E2.95871
G1 X23.682 Y32.835 E3.00776
G1 X23.169 Y32.668 E3.05680
G1 X22.702 Y32.398 E3.10587
G1 X22.319 Y32.053 E3.15273
G1 X22.114 Y31.798 E3.18247
G1 X21.862 Y31.360 E3.22849
G1 X21.695 Y30.847 E3.27751
G1 X21.639 Y30.311 E3.32655
G1 X21.695 Y29.774 E3.37560
G1 X21.862 Y29.261 E3.42465
G1 X22.089 Y28.868 E3.46592
G1 X22.635 Y29.171 F7800.000
G1 X22.775 Y28.999 E3.48615 F1800.000
G1 X23.072 Y28.732 E3.52240
G1 X23.425 Y28.528 E3.55952
G1 X23.813 Y28.402 E3.59661
G1 X24.203 Y28.360 E3.63229 F1800.000
G1 X24.431 Y28.372 E3.65306
G1 X24.822 Y28.454 E3.68938
G1 X25.195 Y28.620 E3.72649
G1 X25.525 Y28.860 E3.76360
G1 X25.798 Y29.164 E3.80070
G1 X26.002 Y29.517 E3.83781
G1 X26.128 Y29.905 E3.87491
G1 X26.171 Y30.311 E3.91202
G1 X26.128 Y30.717 E3.94912
G1 X26.002 Y31.105 E3.98623
G1 X25.798 Y31.458 E4.02333
G1 X25.531 Y31.755 E4.05959
G1 X25.358 Y31.895 E4.07983
G1 X25.013 Y32.094 E4.11610
G1 X24.625 Y32.220 E4.15320
G1 X24.219 Y32.263 E4.19031
G1 X23.813 Y32.220 E4.22742
G1 X23.425 Y32.094 E4.26452
G1 X23.072 Y31.890 E4.30163
G1 X22.775 Y31.623 E4.33795
G1 X22.632 Y31.445 E4.35873
G1 X22.436 Y31.105 E4.39441
G1 X22.310 Y30.717 E4.43150
G1 X22.267 Y30.311 E4.46860
G1 X22.310 Y29.905 E4.50571
G1 X22.436 Y29.517 E4.54281
G1 X22.605 Y29.223 E4.57363
G1 X22.545 Y28.968 F7800.000
G1 X20.280 Y29.029 F7800.000
G1 X13.989 Y19.346 E5.62358 F1800.000
G1 X13.989 Y17.073 E5.83031
G1 X10.544 Y17.996 E6.15456
G1 X9.279 Y18.196 E6.27102
G1 X9.722 Y17.429 E6.35155
G1 X9.929 Y16.791 E6.41253
G1 X9.999 Y16.124 E6.47352
G1 X9.929 Y15.457 E6.53452
G1 X9.722 Y14.819 E6.59551
G1 X9.441 Y14.333 E6.64662
G1 X9.755 Y14.283 E6.67552
G1 X11.231 Y13.887 E6.81450
G1 X12.658 Y13.340 E6.95348
G1 X14.020 Y12.646 E7.09246
G1 X15.302 Y11.813 E7.23143
G1 X16.490 Y10.851 E7.37041
G1 X17.570 Y9.771 E7.50939
G1 X17.770 Y9.524 E7.53829
G1 X18.051 Y10.009 E7.58928
G1 X18.461 Y10.466 E7.64510
G1 X18.794 Y10.739 E7.68423
G1 X19.342 Y11.056 E7.74182
G1 X19.980 Y11.263 E7.80280
G1 X20.647 Y11.333 E7.86380
G1 X21.233 Y11.271 E7.91736
G1 X20.391 Y12.311 E8.03896
G1 X17.870 Y14.832 E8.36321
G1 X19.839 Y15.969 E8.56993
G1 X25.079 Y26.258 E9.61988
G1 X29.805 Y23.530 E10.11617
G1 X30.130 Y23.318 E10.15139
G1 X30.681 Y22.872 E10.21589
G1 X30.681 Y29.351 E10.80504
G1 X27.325 Y31.289 E11.15749
G1 X27.428 Y30.311 E11.24695
G1 X27.357 Y29.644 E11.30795
G1 X27.150 Y29.006 E11.36894
G1 X26.815 Y28.425 E11.42996
G1 X26.366 Y27.927 E11.49092
G1 X25.823 Y27.532 E11.55192
G1 X25.210 Y27.259 E11.61294
G1 X24.593 Y27.128 E11.67033
G1 X24.168 Y27.107 E11.70904
G1 X23.551 Y27.173 E11.76541
G1 X22.914 Y27.380 E11.82634
G1 X22.333 Y27.715 E11.88735
G1 X21.866 Y28.136 E11.94448
G1 X21.602 Y28.461 E11.98258
G1 X21.288 Y29.006 E12.03977
G1 X21.080 Y29.644 E12.10076
G1 X21.010 Y30.311 E12.16175
G1 X21.080 Y30.978 E12.22273
G1 X21.287 Y31.615 E12.28367
G1 X21.597 Y32.152 E12.34004
G1 X21.864 Y32.484 E12.37874
G1 X22.333 Y32.907 E12.43615
G1 X22.914 Y33.242 E12.49716
G1 X23.572 Y33.456 E12.56009
G1 X20.157 Y35.428 E12.91868
G1 X14.546 Y32.188 E13.50783
G1 X15.208 Y31.934 E13.57234
G1 X15.553 Y31.758 E13.60757
G1 X20.228 Y29.059 E14.09838
G1 X19.397 Y28.817 F7800.000
G1 X13.364 Y19.532 E15.10528 F1800.000
G1 X13.364 Y17.887 E15.25479
G1 X10.674 Y18.608 E15.50798
G1 X8.707 Y18.920 E15.68904
G1 X7.324 Y18.992 E15.81501
G1 X7.264 Y18.669 E15.84491
G1 X7.840 Y18.481 E15.89999
G1 X8.307 Y18.212 E15.94896
G1 X8.680 Y17.877 E15.99454
G1 X8.890 Y17.621 E16.02468
G1 X9.148 Y17.174 E16.07164
G1 X9.315 Y16.661 E16.12069
G1 X9.371 Y16.124 E16.16973
G1 X9.315 Y15.588 E16.21878
G1 X9.148 Y15.075 E16.26783
G1 X8.878 Y14.608 E16.31688
G1 X8.517 Y14.207 E16.36593
G1 X8.110 Y13.911 E16.41173
G1 X9.625 Y13.671 E16.55121
G1 X11.038 Y13.292 E16.68423
G1 X12.404 Y12.768 E16.81725
G1 X13.707 Y12.104 E16.95028
G1 X14.934 Y11.307 E17.08330
G1 X16.071 Y10.386 E17.21632
G1 X17.105 Y9.352 E17.34934
G1 X18.071 Y8.160 E17.48882
G1 X18.123 Y8.661 E17.53462
G1 X18.290 Y9.174 E17.58367
G1 X18.559 Y9.640 E17.63266
G1 X18.894 Y10.013 E17.67821
G1 X19.150 Y10.223 E17.70834
G1 X19.598 Y10.482 E17.75532
G1 X20.111 Y10.648 E17.80436
G1 X20.647 Y10.705 E17.85342
G1 X21.184 Y10.648 E17.90247
G1 X21.697 Y10.482 E17.95152
G1 X22.142 Y10.225 E17.99823
G1 X22.391 Y10.023 E18.02742
G1 X22.604 Y9.786 E18.05635
G1 X22.879 Y9.997 E18.08787
G1 X22.109 Y11.182 E18.21632
G1 X20.856 Y12.729 E18.39738
G1 X18.887 Y14.698 E18.65056
G1 X20.311 Y15.520 E18.80006
G1 X25.336 Y25.388 E19.80697
G1 X29.479 Y22.997 E20.24187
G1 X29.762 Y22.812 E20.27263
G1 X30.045 Y22.583 E20.30570
G1 X30.302 Y22.326 E20.33880
G1 X30.531 Y22.043 E20.37187
G1 X30.729 Y21.738 E20.40496
G1 X30.895 Y21.414 E20.43807
G1 X31.000 Y21.140 E20.46470
G1 X31.306 Y21.197 E20.49305
G1 X31.306 Y29.712 E21.26732
G1 X20.157 Y36.149 E22.43798
G1 X12.782 Y31.892 E23.21225
G1 X12.887 Y31.598 E23.24060
G1 X13.176 Y31.644 E23.26725
G1 X13.539 Y31.663 E23.30034
G1 X13.903 Y31.644 E23.33342
G1 X14.262 Y31.587 E23.36650
G1 X14.614 Y31.493 E23.39959
G1 X14.953 Y31.362 E23.43268
G1 X15.255 Y31.209 E23.46344
G1 X19.345 Y28.847 E23.89288
G1 X20.647 Y10.076 F7800.000
G1 X20.241 Y10.034 E23.92999 F1800.000
G1 X19.853 Y9.908 E23.96709
G1 X19.507 Y9.708 E24.00345
